( pcb2gcode 1.3.2 )
( Software-independent Gcode )

G94 ( Millimeters per minute feed rate. )
G21 ( Units == Millimeters. )

G90 ( Absolute coordinates. )
S800 ( RPM spindle speed. )
G64 P0.01000 ( set maximum deviation from commanded toolpath )
F600.00000 ( Feedrate. )

F600.00000 ( Feedrate. )
M3 ( Spindle on clockwise. )
G04 P0 ( dwell for no time -- G64 should not smooth over this point )
G00 Z8.00000 ( retract )

G00 X7.23067 Y16.40284 ( rapid move to begin. )
F300.00000
G01 Z-0.05000
G04 P0 ( dwell for no time -- G64 should not smooth over this point )
F600.00000
G01 X7.23067 Y16.40284
X7.20237 Y16.13055
X7.11363 Y15.86276
X6.98251 Y15.63670
X6.80804 Y15.44213
X6.58079 Y15.27500
X6.32239 Y15.16177
X6.05622 Y15.10739
X5.80537 Y15.10739
X5.52905 Y15.16446
X5.29014 Y15.27025
X5.18907 Y15.34096
X4.62547 Y14.77739
X4.62547 Y10.40430
X5.18907 Y9.84067
X5.29011 Y9.91138
X5.52905 Y10.01717
X5.79491 Y10.07369
X6.05622 Y10.07422
X6.34228 Y10.01342
X6.58952 Y9.90094
X6.80804 Y9.73950
X6.98249 Y9.54494
X7.11363 Y9.31888
X7.20400 Y9.04075
X7.23077 Y8.78083
X7.20237 Y8.51055
X7.11838 Y8.25208
X6.99407 Y8.03569
X7.38243 Y7.64730
X16.17906 Y7.64730
X16.62151 Y8.08970
X16.54099 Y8.29439
X16.52133 Y8.48129
X16.53665 Y8.62680
X16.58620 Y8.78642
X16.67360 Y8.94103
X16.78549 Y9.06533
X16.91203 Y9.15792
X17.07355 Y9.23165
X17.23718 Y9.26643
X17.39395 Y9.26696
X17.55788 Y9.23435
X17.72953 Y9.15792
X17.85605 Y9.06533
X17.96796 Y8.94103
X18.05160 Y8.79620
X18.08478 Y8.69579
X21.71675 Y8.69579
X21.78149 Y8.85192
X21.38167 Y9.25175
X21.33288 Y9.32477
X21.31578 Y9.41080
X21.31578 Y14.26601
X21.19272 Y14.28697
X20.93740 Y14.38371
X20.72277 Y14.51750
X20.52343 Y14.70413
X20.35597 Y14.94477
X20.25015 Y15.19649
X20.19722 Y15.46380
X20.19079 Y16.59024
X20.21690 Y16.85254
X20.29668 Y17.11368
X20.42739 Y17.35341
X20.60369 Y17.56191
X20.83554 Y17.74137
X21.08159 Y17.85978
X21.32643 Y17.92318
X21.59899 Y17.93903
X21.88881 Y17.89465
X22.14413 Y17.79791
X22.37476 Y17.65173
X22.57128 Y17.46212
X22.72556 Y17.23684
X22.83138 Y16.98513
X22.88431 Y16.71782
X22.89023 Y15.58069
X22.86056 Y15.30926
X22.77687 Y15.04935
X22.64258 Y14.81160
X22.46315 Y14.60576
X22.24598 Y14.44025
X22.01891 Y14.32888
X21.76577 Y14.26121
X21.76577 Y9.50397
X22.09790 Y9.17181
X22.23354 Y9.23165
X22.38682 Y9.26478
X22.57471 Y9.26478
X22.72797 Y9.23165
X22.87143 Y9.16836
X23.01603 Y9.06533
X23.12795 Y8.94103
X23.20684 Y8.80552
X23.26490 Y8.62680
X23.28075 Y8.47082
X23.26490 Y8.31482
X23.18004 Y8.08970
X24.06884 Y7.20090
X30.97266 Y7.20090
X31.86151 Y8.08970
X31.78099 Y8.29439
X31.76133 Y8.48129
X31.77665 Y8.62680
X31.82620 Y8.78642
X31.91360 Y8.94103
X32.02549 Y9.06533
X32.17012 Y9.16836
X32.31355 Y9.23165
X32.48764 Y9.26696
X32.63395 Y9.26696
X32.79788 Y9.23435
X32.96953 Y9.15792
X33.09605 Y9.06533
X33.20796 Y8.94103
X33.29160 Y8.79620
X33.32478 Y8.69579
X35.64677 Y8.69579
X35.67997 Y8.79620
X35.76361 Y8.94103
X35.87549 Y9.06533
X36.02012 Y9.16836
X36.16356 Y9.23165
X36.32718 Y9.26643
X36.48395 Y9.26696
X36.65799 Y9.23165
X36.80145 Y9.16836
X36.93793 Y9.07191
X37.06368 Y8.93224
X37.14537 Y8.78642
X37.19492 Y8.62680
X37.21024 Y8.48129
X37.19058 Y8.29439
X37.11006 Y8.08970
X37.62936 Y7.57039
X57.97715 Y7.57039
X67.51610 Y17.10931
X67.51610 Y20.59091
X67.16123 Y20.94580
X57.60166 Y20.94580
X57.54279 Y20.78378
X57.44827 Y20.62825
X57.30900 Y20.48175
X57.15846 Y20.37943
X57.00969 Y20.31560
X56.73585 Y20.27095
X56.55963 Y20.28772
X56.38538 Y20.34024
X56.20865 Y20.43834
X56.08582 Y20.54377
X55.97281 Y20.68644
X55.89082 Y20.84895
X55.86364 Y20.94580
X52.86921 Y20.94580
X50.39515 Y18.47174
X50.32220 Y18.42295
X50.25560 Y18.40773
X49.98166 Y18.40580
X49.91390 Y18.22562
X49.81588 Y18.07225
X49.68900 Y17.94175
X49.53846 Y17.83943
X49.37039 Y17.76956
X49.21184 Y17.73697
X49.10066 Y17.73133
X48.91982 Y17.75178
X48.76538 Y17.80024
X48.58865 Y17.89834
X48.46582 Y18.00377
X48.35281 Y18.14644
X48.26379 Y18.32793
X48.22322 Y18.48462
X48.21197 Y18.66626
X48.24258 Y18.86605
X48.30768 Y19.03600
X48.39330 Y19.17337
X48.53257 Y19.31987
X48.68311 Y19.42218
X48.83188 Y19.48601
X49.10572 Y19.53067
X49.30176 Y19.50984
X49.47478 Y19.45340
X49.61631 Y19.37484
X49.75576 Y19.25785
X49.86876 Y19.11517
X49.95075 Y18.95267
X49.97793 Y18.85579
X50.14288 Y18.85579
X52.61699 Y21.32990
X52.68996 Y21.37870
X52.77610 Y21.39579
X55.85991 Y21.39579
X55.92768 Y21.57600
X56.01330 Y21.71337
X56.13723 Y21.84669
X56.30311 Y21.96218
X56.45188 Y22.02601
X56.62973 Y22.06465
X56.74091 Y22.07029
X56.92176 Y22.04984
X57.09478 Y21.99340
X57.23631 Y21.91484
X57.37576 Y21.79785
X57.48876 Y21.65517
X57.57075 Y21.49267
X57.59793 Y21.39579
X67.16116 Y21.39579
X68.20129 Y22.43592
X68.20129 Y25.58214
X67.63250 Y26.15097
X67.53146 Y26.08026
X67.29250 Y25.97447
X67.01622 Y25.91740
X66.75491 Y25.91796
X66.49918 Y25.97178
X66.23205 Y26.09070
X66.01353 Y26.25214
X65.83906 Y26.44673
X65.70795 Y26.67277
X65.62192 Y26.93045
X65.59134 Y27.22128
X65.62192 Y27.49121
X65.69944 Y27.72979
X65.83337 Y27.96616
X66.01353 Y28.16951
X66.23200 Y28.33096
X66.49918 Y28.44988
X66.75491 Y28.50370
X67.01622 Y28.50423
X67.29250 Y28.44719
X67.53144 Y28.34139
X67.63245 Y28.27068
X68.19120 Y28.82943
X68.19120 Y34.48225
X67.63250 Y35.04100
X67.54079 Y34.97501
X67.29250 Y34.86447
X67.01622 Y34.80740
X66.75491 Y34.80796
X66.49918 Y34.86178
X66.23205 Y34.98070
X66.01353 Y35.14214
X65.83906 Y35.33673
X65.70795 Y35.56277
X65.62192 Y35.82045
X65.59134 Y36.11128
X65.62192 Y36.38121
X65.70320 Y36.62957
X65.83909 Y36.86495
X66.01353 Y37.05951
X66.25011 Y37.23139
X66.48905 Y37.33719
X66.74457 Y37.39205
X67.03700 Y37.39205
X67.29250 Y37.33719
X67.54952 Y37.22096
X67.76062 Y37.06693
X67.93591 Y36.87308
X68.08214 Y36.61979
X68.16400 Y36.36076
X68.19024 Y36.09038
X68.15966 Y35.82045
X68.07838 Y35.57209
X67.95409 Y35.35571
X68.57525 Y34.73452
X68.62402 Y34.66160
X68.64119 Y34.57542
X68.64119 Y28.73621
X68.62404 Y28.65011
X68.57525 Y28.57716
X67.95407 Y27.95600
X68.07838 Y27.73957
X68.15966 Y27.49121
X68.19077 Y27.21084
X68.15966 Y26.93045
X68.07838 Y26.68209
X67.95407 Y26.46571
X68.58533 Y25.83441
X68.64693 Y25.71928
X68.65125 Y22.34278
X68.63413 Y22.25660
X68.58533 Y22.18365
X67.57248 Y21.17085
X67.90672 Y20.83600
X67.96364 Y20.70859
X67.96606 Y17.01620
X67.94894 Y16.93001
X67.90014 Y16.85706
X58.22945 Y7.18634
X58.14723 Y7.13425
X58.09478 Y7.12284
X37.53620 Y7.12043
X37.45001 Y7.13758
X37.37709 Y7.18634
X36.79365 Y7.76981
X36.65799 Y7.70997
X36.50473 Y7.67684
X36.33765 Y7.67463
X36.16356 Y7.70997
X36.00204 Y7.78370
X35.87549 Y7.87631
X35.76358 Y8.00062
X35.67997 Y8.14545
X35.64679 Y8.24580
X33.32480 Y8.24580
X33.29160 Y8.14542
X33.21368 Y8.00938
X33.10347 Y7.88370
X32.96953 Y7.78370
X32.81777 Y7.71372
X32.65472 Y7.67684
X32.47718 Y7.67519
X32.31355 Y7.70997
X32.17791 Y7.76981
X31.22493 Y6.81685
X31.15198 Y6.76806
X31.06583 Y6.75094
X23.93173 Y6.75526
X23.81659 Y6.81685
X22.86368 Y7.76981
X22.72797 Y7.70997
X22.55393 Y7.67463
X22.39716 Y7.67519
X22.22378 Y7.71372
X22.07202 Y7.78370
X21.93808 Y7.88370
X21.82787 Y8.00938
X21.74994 Y8.14545
X21.71677 Y8.24580
X18.08480 Y8.24580
X18.05160 Y8.14542
X17.96799 Y8.00059
X17.85605 Y7.87628
X17.72953 Y7.78370
X17.56799 Y7.70997
X17.39395 Y7.67463
X17.22684 Y7.67684
X17.07355 Y7.70997
X16.93794 Y7.76978
X16.43134 Y7.26323
X16.35839 Y7.21446
X16.27228 Y7.19732
X7.28929 Y7.19732
X7.20311 Y7.21449
X7.13019 Y7.26326
X6.67250 Y7.72096
X6.57146 Y7.65025
X6.32239 Y7.54177
X6.05622 Y7.48739
X5.79491 Y7.48794
X5.51929 Y7.54822
X5.27205 Y7.66069
X5.06093 Y7.81474
X4.87906 Y8.01672
X4.74795 Y8.24276
X4.65757 Y8.52089
X4.63134 Y8.77036
X4.65757 Y9.04075
X4.74320 Y9.30956
X4.86748 Y9.52591
X4.24137 Y10.15205
X4.19456 Y10.22058
X4.17787 Y10.28674
X4.17894 Y14.90960
X4.24137 Y15.02961
X4.86748 Y15.65569
X4.74320 Y15.87210
X4.66192 Y16.12044
X4.63134 Y16.39036
X4.66192 Y16.68119
X4.74320 Y16.92956
X4.86748 Y17.14591
X3.54168 Y18.47174
X3.47924 Y18.59178
X3.47581 Y27.51635
X3.29905 Y27.55445
X3.06012 Y27.66024
X2.83906 Y27.81813
X2.64904 Y28.02671
X2.51318 Y28.26210
X2.42756 Y28.53088
X2.40132 Y28.78036
X2.42756 Y29.05074
X2.51318 Y29.31955
X2.65565 Y29.56306
X2.83904 Y29.76349
X3.04198 Y29.91094
X3.29903 Y30.02717
X3.55455 Y30.08203
X3.82621 Y30.08422
X4.09237 Y30.02986
X4.34142 Y29.92138
X4.44244 Y29.85069
X5.06707 Y30.47532
X5.14005 Y30.52412
X5.22618 Y30.54121
X15.89321 Y30.53776
X16.01325 Y30.47532
X16.54863 Y29.93992
X16.61023 Y29.82475
X16.61107 Y27.33218
X16.54863 Y27.21216
X16.22199 Y26.88554
X16.54467 Y26.55405
X16.57566 Y26.45694
X16.57759 Y26.25161
X20.68398 Y26.25161
X20.68398 Y27.28742
X20.70108 Y27.37355
X20.74987 Y27.44655
X20.99069 Y27.68734
X21.11060 Y27.74973
X22.43430 Y27.75313
X24.31057 Y29.62938
X24.24997 Y29.73545
X24.20099 Y29.88439
X24.18080 Y30.06082
X24.19665 Y30.21680
X24.24621 Y30.37642
X24.34019 Y30.53916
X24.45365 Y30.66191
X24.57204 Y30.74792
X24.72380 Y30.81789
X24.89718 Y30.85643
X25.07473 Y30.85478
X25.23777 Y30.81789
X25.38954 Y30.74792
X25.50793 Y30.66191
X25.62797 Y30.53103
X25.71161 Y30.38620
X25.76492 Y30.21680
X25.78024 Y30.05033
X25.76492 Y29.90482
X25.71537 Y29.74520
X25.62799 Y29.59059
X25.51605 Y29.46628
X25.38954 Y29.37370
X25.21788 Y29.29727
X25.05395 Y29.26463
X24.89718 Y29.26519
X24.73356 Y29.29997
X24.65286 Y29.33535
X22.68665 Y27.36916
X22.61370 Y27.32037
X22.52759 Y27.30322
X21.24294 Y27.30322
X21.13397 Y27.19428
X21.13397 Y25.84079
X21.15114 Y25.92537
X21.21477 Y25.96789
X22.37730 Y25.96980
X22.41555 Y25.96220
X22.46043 Y25.92537
X22.47730 Y25.84079
X22.70260 Y25.84079
X22.78863 Y25.82370
X22.86165 Y25.77490
X24.47785 Y24.15870
X26.34046 Y24.15870
X26.78151 Y24.59970
X26.70099 Y24.80439
X26.68080 Y24.98082
X26.70099 Y25.15723
X26.75471 Y25.31552
X26.83360 Y25.45103
X26.94549 Y25.57533
X27.07203 Y25.66792
X27.23355 Y25.74165
X27.39718 Y25.77643
X27.55395 Y25.77696
X27.72799 Y25.74165
X27.87145 Y25.67836
X28.01605 Y25.57533
X28.12796 Y25.45103
X28.21160 Y25.30620
X28.24478 Y25.20579
X29.96758 Y25.20579
X31.82872 Y27.06690
X31.77860 Y27.15478
X31.71884 Y27.34404
X31.70133 Y27.51036
X31.71884 Y27.69758
X31.78335 Y27.89618
X31.87271 Y28.04980
X31.99120 Y28.18224
X32.15076 Y28.30022
X32.33280 Y28.37944
X32.51718 Y28.41640
X32.68442 Y28.41640
X32.86877 Y28.37944
X33.04144 Y28.30497
X33.20296 Y28.18966
X33.32886 Y28.04980
X33.42673 Y27.87708
X33.47839 Y27.71803
X33.50024 Y27.53126
X33.48274 Y27.34404
X33.42297 Y27.15476
X33.32889 Y26.99182
X33.21037 Y26.85938
X33.05079 Y26.74140
X32.87888 Y26.66487
X32.70519 Y26.62740
X32.49638 Y26.62740
X32.32267 Y26.66487
X32.14398 Y26.74587
X31.01391 Y25.61585
X32.14403 Y24.48567
X32.32267 Y24.56675
X32.49638 Y24.60422
X32.70519 Y24.60422
X32.87888 Y24.56675
X33.05952 Y24.48453
X33.20296 Y24.37966
X33.32229 Y24.24793
X33.42673 Y24.06708
X33.48274 Y23.88758
X33.50024 Y23.70036
X33.48111 Y23.52370
X33.42297 Y23.34476
X33.32889 Y23.18182
X33.21037 Y23.04938
X33.04146 Y22.92665
X32.87888 Y22.85487
X32.68442 Y22.81519
X32.50672 Y22.81575
X32.32267 Y22.85487
X32.14205 Y22.93709
X31.99859 Y23.04199
X31.87268 Y23.18184
X31.78335 Y23.33544
X31.71884 Y23.53404
X31.70133 Y23.70036
X31.71884 Y23.88758
X31.77860 Y24.07689
X31.82874 Y24.16467
X30.69580 Y25.29769
X30.21985 Y24.82174
X30.09989 Y24.75931
X28.24485 Y24.75593
X28.21160 Y24.65542
X28.12799 Y24.51059
X28.01605 Y24.38628
X27.88953 Y24.29370
X27.72799 Y24.21997
X27.55395 Y24.18463
X27.38684 Y24.18684
X27.23355 Y24.21997
X27.09794 Y24.27978
X26.59273 Y23.77463
X26.51979 Y23.72586
X26.43368 Y23.70871
X24.38469 Y23.70871
X24.29850 Y23.72588
X24.22558 Y23.77465
X22.60943 Y25.39080
X22.47730 Y25.39080
X22.46043 Y25.30625
X22.43285 Y25.27866
X22.37730 Y25.26180
X21.21477 Y25.26373
X21.15114 Y25.30625
X21.13430 Y25.39080
X20.88944 Y25.39273
X20.82279 Y25.40797
X20.74985 Y25.45674
X20.70108 Y25.52972
X20.68589 Y25.59634
X20.68398 Y25.80162
X16.57759 Y25.80162
X16.57566 Y25.59629
X16.56045 Y25.52969
X16.51165 Y25.45674
X16.43870 Y25.40795
X16.37210 Y25.39273
X16.12730 Y25.39080
X16.11968 Y25.32354
X16.06555 Y25.26942
X14.84602 Y25.26942
X14.80114 Y25.30625
X14.78430 Y25.36180
X14.78620 Y25.88933
X14.80114 Y25.92537
X14.84602 Y25.96220
X16.02730 Y25.96980
X16.06555 Y25.96220
X16.11043 Y25.92537
X16.12760 Y25.84079
X16.12760 Y26.34419
X15.94002 Y26.53180
X14.88430 Y26.53180
X14.81359 Y26.56111
X14.78430 Y26.63180
X14.78430 Y27.13980
X14.79189 Y27.17807
X14.82872 Y27.22296
X14.88430 Y27.23980
X15.93992 Y27.23980
X16.16459 Y27.46443
X16.16459 Y29.68765
X15.76103 Y30.09123
X5.31932 Y30.09123
X4.76405 Y29.53598
X4.88836 Y29.31955
X4.96964 Y29.07119
X5.00022 Y28.80126
X4.97236 Y28.52054
X4.88361 Y28.25275
X4.75249 Y28.02669
X4.56250 Y27.81813
X4.34145 Y27.66024
X4.10246 Y27.55445
X3.92577 Y27.51640
X3.92577 Y18.72399
X5.18907 Y17.46064
X5.28076 Y17.52663
X5.52905 Y17.63717
X5.80537 Y17.69422
X6.05622 Y17.69422
X6.32239 Y17.63987
X6.58952 Y17.52094
X6.80804 Y17.35950
X6.98249 Y17.16494
X7.11363 Y16.93888
X7.19966 Y16.68119
X7.23067 Y16.40284
G04 P0 ( dwell for no time -- G64 should not smooth over this point )
G00 Z8.00000 ( retract )

G00 X4.63443 Y11.05565 ( rapid move to begin. )
F300.00000
G01 Z-0.05000
G04 P0 ( dwell for no time -- G64 should not smooth over this point )
F600.00000
G01 X4.63443 Y11.05565
X4.63080 Y13.48079
X4.64764 Y13.53637
X4.69252 Y13.57320
X4.73080 Y13.58079
X5.70581 Y13.58079
X5.70865 Y13.84028
X5.75605 Y13.94620
X7.23110 Y15.42458
X7.23110 Y16.94782
X6.02783 Y18.15112
X5.87736 Y18.15724
X5.77167 Y18.21645
X5.72290 Y18.28942
X5.70771 Y18.35605
X5.70581 Y18.60080
X4.73080 Y18.60080
X4.66009 Y18.63011
X4.63080 Y18.70080
X4.63840 Y21.13907
X4.67523 Y21.18395
X4.73080 Y21.20079
X5.70583 Y21.20079
X5.71249 Y26.04894
X5.77169 Y26.15461
X6.97581 Y27.35872
X6.97581 Y27.49080
X6.00080 Y27.49080
X5.94523 Y27.50767
X5.90840 Y27.55255
X5.90080 Y29.99079
X5.91764 Y30.04637
X5.95640 Y30.07992
X6.00080 Y30.09079
X8.40080 Y30.09079
X8.45635 Y30.07395
X8.48393 Y30.04637
X8.50080 Y29.99079
X8.50080 Y28.25321
X14.33906 Y28.25321
X14.43462 Y28.34333
X14.51470 Y28.37642
X14.78430 Y28.38010
X14.80114 Y28.46537
X14.86477 Y28.50789
X15.23081 Y28.50980
X15.23081 Y29.07180
X14.86477 Y29.07373
X14.82872 Y29.08866
X14.79189 Y29.13354
X14.78430 Y29.67980
X14.79189 Y29.71807
X14.82872 Y29.76296
X14.88430 Y29.77980
X16.02730 Y29.77980
X16.08861 Y29.75823
X16.12537 Y29.69933
X16.12730 Y29.17180
X16.11043 Y29.11625
X16.04681 Y29.07373
X15.68079 Y29.07180
X15.68079 Y28.50980
X16.04681 Y28.50789
X16.08285 Y28.49296
X16.11968 Y28.44807
X16.12730 Y27.90180
X16.11043 Y27.84625
X16.06555 Y27.80942
X14.88430 Y27.80180
X14.82872 Y27.81866
X14.80114 Y27.84625
X14.78430 Y27.93080
X14.65120 Y27.93080
X14.54800 Y27.83616
X14.43139 Y27.80322
X8.50080 Y27.80322
X8.49887 Y27.57129
X8.47149 Y27.52011
X8.42030 Y27.49273
X7.42579 Y27.49080
X7.42386 Y27.24599
X7.38503 Y27.13655
X6.15579 Y25.90246
X6.15579 Y21.20079
X7.13080 Y21.20079
X7.20149 Y21.17151
X7.23080 Y21.10079
X7.22318 Y18.66255
X7.18635 Y18.61767
X7.13080 Y18.60080
X6.15579 Y18.59742
X6.21210 Y18.58142
X6.28074 Y18.53453
X7.64035 Y17.17004
X7.68109 Y17.04101
X7.68109 Y16.31579
X14.74081 Y16.31579
X14.74081 Y17.84078
X14.77010 Y17.91149
X14.84081 Y17.94078
X17.34078 Y17.94078
X17.39633 Y17.92394
X17.42392 Y17.89636
X17.44078 Y17.84078
X17.44078 Y16.31579
X17.57286 Y16.31579
X19.62719 Y18.37012
X19.70016 Y18.41891
X19.78630 Y18.43600
X32.37581 Y18.43600
X32.37581 Y19.03303
X32.16013 Y19.11665
X31.99120 Y19.23938
X31.87268 Y19.37184
X31.78335 Y19.52544
X31.72318 Y19.70359
X31.70133 Y19.89036
X31.71884 Y20.07758
X31.77860 Y20.26686
X31.87271 Y20.42980
X32.00672 Y20.57621
X32.15076 Y20.68022
X32.31292 Y20.75299
X32.50672 Y20.79587
X32.70519 Y20.79422
X32.87888 Y20.75675
X33.04144 Y20.68497
X33.20296 Y20.56966
X33.33458 Y20.42101
X33.42297 Y20.26686
X33.47839 Y20.09803
X33.50077 Y19.90082
X33.48111 Y19.71370
X33.42297 Y19.53476
X33.33458 Y19.38060
X33.21037 Y19.23938
X33.05957 Y19.12711
X32.82579 Y19.03303
X32.82579 Y15.68859
X33.05952 Y15.59453
X33.20296 Y15.48966
X33.33458 Y15.34101
X33.42297 Y15.18686
X33.47839 Y15.01803
X33.50077 Y14.82082
X33.48274 Y14.64404
X33.41822 Y14.44544
X33.32889 Y14.29182
X33.21037 Y14.15938
X33.04146 Y14.03665
X32.87888 Y13.96487
X32.70519 Y13.92740
X32.50672 Y13.92575
X32.32267 Y13.96487
X32.14205 Y14.04709
X31.99859 Y14.15199
X31.87268 Y14.29184
X31.77860 Y14.45478
X31.72318 Y14.62359
X31.70133 Y14.81036
X31.72318 Y15.01803
X31.77860 Y15.18686
X31.87271 Y15.34980
X31.99120 Y15.48224
X32.14200 Y15.59451
X32.37581 Y15.68859
X32.37581 Y17.98602
X19.87941 Y17.98602
X17.82514 Y15.93174
X17.75219 Y15.88295
X17.68559 Y15.86773
X17.44078 Y15.86580
X17.44078 Y14.34081
X17.42392 Y14.28526
X17.39633 Y14.25768
X17.34078 Y14.24081
X15.04579 Y14.24081
X15.04579 Y9.23694
X15.22954 Y9.15792
X15.35605 Y9.06533
X15.46797 Y8.94103
X15.55537 Y8.78642
X15.60492 Y8.62680
X15.62077 Y8.47082
X15.60492 Y8.31482
X15.55537 Y8.15520
X15.46799 Y8.00059
X15.34793 Y7.86971
X15.21145 Y7.77326
X15.06799 Y7.70997
X14.89395 Y7.67463
X14.72684 Y7.67684
X14.56380 Y7.71372
X14.41204 Y7.78370
X14.29365 Y7.86971
X14.17358 Y8.00062
X14.08997 Y8.14545
X14.03665 Y8.31482
X14.02080 Y8.47082
X14.03665 Y8.62680
X14.08621 Y8.78642
X14.17361 Y8.94103
X14.28549 Y9.06533
X14.41204 Y9.15792
X14.59581 Y9.23691
X14.59581 Y15.60840
X14.63335 Y15.73286
X14.74081 Y15.84584
X14.74081 Y15.86580
X7.68109 Y15.86580
X7.68109 Y15.33141
X7.64032 Y15.20246
X6.15579 Y13.71305
X6.15579 Y13.58079
X7.13080 Y13.58079
X7.18635 Y13.56395
X7.22318 Y13.51907
X7.23080 Y11.08080
X7.21393 Y11.02525
X7.18635 Y10.99767
X7.13080 Y10.98080
X4.73080 Y10.98080
X4.67523 Y10.99767
X4.63443 Y11.05565
G04 P0 ( dwell for no time -- G64 should not smooth over this point )
G00 Z8.00000 ( retract )

G00 X21.14527 Y26.58722 ( rapid move to begin. )
F300.00000
G01 Z-0.05000
G04 P0 ( dwell for no time -- G64 should not smooth over this point )
F600.00000
G01 X21.14527 Y26.58722
X21.13430 Y26.63180
X21.13483 Y27.14546
X21.15978 Y27.20586
X21.21477 Y27.23789
X22.39681 Y27.23789
X22.46043 Y27.19537
X22.47730 Y27.11079
X24.21258 Y27.11079
X26.78151 Y29.67967
X26.69665 Y29.90482
X26.68080 Y30.06082
X26.69665 Y30.21680
X26.75471 Y30.39552
X26.83360 Y30.53103
X26.94549 Y30.65533
X27.07203 Y30.74792
X27.23355 Y30.82165
X27.39718 Y30.85643
X27.57472 Y30.85478
X27.73777 Y30.81789
X27.88953 Y30.74792
X28.00792 Y30.66191
X28.12796 Y30.53103
X28.20685 Y30.39552
X28.26492 Y30.21680
X28.28077 Y30.06082
X28.26492 Y29.90482
X28.20685 Y29.72610
X28.12799 Y29.59059
X28.01605 Y29.46628
X27.87145 Y29.36326
X27.72799 Y29.29997
X27.57472 Y29.26684
X27.38684 Y29.26684
X27.23355 Y29.29997
X27.09789 Y29.35983
X24.42241 Y26.69375
X24.30579 Y26.66080
X22.47730 Y26.66080
X22.46043 Y26.57625
X22.43285 Y26.54866
X22.37730 Y26.53180
X21.23430 Y26.53180
X21.17872 Y26.54866
X21.14527 Y26.58722
G04 P0 ( dwell for no time -- G64 should not smooth over this point )
G00 Z8.00000 ( retract )

G00 X21.14527 Y29.12722 ( rapid move to begin. )
F300.00000
G01 Z-0.05000
G04 P0 ( dwell for no time -- G64 should not smooth over this point )
F600.00000
G01 X21.14527 Y29.12722
X21.13430 Y29.17180
X21.13430 Y29.67980
X21.15114 Y29.73537
X21.17872 Y29.76296
X21.23430 Y29.77980
X22.37730 Y29.77980
X22.41555 Y29.77220
X22.46043 Y29.73537
X22.47730 Y29.65079
X22.60935 Y29.65079
X24.23767 Y31.27911
X24.35764 Y31.34154
X27.89641 Y31.34500
X27.98252 Y31.32790
X28.05555 Y31.27911
X28.65405 Y30.68061
X31.63237 Y30.68061
X31.82869 Y30.87690
X31.77860 Y30.96476
X31.72318 Y31.13359
X31.70133 Y31.32036
X31.71884 Y31.50758
X31.77484 Y31.68708
X31.87929 Y31.86793
X31.99120 Y31.99224
X32.14200 Y32.10451
X32.32267 Y32.18675
X32.49638 Y32.22422
X32.70519 Y32.22422
X32.87888 Y32.18675
X33.05952 Y32.10453
X33.20296 Y31.99966
X33.32229 Y31.86793
X33.42673 Y31.68708
X33.48274 Y31.50758
X33.50024 Y31.32036
X33.48111 Y31.14370
X33.42297 Y30.96476
X33.32889 Y30.80182
X33.21037 Y30.66938
X33.04146 Y30.54665
X32.87888 Y30.47487
X32.70519 Y30.43740
X32.49638 Y30.43740
X32.32267 Y30.47487
X32.14406 Y30.55594
X32.04373 Y30.45564
X33.93064 Y28.56872
X33.99224 Y28.45356
X33.99653 Y13.92039
X44.36285 Y13.92039
X47.75180 Y17.30931
X47.75180 Y19.19280
X47.76889 Y19.27893
X47.81769 Y19.35190
X48.67039 Y20.20461
X48.77605 Y20.26381
X48.88581 Y20.26917
X48.88581 Y20.30245
X48.74679 Y20.34822
X48.58865 Y20.43834
X48.45187 Y20.55845
X48.34212 Y20.70361
X48.26379 Y20.86793
X48.22017 Y21.04461
X48.21299 Y21.22647
X48.24258 Y21.40605
X48.30768 Y21.57600
X48.39330 Y21.71337
X48.53257 Y21.85987
X48.68311 Y21.96218
X48.83188 Y22.02601
X49.02479 Y22.06655
X49.28194 Y22.05390
X49.45619 Y22.00138
X49.63292 Y21.90328
X49.76970 Y21.78317
X49.87945 Y21.63800
X49.95779 Y21.47369
X49.99835 Y21.31700
X50.00960 Y21.13536
X49.98408 Y20.95515
X49.91390 Y20.76562
X49.82827 Y20.62825
X49.70435 Y20.49493
X49.53846 Y20.37943
X49.33579 Y20.30247
X49.33386 Y20.02599
X49.31865 Y19.95939
X49.26985 Y19.88645
X49.15030 Y19.82409
X48.92304 Y19.82094
X48.20178 Y19.09968
X48.20178 Y17.44111
X56.50581 Y17.44111
X56.50581 Y17.76245
X56.36679 Y17.80822
X56.22526 Y17.88678
X56.08582 Y18.00377
X55.97281 Y18.14644
X55.89082 Y18.30895
X55.84017 Y18.50461
X55.83299 Y18.68647
X55.85750 Y18.84647
X55.91879 Y19.01784
X56.01330 Y19.17337
X56.13723 Y19.30669
X56.28541 Y19.41235
X56.45188 Y19.48601
X56.62973 Y19.52465
X56.74091 Y19.53029
X56.90194 Y19.51390
X57.09478 Y19.45340
X57.25292 Y19.36328
X57.37576 Y19.25785
X57.49945 Y19.09800
X57.57779 Y18.93369
X57.61835 Y18.77700
X57.62960 Y18.59536
X57.60408 Y18.41515
X57.54279 Y18.24378
X57.44827 Y18.08825
X57.32435 Y17.95493
X57.17616 Y17.84926
X56.95579 Y17.76247
X56.95579 Y16.95917
X57.09478 Y16.91340
X57.25292 Y16.82328
X57.38970 Y16.70317
X57.49945 Y16.55800
X57.57779 Y16.39369
X57.62140 Y16.21701
X57.62859 Y16.03515
X57.59900 Y15.85557
X57.53390 Y15.68562
X57.44827 Y15.54825
X57.32435 Y15.41493
X57.15846 Y15.29943
X56.99039 Y15.22956
X56.73585 Y15.19095
X56.53982 Y15.21178
X56.36679 Y15.26822
X56.20865 Y15.35834
X56.08582 Y15.46377
X55.97281 Y15.60644
X55.88379 Y15.78793
X55.84322 Y15.94462
X55.83197 Y16.12626
X55.86258 Y16.32605
X55.92768 Y16.49600
X56.01330 Y16.63337
X56.13723 Y16.76669
X56.30311 Y16.88218
X56.50581 Y16.95917
X56.50581 Y16.99113
X48.06993 Y16.99113
X44.61515 Y13.53634
X44.49514 Y13.47391
X27.40406 Y13.47046
X24.15248 Y10.21890
X24.15248 Y8.14268
X24.64394 Y7.65122
X30.39547 Y7.65122
X31.08579 Y8.34154
X31.08625 Y8.78037
X31.12364 Y8.89556
X31.94073 Y9.71878
X32.01386 Y9.76772
X32.10001 Y9.78482
X37.86081 Y9.78136
X37.98085 Y9.71893
X38.52791 Y9.17181
X38.66355 Y9.23165
X38.81684 Y9.26478
X39.00472 Y9.26478
X39.15799 Y9.23165
X39.30145 Y9.16836
X39.44605 Y9.06533
X39.55796 Y8.94103
X39.63685 Y8.80552
X39.69492 Y8.62680
X39.71077 Y8.47082
X39.69492 Y8.31482
X39.64160 Y8.14542
X39.55799 Y8.00059
X39.44605 Y7.87628
X39.31953 Y7.78370
X39.15799 Y7.70997
X38.98395 Y7.67463
X38.82718 Y7.67519
X38.66355 Y7.70997
X38.50203 Y7.78370
X38.37549 Y7.87631
X38.26358 Y8.00062
X38.17996 Y8.14545
X38.13099 Y8.29439
X38.11080 Y8.47082
X38.12665 Y8.62680
X38.21151 Y8.85192
X37.72863 Y9.33483
X32.19310 Y9.33483
X31.53578 Y8.67750
X31.53578 Y8.24832
X31.49504 Y8.11939
X30.64789 Y7.26729
X30.54208 Y7.20796
X24.55080 Y7.20125
X24.46919 Y7.21662
X24.41077 Y7.25142
X23.76856 Y7.89025
X23.70917 Y7.99615
X23.70488 Y10.33643
X23.72159 Y10.40267
X23.76838 Y10.47112
X26.99273 Y13.69540
X26.83167 Y13.85646
X26.78288 Y13.92949
X26.76578 Y14.01552
X26.76578 Y14.26601
X26.64272 Y14.28697
X26.38740 Y14.38371
X26.15677 Y14.52989
X25.96025 Y14.71950
X25.81577 Y14.92710
X25.70622 Y15.17718
X25.64925 Y15.44424
X25.64079 Y16.59024
X25.67097 Y16.87235
X25.75466 Y17.13227
X25.88895 Y17.37002
X26.05370 Y17.56191
X26.26838 Y17.73067
X26.51262 Y17.85274
X26.77643 Y17.92318
X27.06919 Y17.93801
X27.33881 Y17.89465
X27.59413 Y17.79791
X27.80876 Y17.66412
X28.00810 Y17.47748
X28.16576 Y17.25452
X28.28138 Y16.98513
X28.33431 Y16.71782
X28.34074 Y15.59138
X28.31056 Y15.30926
X28.22687 Y15.04935
X28.10414 Y14.82821
X27.92783 Y14.61971
X27.69598 Y14.44025
X27.46891 Y14.32888
X27.21577 Y14.26121
X27.21577 Y14.10868
X27.40406 Y13.92039
X33.54659 Y13.92039
X33.54659 Y28.31645
X31.63242 Y30.23062
X28.78587 Y30.23062
X28.78587 Y28.56090
X28.74510 Y28.43192
X25.68001 Y25.36200
X25.76492 Y25.13680
X25.78077 Y24.98082
X25.76492 Y24.82482
X25.70686 Y24.64610
X25.62799 Y24.51059
X25.52347 Y24.39370
X25.38954 Y24.29370
X25.22799 Y24.21997
X25.05395 Y24.18463
X24.89718 Y24.18519
X24.73356 Y24.21997
X24.57204 Y24.29370
X24.43810 Y24.39370
X24.33358 Y24.51062
X24.25471 Y24.64610
X24.20099 Y24.80439
X24.18080 Y24.98082
X24.20099 Y25.15723
X24.25471 Y25.31552
X24.33361 Y25.45103
X24.44549 Y25.57533
X24.57204 Y25.66792
X24.73356 Y25.74165
X24.89718 Y25.77643
X25.05395 Y25.77696
X25.22799 Y25.74165
X25.36363 Y25.68184
X28.33589 Y28.65409
X28.33589 Y30.36245
X27.80332 Y30.89501
X24.48989 Y30.89501
X22.84265 Y29.25112
X22.79762 Y29.22219
X22.70260 Y29.20080
X22.47730 Y29.20080
X22.46043 Y29.11625
X22.43285 Y29.08866
X22.37730 Y29.07180
X21.23430 Y29.07180
X21.17872 Y29.08866
X21.14527 Y29.12722
G04 P0 ( dwell for no time -- G64 should not smooth over this point )
G00 Z8.00000 ( retract )

G00 X35.79195 Y30.14111 ( rapid move to begin. )
F300.00000
G01 Z-0.05000
G04 P0 ( dwell for no time -- G64 should not smooth over this point )
F600.00000
G01 X35.79195 Y30.14111
X54.48018 Y30.14111
X54.56621 Y30.12402
X54.63924 Y30.07522
X55.69864 Y29.01579
X55.85991 Y29.01579
X55.92768 Y29.19600
X56.02570 Y29.34937
X56.15257 Y29.47987
X56.28541 Y29.57235
X56.45188 Y29.64601
X56.62973 Y29.68465
X56.74091 Y29.69029
X56.92176 Y29.66984
X57.09478 Y29.61340
X57.25292 Y29.52328
X57.37576 Y29.41785
X57.49945 Y29.25800
X57.57779 Y29.09369
X57.61835 Y28.93700
X57.62859 Y28.73515
X57.59900 Y28.55557
X57.53390 Y28.38562
X57.44827 Y28.24825
X57.32435 Y28.11493
X57.17616 Y28.00926
X57.00969 Y27.93560
X56.83184 Y27.89697
X56.72066 Y27.89133
X56.53982 Y27.91178
X56.38538 Y27.96024
X56.20865 Y28.05834
X56.08582 Y28.16377
X55.97281 Y28.30644
X55.89082 Y28.46895
X55.86364 Y28.56580
X55.58595 Y28.56773
X55.47647 Y28.60655
X54.38707 Y29.69115
X35.65484 Y29.69547
X35.53968 Y29.75706
X33.01492 Y32.28182
X23.63722 Y32.28182
X21.13397 Y29.77860
X21.13397 Y28.38079
X21.15114 Y28.46537
X21.19602 Y28.50220
X21.23430 Y28.50980
X22.41555 Y28.50220
X22.46043 Y28.46537
X22.47730 Y28.40980
X22.47730 Y27.90180
X22.46043 Y27.84625
X22.43285 Y27.81866
X22.37730 Y27.80180
X21.21477 Y27.80373
X21.15114 Y27.84625
X21.13430 Y27.93149
X20.86468 Y27.93522
X20.78393 Y27.96878
X20.72188 Y28.03083
X20.68683 Y28.12168
X20.68637 Y29.89628
X20.71035 Y29.97517
X20.74987 Y30.03082
X23.38499 Y32.66592
X23.45797 Y32.71472
X23.52462 Y32.72991
X33.14710 Y32.72836
X33.26714 Y32.66592
X35.79195 Y30.14111
G04 P0 ( dwell for no time -- G64 should not smooth over this point )
G00 Z8.00000 ( retract )

G00 X41.25288 Y31.55579 ( rapid move to begin. )
F300.00000
G01 Z-0.05000
G04 P0 ( dwell for no time -- G64 should not smooth over this point )
F600.00000
G01 X41.25288 Y31.55579
X46.30108 Y36.59789
X46.42610 Y36.63579
X48.21080 Y36.63579
X48.21271 Y37.23033
X48.24009 Y37.28151
X48.29127 Y37.30889
X49.91080 Y37.31080
X49.94905 Y37.30320
X49.99393 Y37.26637
X50.01080 Y37.21080
X50.01080 Y35.61080
X49.99393 Y35.55525
X49.96635 Y35.52766
X49.91080 Y35.51080
X48.29127 Y35.51273
X48.24009 Y35.54011
X48.21271 Y35.59129
X48.21080 Y36.18580
X46.51921 Y36.18580
X41.48618 Y31.15617
X41.42763 Y31.12120
X41.36560 Y31.10773
X41.09166 Y31.10580
X41.03279 Y30.94378
X40.93827 Y30.78825
X40.81435 Y30.65493
X40.66616 Y30.54926
X40.48039 Y30.46956
X40.22585 Y30.43095
X40.02982 Y30.45178
X39.85679 Y30.50822
X39.69865 Y30.59834
X39.56187 Y30.71845
X39.46281 Y30.84644
X39.38082 Y31.00895
X39.33322 Y31.18462
X39.32197 Y31.36626
X39.34750 Y31.54647
X39.40879 Y31.71784
X39.50330 Y31.87337
X39.62723 Y32.00669
X39.77541 Y32.11235
X39.94188 Y32.18601
X40.11973 Y32.22465
X40.23091 Y32.23029
X40.41176 Y32.20984
X40.58478 Y32.15340
X40.72631 Y32.07484
X40.86576 Y31.95785
X40.97876 Y31.81517
X41.06075 Y31.65267
X41.08793 Y31.55579
X41.25288 Y31.55579
G04 P0 ( dwell for no time -- G64 should not smooth over this point )
G00 Z8.00000 ( retract )

G00 X42.56458 Y24.61118 ( rapid move to begin. )
F300.00000
G01 Z-0.05000
G04 P0 ( dwell for no time -- G64 should not smooth over this point )
F600.00000
G01 X42.56458 Y24.61118
X41.50515 Y23.55174
X41.43220 Y23.50295
X41.36560 Y23.48773
X41.09166 Y23.48580
X41.02390 Y23.30562
X40.93827 Y23.16825
X40.81435 Y23.03493
X40.64846 Y22.91943
X40.44579 Y22.84247
X40.44579 Y20.76917
X40.58478 Y20.72340
X40.74292 Y20.63328
X40.87970 Y20.51317
X40.98945 Y20.36800
X41.06779 Y20.20369
X41.10835 Y20.04700
X41.11960 Y19.86536
X41.09408 Y19.68515
X41.03279 Y19.51378
X40.93827 Y19.35825
X40.79900 Y19.21175
X40.64846 Y19.10943
X40.48039 Y19.03956
X40.22585 Y19.00095
X40.02982 Y19.02178
X39.85679 Y19.07822
X39.69865 Y19.16834
X39.57582 Y19.27377
X39.46281 Y19.41644
X39.37379 Y19.59793
X39.33322 Y19.75462
X39.32197 Y19.93626
X39.34750 Y20.11647
X39.40879 Y20.28784
X39.51570 Y20.45937
X39.64257 Y20.58987
X39.77541 Y20.68235
X39.99581 Y20.76917
X39.99581 Y22.84245
X39.85679 Y22.88822
X39.69865 Y22.97834
X39.57582 Y23.08377
X39.46281 Y23.22644
X39.37379 Y23.40793
X39.33322 Y23.56462
X39.32197 Y23.74626
X39.35258 Y23.94605
X39.41768 Y24.11600
X39.50330 Y24.25337
X39.64257 Y24.39987
X39.79311 Y24.50218
X39.94188 Y24.56601
X40.11973 Y24.60465
X40.23091 Y24.61029
X40.41176 Y24.58984
X40.58478 Y24.53340
X40.74292 Y24.44328
X40.87970 Y24.32317
X40.98945 Y24.17800
X41.06075 Y24.03267
X41.08793 Y23.93579
X41.25285 Y23.93579
X42.31229 Y24.99522
X42.38526 Y25.04402
X42.47139 Y25.06111
X54.09761 Y25.06111
X55.46540 Y26.42555
X55.57131 Y26.47295
X55.85991 Y26.47579
X55.92768 Y26.65600
X56.02570 Y26.80937
X56.15257 Y26.93987
X56.28541 Y27.03235
X56.45188 Y27.10601
X56.64479 Y27.14655
X56.90194 Y27.13390
X57.07619 Y27.08138
X57.23631 Y26.99484
X57.37576 Y26.87785
X57.48876 Y26.73517
X57.57779 Y26.55369
X57.62140 Y26.37701
X57.62859 Y26.19515
X57.60408 Y26.03515
X57.53390 Y25.84562
X57.44827 Y25.70825
X57.32435 Y25.57493
X57.15846 Y25.45943
X56.99039 Y25.38956
X56.73585 Y25.35095
X56.55963 Y25.36772
X56.38538 Y25.42024
X56.20865 Y25.51834
X56.07187 Y25.63845
X55.96212 Y25.78361
X55.89082 Y25.92895
X55.86364 Y26.02580
X55.69859 Y26.02580
X54.34985 Y24.67706
X54.22984 Y24.61463
X42.56458 Y24.61118
G04 P0 ( dwell for no time -- G64 should not smooth over this point )
G00 Z8.00000 ( retract )

G00 X46.88805 Y22.29525 ( rapid move to begin. )
F300.00000
G01 Z-0.05000
G04 P0 ( dwell for no time -- G64 should not smooth over this point )
F600.00000
G01 X46.88805 Y22.29525
X40.44579 Y15.85300
X40.44579 Y15.68917
X40.58478 Y15.64340
X40.72631 Y15.56484
X40.86576 Y15.44785
X40.97876 Y15.30517
X41.06779 Y15.12369
X41.10835 Y14.96700
X41.11960 Y14.78536
X41.09408 Y14.60515
X41.02390 Y14.41562
X40.92588 Y14.26225
X40.79900 Y14.13175
X40.64846 Y14.02943
X40.48039 Y13.95956
X40.22585 Y13.92095
X40.04963 Y13.93772
X39.87538 Y13.99024
X39.71526 Y14.07678
X39.57582 Y14.19377
X39.45212 Y14.35361
X39.37379 Y14.51793
X39.33322 Y14.67462
X39.32299 Y14.87647
X39.35258 Y15.05605
X39.41768 Y15.22600
X39.51570 Y15.37937
X39.64257 Y15.50987
X39.79311 Y15.61218
X39.99581 Y15.68917
X39.99771 Y15.96560
X40.01290 Y16.03225
X40.04927 Y16.09011
X41.04752 Y17.09100
X38.93269 Y19.20575
X38.87026 Y19.32579
X38.86871 Y25.28600
X38.88390 Y25.35265
X38.93269 Y25.42563
X39.99581 Y26.48872
X39.99581 Y26.65245
X39.85679 Y26.69822
X39.69865 Y26.78834
X39.57582 Y26.89377
X39.46281 Y27.03644
X39.37379 Y27.21793
X39.33017 Y27.39461
X39.32299 Y27.57647
X39.34750 Y27.73647
X39.41768 Y27.92600
X39.50330 Y28.06337
X39.62723 Y28.19669
X39.79311 Y28.31218
X39.96119 Y28.38206
X40.11973 Y28.41465
X40.23091 Y28.42029
X40.41176 Y28.39984
X40.58478 Y28.34340
X40.72631 Y28.26484
X40.87970 Y28.13317
X40.97876 Y28.00517
X41.06075 Y27.84267
X41.10835 Y27.66700
X41.11859 Y27.46515
X41.09408 Y27.30515
X41.03279 Y27.13378
X40.92588 Y26.96225
X40.79900 Y26.83175
X40.66616 Y26.73926
X40.44579 Y26.65247
X40.44386 Y26.37599
X40.40505 Y26.26657
X39.31679 Y25.17348
X39.31679 Y19.45802
X41.36563 Y17.40916
X46.63577 Y22.67930
X46.70875 Y22.72810
X46.79488 Y22.74519
X54.32174 Y22.74519
X55.48051 Y23.89792
X55.57131 Y23.93295
X55.85991 Y23.93579
X55.91879 Y24.09784
X56.01330 Y24.25337
X56.15257 Y24.39987
X56.30311 Y24.50218
X56.45188 Y24.56601
X56.64479 Y24.60655
X56.92176 Y24.58984
X57.09478 Y24.53340
X57.25292 Y24.44328
X57.38970 Y24.32317
X57.49945 Y24.17800
X57.57779 Y24.01369
X57.62140 Y23.83701
X57.62859 Y23.65515
X57.60408 Y23.49515
X57.53390 Y23.30562
X57.44827 Y23.16825
X57.32435 Y23.03493
X57.15846 Y22.91943
X56.99039 Y22.84956
X56.73585 Y22.81095
X56.55963 Y22.82772
X56.38538 Y22.88024
X56.20865 Y22.97834
X56.07187 Y23.09845
X55.96212 Y23.24361
X55.89082 Y23.38895
X55.86364 Y23.48580
X55.69859 Y23.48580
X54.57393 Y22.36114
X54.45392 Y22.29871
X46.88805 Y22.29525
G04 P0 ( dwell for no time -- G64 should not smooth over this point )
G00 Z8.00000 ( retract )

G00 X49.10066 Y22.81133 ( rapid move to begin. )
F300.00000
G01 Z-0.05000
G04 P0 ( dwell for no time -- G64 should not smooth over this point )
F600.00000
G01 X49.10066 Y22.81133
X48.91982 Y22.83178
X48.74679 Y22.88822
X48.58865 Y22.97834
X48.46582 Y23.08377
X48.35281 Y23.22644
X48.27082 Y23.38895
X48.22322 Y23.56462
X48.21197 Y23.74626
X48.23750 Y23.92647
X48.29879 Y24.09784
X48.39330 Y24.25337
X48.51723 Y24.38669
X48.66541 Y24.49235
X48.83188 Y24.56601
X49.10572 Y24.61067
X49.28194 Y24.59390
X49.45619 Y24.54138
X49.61631 Y24.45484
X49.75576 Y24.33785
X49.86876 Y24.19517
X49.95075 Y24.03267
X49.99835 Y23.85700
X50.00960 Y23.67536
X49.98408 Y23.49515
X49.92279 Y23.32378
X49.82827 Y23.16825
X49.70435 Y23.03493
X49.55616 Y22.92926
X49.38969 Y22.85560
X49.21184 Y22.81697
X49.10066 Y22.81133
G04 P0 ( dwell for no time -- G64 should not smooth over this point )
G00 Z8.00000 ( retract )

G00 X49.10066 Y25.35133 ( rapid move to begin. )
F300.00000
G01 Z-0.05000
G04 P0 ( dwell for no time -- G64 should not smooth over this point )
F600.00000
G01 X49.10066 Y25.35133
X48.91982 Y25.37178
X48.74679 Y25.42822
X48.58865 Y25.51834
X48.46582 Y25.62377
X48.35281 Y25.76644
X48.27082 Y25.92895
X48.22322 Y26.10462
X48.21197 Y26.28626
X48.23750 Y26.46647
X48.29879 Y26.63784
X48.39330 Y26.79337
X48.51723 Y26.92669
X48.66541 Y27.03235
X48.83188 Y27.10601
X49.10572 Y27.15067
X49.28194 Y27.13390
X49.45619 Y27.08138
X49.61631 Y26.99484
X49.75576 Y26.87785
X49.86876 Y26.73517
X49.95075 Y26.57267
X49.99835 Y26.39700
X50.00960 Y26.21536
X49.98408 Y26.03515
X49.92279 Y25.86378
X49.82827 Y25.70825
X49.70435 Y25.57493
X49.55616 Y25.46926
X49.38969 Y25.39560
X49.21184 Y25.35697
X49.10066 Y25.35133
G04 P0 ( dwell for no time -- G64 should not smooth over this point )
G00 Z8.00000 ( retract )

G00 X49.10066 Y27.89133 ( rapid move to begin. )
F300.00000
G01 Z-0.05000
G04 P0 ( dwell for no time -- G64 should not smooth over this point )
F600.00000
G01 X49.10066 Y27.89133
X48.91982 Y27.91178
X48.74679 Y27.96822
X48.58865 Y28.05834
X48.46582 Y28.16377
X48.35281 Y28.30644
X48.27082 Y28.46895
X48.22322 Y28.64462
X48.21197 Y28.82626
X48.23750 Y29.00647
X48.29879 Y29.17784
X48.39330 Y29.33337
X48.51723 Y29.46669
X48.66541 Y29.57235
X48.83188 Y29.64601
X49.10572 Y29.69067
X49.28194 Y29.67390
X49.45619 Y29.62138
X49.61631 Y29.53484
X49.75576 Y29.41785
X49.86876 Y29.27517
X49.95075 Y29.11267
X49.99835 Y28.93700
X50.00960 Y28.75536
X49.98408 Y28.57515
X49.92279 Y28.40378
X49.82827 Y28.24825
X49.70435 Y28.11493
X49.55616 Y28.00926
X49.38969 Y27.93560
X49.21184 Y27.89697
X49.10066 Y27.89133
G04 P0 ( dwell for no time -- G64 should not smooth over this point )
G00 Z8.00000 ( retract )

G00 X49.10066 Y30.43133 ( rapid move to begin. )
F300.00000
G01 Z-0.05000
G04 P0 ( dwell for no time -- G64 should not smooth over this point )
F600.00000
G01 X49.10066 Y30.43133
X48.91982 Y30.45178
X48.74679 Y30.50822
X48.58865 Y30.59834
X48.46582 Y30.70377
X48.35281 Y30.84644
X48.27082 Y31.00895
X48.22322 Y31.18462
X48.21197 Y31.36626
X48.23750 Y31.54647
X48.29879 Y31.71784
X48.39330 Y31.87337
X48.51723 Y32.00669
X48.66541 Y32.11235
X48.83188 Y32.18601
X49.10572 Y32.23067
X49.28194 Y32.21390
X49.45619 Y32.16138
X49.61631 Y32.07484
X49.75576 Y31.95785
X49.86876 Y31.81517
X49.95075 Y31.65267
X49.99835 Y31.47700
X50.00960 Y31.29536
X49.98408 Y31.11515
X49.92279 Y30.94378
X49.82827 Y30.78825
X49.70435 Y30.65493
X49.55616 Y30.54926
X49.38969 Y30.47560
X49.21184 Y30.43697
X49.10066 Y30.43133
G04 P0 ( dwell for no time -- G64 should not smooth over this point )
G00 Z8.00000 ( retract )

G00 X49.10066 Y32.97133 ( rapid move to begin. )
F300.00000
G01 Z-0.05000
G04 P0 ( dwell for no time -- G64 should not smooth over this point )
F600.00000
G01 X49.10066 Y32.97133
X48.91982 Y32.99178
X48.74679 Y33.04822
X48.58865 Y33.13834
X48.46582 Y33.24377
X48.35281 Y33.38644
X48.27082 Y33.54895
X48.22322 Y33.72462
X48.21197 Y33.90626
X48.23750 Y34.08647
X48.29879 Y34.25784
X48.39330 Y34.41337
X48.51723 Y34.54669
X48.66541 Y34.65235
X48.83188 Y34.72601
X49.10572 Y34.77067
X49.28194 Y34.75390
X49.45619 Y34.70138
X49.61631 Y34.61484
X49.75576 Y34.49785
X49.86876 Y34.35517
X49.95075 Y34.19267
X49.99835 Y34.01700
X50.00960 Y33.83536
X49.98408 Y33.65515
X49.92279 Y33.48378
X49.82827 Y33.32825
X49.70435 Y33.19493
X49.55616 Y33.08926
X49.38969 Y33.01560
X49.21184 Y32.97697
X49.10066 Y32.97133
G04 P0 ( dwell for no time -- G64 should not smooth over this point )
G00 Z8.00000 ( retract )

G00 X56.72066 Y35.51133 ( rapid move to begin. )
F300.00000
G01 Z-0.05000
G04 P0 ( dwell for no time -- G64 should not smooth over this point )
F600.00000
G01 X56.72066 Y35.51133
X56.53982 Y35.53178
X56.36679 Y35.58822
X56.20865 Y35.67834
X56.08582 Y35.78377
X55.97281 Y35.92644
X55.89082 Y36.08895
X55.84322 Y36.26462
X55.83197 Y36.44626
X55.85750 Y36.62647
X55.91879 Y36.79784
X56.01330 Y36.95337
X56.13723 Y37.08669
X56.28541 Y37.19235
X56.45188 Y37.26601
X56.72572 Y37.31067
X56.90194 Y37.29390
X57.07619 Y37.24138
X57.23631 Y37.15484
X57.37576 Y37.03785
X57.48876 Y36.89517
X57.57075 Y36.73267
X57.61835 Y36.55700
X57.62960 Y36.37536
X57.60408 Y36.19515
X57.54279 Y36.02378
X57.44827 Y35.86825
X57.32435 Y35.73493
X57.17616 Y35.62926
X57.00969 Y35.55560
X56.83184 Y35.51697
X56.72066 Y35.51133
G04 P0 ( dwell for no time -- G64 should not smooth over this point )
G00 Z8.00000 ( retract )

G00 X58.07987 Y31.31459 ( rapid move to begin. )
F300.00000
G01 Z-0.05000
G04 P0 ( dwell for no time -- G64 should not smooth over this point )
F600.00000
G01 X58.07987 Y31.31459
X65.45865 Y23.93579
X65.59080 Y23.93579
X65.59080 Y24.91079
X65.60764 Y24.96637
X65.65252 Y25.00320
X68.09080 Y25.01079
X68.16149 Y24.98151
X68.19080 Y24.91079
X68.19080 Y22.51080
X68.16149 Y22.44011
X68.09080 Y22.41080
X65.69080 Y22.41080
X65.63523 Y22.42767
X65.59840 Y22.47255
X65.59080 Y22.51080
X65.59080 Y23.48580
X65.34595 Y23.48773
X65.27930 Y23.50297
X65.20637 Y23.55174
X57.66483 Y31.10580
X57.60166 Y31.10580
X57.53390 Y30.92562
X57.43588 Y30.77225
X57.30900 Y30.64175
X57.17616 Y30.54926
X57.00969 Y30.47560
X56.83184 Y30.43697
X56.72066 Y30.43133
X56.55963 Y30.44772
X56.36679 Y30.50822
X56.20865 Y30.59834
X56.07187 Y30.71845
X55.96212 Y30.86361
X55.88379 Y31.02793
X55.84322 Y31.18462
X55.83197 Y31.36626
X55.85750 Y31.54647
X55.91879 Y31.71784
X56.01330 Y31.87337
X56.13723 Y32.00669
X56.28541 Y32.11235
X56.45188 Y32.18601
X56.72572 Y32.23067
X56.92176 Y32.20984
X57.09478 Y32.15340
X57.23631 Y32.07484
X57.37576 Y31.95785
X57.48876 Y31.81517
X57.57075 Y31.65267
X57.59793 Y31.55579
X57.85610 Y31.55579
X57.94218 Y31.53870
X58.01515 Y31.48993
X58.05467 Y31.43425
X58.07987 Y31.31459
G04 P0 ( dwell for no time -- G64 should not smooth over this point )
G00 Z8.00000 ( retract )

G00 X68.17987 Y33.84524 ( rapid move to begin. )
F300.00000
G01 Z-0.05000
G04 P0 ( dwell for no time -- G64 should not smooth over this point )
F600.00000
G01 X68.17987 Y33.84524
X68.19080 Y33.80079
X68.19080 Y31.40080
X68.16149 Y31.33011
X68.09080 Y31.30080
X65.69080 Y31.30080
X65.62009 Y31.33011
X65.59080 Y31.40080
X65.59080 Y32.37585
X59.08213 Y32.38015
X58.96699 Y32.44174
X57.76293 Y33.64580
X57.60166 Y33.64580
X57.53390 Y33.46562
X57.43588 Y33.31225
X57.30900 Y33.18175
X57.15846 Y33.07943
X57.00969 Y33.01560
X56.83184 Y32.97697
X56.72066 Y32.97133
X56.55963 Y32.98772
X56.36679 Y33.04822
X56.20865 Y33.13834
X56.07187 Y33.25845
X55.96212 Y33.40361
X55.88379 Y33.56793
X55.84322 Y33.72462
X55.83197 Y33.90626
X55.85750 Y34.08647
X55.92768 Y34.27600
X56.02570 Y34.42937
X56.15257 Y34.55987
X56.28541 Y34.65235
X56.45188 Y34.72601
X56.64479 Y34.76655
X56.90194 Y34.75390
X57.07619 Y34.70138
X57.25292 Y34.60328
X57.38970 Y34.48317
X57.49945 Y34.33800
X57.57075 Y34.19267
X57.59793 Y34.09579
X57.87558 Y34.09389
X57.94213 Y34.07870
X58.01515 Y34.02990
X59.21926 Y32.82579
X65.59080 Y32.82579
X65.59080 Y33.80079
X65.60764 Y33.85637
X65.65252 Y33.89320
X68.09080 Y33.90079
X68.14635 Y33.88395
X68.17987 Y33.84524
G04 P0 ( dwell for no time -- G64 should not smooth over this point )
G00 Z8.00000 ( retract )

G00 X56.72066 Y12.65133 ( rapid move to begin. )
F300.00000
G01 Z-0.05000
G04 P0 ( dwell for no time -- G64 should not smooth over this point )
F600.00000
G01 X56.72066 Y12.65133
X56.53982 Y12.67178
X56.36679 Y12.72822
X56.20865 Y12.81834
X56.08582 Y12.92377
X55.97281 Y13.06644
X55.89082 Y13.22895
X55.84322 Y13.40462
X55.83197 Y13.58626
X55.85750 Y13.76647
X55.91879 Y13.93784
X56.01330 Y14.09337
X56.13723 Y14.22669
X56.28541 Y14.33235
X56.45188 Y14.40601
X56.72572 Y14.45067
X56.90194 Y14.43390
X57.07619 Y14.38138
X57.23631 Y14.29484
X57.37576 Y14.17785
X57.48876 Y14.03517
X57.57075 Y13.87267
X57.61835 Y13.69700
X57.62960 Y13.51536
X57.60408 Y13.33515
X57.54279 Y13.16378
X57.44827 Y13.00825
X57.32435 Y12.87493
X57.17616 Y12.76926
X57.00969 Y12.69560
X56.83184 Y12.65697
X56.72066 Y12.65133
G04 P0 ( dwell for no time -- G64 should not smooth over this point )
G00 Z8.00000 ( retract )

G00 X56.72066 Y10.11133 ( rapid move to begin. )
F300.00000
G01 Z-0.05000
G04 P0 ( dwell for no time -- G64 should not smooth over this point )
F600.00000
G01 X56.72066 Y10.11133
X56.53982 Y10.13178
X56.36679 Y10.18822
X56.20865 Y10.27834
X56.08582 Y10.38377
X55.97281 Y10.52644
X55.89082 Y10.68895
X55.84322 Y10.86462
X55.83197 Y11.04626
X55.85750 Y11.22647
X55.91879 Y11.39784
X56.01330 Y11.55337
X56.13723 Y11.68669
X56.28541 Y11.79235
X56.45188 Y11.86601
X56.72572 Y11.91067
X56.90194 Y11.89390
X57.07619 Y11.84138
X57.23631 Y11.75484
X57.37576 Y11.63785
X57.48876 Y11.49517
X57.57075 Y11.33267
X57.61835 Y11.15700
X57.62960 Y10.97536
X57.60408 Y10.79515
X57.54279 Y10.62378
X57.44827 Y10.46825
X57.32435 Y10.33493
X57.17616 Y10.22926
X57.00969 Y10.15560
X56.83184 Y10.11697
X56.72066 Y10.11133
G04 P0 ( dwell for no time -- G64 should not smooth over this point )
G00 Z8.00000 ( retract )

G00 X56.72066 Y7.57133 ( rapid move to begin. )
F300.00000
G01 Z-0.05000
G04 P0 ( dwell for no time -- G64 should not smooth over this point )
F600.00000
G01 X56.72066 Y7.57133
X56.53982 Y7.59178
X56.36679 Y7.64822
X56.20865 Y7.73834
X56.08582 Y7.84377
X55.97281 Y7.98644
X55.89082 Y8.14895
X55.84322 Y8.32462
X55.83197 Y8.50626
X55.85750 Y8.68647
X55.91879 Y8.85784
X56.01330 Y9.01337
X56.13723 Y9.14669
X56.28541 Y9.25235
X56.45188 Y9.32601
X56.72572 Y9.37067
X56.90194 Y9.35390
X57.07619 Y9.30138
X57.23631 Y9.21484
X57.37576 Y9.09785
X57.48876 Y8.95517
X57.57075 Y8.79267
X57.61835 Y8.61700
X57.62960 Y8.43536
X57.60408 Y8.25515
X57.54279 Y8.08378
X57.44827 Y7.92825
X57.32435 Y7.79493
X57.17616 Y7.68926
X57.00969 Y7.61560
X56.83184 Y7.57697
X56.72066 Y7.57133
G04 P0 ( dwell for no time -- G64 should not smooth over this point )
G00 Z8.00000 ( retract )

G00 X56.72066 Y5.03133 ( rapid move to begin. )
F300.00000
G01 Z-0.05000
G04 P0 ( dwell for no time -- G64 should not smooth over this point )
F600.00000
G01 X56.72066 Y5.03133
X56.53982 Y5.05178
X56.36679 Y5.10822
X56.20865 Y5.19834
X56.08582 Y5.30377
X55.97281 Y5.44644
X55.89082 Y5.60895
X55.84322 Y5.78462
X55.83197 Y5.96626
X55.85750 Y6.14647
X55.91879 Y6.31784
X56.01330 Y6.47337
X56.13723 Y6.60669
X56.28541 Y6.71235
X56.45188 Y6.78601
X56.72572 Y6.83067
X56.90194 Y6.81390
X57.07619 Y6.76138
X57.23631 Y6.67484
X57.37576 Y6.55785
X57.48876 Y6.41517
X57.57075 Y6.25267
X57.61835 Y6.07700
X57.62960 Y5.89536
X57.60408 Y5.71515
X57.54279 Y5.54378
X57.44827 Y5.38825
X57.32435 Y5.25493
X57.17616 Y5.14926
X57.00969 Y5.07560
X56.83184 Y5.03697
X56.72066 Y5.03133
G04 P0 ( dwell for no time -- G64 should not smooth over this point )
G00 Z8.00000 ( retract )

G00 X56.72066 Y2.49133 ( rapid move to begin. )
F300.00000
G01 Z-0.05000
G04 P0 ( dwell for no time -- G64 should not smooth over this point )
F600.00000
G01 X56.72066 Y2.49133
X56.53982 Y2.51178
X56.36679 Y2.56822
X56.20865 Y2.65834
X56.08582 Y2.76377
X55.97281 Y2.90644
X55.89082 Y3.06895
X55.84322 Y3.24462
X55.83197 Y3.42626
X55.85750 Y3.60647
X55.91879 Y3.77784
X56.01330 Y3.93337
X56.13723 Y4.06669
X56.28541 Y4.17235
X56.45188 Y4.24601
X56.72572 Y4.29067
X56.90194 Y4.27390
X57.07619 Y4.22138
X57.23631 Y4.13484
X57.37576 Y4.01785
X57.48876 Y3.87517
X57.57075 Y3.71267
X57.61835 Y3.53700
X57.62960 Y3.35536
X57.60408 Y3.17515
X57.54279 Y3.00378
X57.44827 Y2.84825
X57.32435 Y2.71493
X57.17616 Y2.60926
X57.00969 Y2.53560
X56.83184 Y2.49697
X56.72066 Y2.49133
G04 P0 ( dwell for no time -- G64 should not smooth over this point )
G00 Z8.00000 ( retract )

G00 X49.10066 Y2.49133 ( rapid move to begin. )
F300.00000
G01 Z-0.05000
G04 P0 ( dwell for no time -- G64 should not smooth over this point )
F600.00000
G01 X49.10066 Y2.49133
X48.91982 Y2.51178
X48.74679 Y2.56822
X48.58865 Y2.65834
X48.46582 Y2.76377
X48.35281 Y2.90644
X48.27082 Y3.06895
X48.22322 Y3.24462
X48.21197 Y3.42626
X48.23750 Y3.60647
X48.29879 Y3.77784
X48.39330 Y3.93337
X48.51723 Y4.06669
X48.66541 Y4.17235
X48.83188 Y4.24601
X49.10572 Y4.29067
X49.28194 Y4.27390
X49.45619 Y4.22138
X49.61631 Y4.13484
X49.75576 Y4.01785
X49.86876 Y3.87517
X49.95075 Y3.71267
X49.99835 Y3.53700
X50.00960 Y3.35536
X49.98408 Y3.17515
X49.92279 Y3.00378
X49.82827 Y2.84825
X49.70435 Y2.71493
X49.55616 Y2.60926
X49.38969 Y2.53560
X49.21184 Y2.49697
X49.10066 Y2.49133
G04 P0 ( dwell for no time -- G64 should not smooth over this point )
G00 Z8.00000 ( retract )

G00 X49.10066 Y5.03133 ( rapid move to begin. )
F300.00000
G01 Z-0.05000
G04 P0 ( dwell for no time -- G64 should not smooth over this point )
F600.00000
G01 X49.10066 Y5.03133
X48.91982 Y5.05178
X48.74679 Y5.10822
X48.58865 Y5.19834
X48.46582 Y5.30377
X48.35281 Y5.44644
X48.27082 Y5.60895
X48.22322 Y5.78462
X48.21197 Y5.96626
X48.23750 Y6.14647
X48.29879 Y6.31784
X48.39330 Y6.47337
X48.51723 Y6.60669
X48.66541 Y6.71235
X48.83188 Y6.78601
X49.10572 Y6.83067
X49.28194 Y6.81390
X49.45619 Y6.76138
X49.61631 Y6.67484
X49.75576 Y6.55785
X49.86876 Y6.41517
X49.95075 Y6.25267
X49.99835 Y6.07700
X50.00960 Y5.89536
X49.98408 Y5.71515
X49.92279 Y5.54378
X49.82827 Y5.38825
X49.70435 Y5.25493
X49.55616 Y5.14926
X49.38969 Y5.07560
X49.21184 Y5.03697
X49.10066 Y5.03133
G04 P0 ( dwell for no time -- G64 should not smooth over this point )
G00 Z8.00000 ( retract )

G00 X49.10066 Y7.57133 ( rapid move to begin. )
F300.00000
G01 Z-0.05000
G04 P0 ( dwell for no time -- G64 should not smooth over this point )
F600.00000
G01 X49.10066 Y7.57133
X48.91982 Y7.59178
X48.74679 Y7.64822
X48.58865 Y7.73834
X48.46582 Y7.84377
X48.35281 Y7.98644
X48.27082 Y8.14895
X48.22322 Y8.32462
X48.21197 Y8.50626
X48.23750 Y8.68647
X48.29879 Y8.85784
X48.39330 Y9.01337
X48.51723 Y9.14669
X48.66541 Y9.25235
X48.83188 Y9.32601
X49.10572 Y9.37067
X49.28194 Y9.35390
X49.45619 Y9.30138
X49.61631 Y9.21484
X49.75576 Y9.09785
X49.86876 Y8.95517
X49.95075 Y8.79267
X49.99835 Y8.61700
X50.00960 Y8.43536
X49.98408 Y8.25515
X49.92279 Y8.08378
X49.82827 Y7.92825
X49.70435 Y7.79493
X49.55616 Y7.68926
X49.38969 Y7.61560
X49.21184 Y7.57697
X49.10066 Y7.57133
G04 P0 ( dwell for no time -- G64 should not smooth over this point )
G00 Z8.00000 ( retract )

G00 X49.10066 Y10.11133 ( rapid move to begin. )
F300.00000
G01 Z-0.05000
G04 P0 ( dwell for no time -- G64 should not smooth over this point )
F600.00000
G01 X49.10066 Y10.11133
X48.91982 Y10.13178
X48.74679 Y10.18822
X48.58865 Y10.27834
X48.46582 Y10.38377
X48.35281 Y10.52644
X48.27082 Y10.68895
X48.22322 Y10.86462
X48.21197 Y11.04626
X48.23750 Y11.22647
X48.29879 Y11.39784
X48.39330 Y11.55337
X48.51723 Y11.68669
X48.66541 Y11.79235
X48.83188 Y11.86601
X49.10572 Y11.91067
X49.28194 Y11.89390
X49.45619 Y11.84138
X49.61631 Y11.75484
X49.75576 Y11.63785
X49.86876 Y11.49517
X49.95075 Y11.33267
X49.99835 Y11.15700
X50.00960 Y10.97536
X49.98408 Y10.79515
X49.92279 Y10.62378
X49.82827 Y10.46825
X49.70435 Y10.33493
X49.55616 Y10.22926
X49.38969 Y10.15560
X49.21184 Y10.11697
X49.10066 Y10.11133
G04 P0 ( dwell for no time -- G64 should not smooth over this point )
G00 Z8.00000 ( retract )

G00 X44.62254 Y10.50607 ( rapid move to begin. )
F300.00000
G01 Z-0.05000
G04 P0 ( dwell for no time -- G64 should not smooth over this point )
F600.00000
G01 X44.62254 Y10.50607
X47.82637 Y13.70990
X47.89935 Y13.75870
X47.96600 Y13.77389
X48.23991 Y13.77579
X48.29879 Y13.93784
X48.39330 Y14.09337
X48.53257 Y14.23987
X48.68311 Y14.34218
X48.83188 Y14.40601
X49.02479 Y14.44655
X49.30176 Y14.42984
X49.47478 Y14.37340
X49.63292 Y14.28328
X49.75576 Y14.17785
X49.86876 Y14.03517
X49.95075 Y13.87267
X49.97793 Y13.77579
X50.27021 Y13.77295
X50.36096 Y13.73794
X51.45448 Y12.65049
X61.86226 Y12.65049
X66.33881 Y17.12696
X66.30228 Y17.24640
X66.29133 Y17.35033
X66.30662 Y17.49562
X66.34267 Y17.60484
X66.39969 Y17.70469
X66.49745 Y17.81325
X66.60012 Y17.88515
X66.70538 Y17.93143
X66.81775 Y17.95587
X66.94305 Y17.95805
X67.07617 Y17.93143
X67.19077 Y17.88040
X67.29964 Y17.79928
X67.37617 Y17.71348
X67.43416 Y17.61416
X67.47495 Y17.49562
X67.49077 Y17.36082
X67.47495 Y17.22600
X67.43416 Y17.10746
X67.37619 Y17.00814
X67.29964 Y16.92234
X67.18145 Y16.83646
X67.07617 Y16.79019
X66.96382 Y16.76575
X66.82809 Y16.76410
X66.65885 Y16.81071
X62.11453 Y12.26645
X62.00887 Y12.20724
X51.36139 Y12.20053
X51.27521 Y12.21768
X51.20229 Y12.26645
X50.14293 Y13.32580
X49.98166 Y13.32580
X49.92279 Y13.16378
X49.82827 Y13.00825
X49.70435 Y12.87493
X49.55616 Y12.76926
X49.37039 Y12.68956
X49.11585 Y12.65095
X48.91982 Y12.67178
X48.74679 Y12.72822
X48.60526 Y12.80678
X48.46582 Y12.92377
X48.35281 Y13.06644
X48.27082 Y13.22895
X48.24364 Y13.32580
X48.07859 Y13.32580
X44.87484 Y10.12205
X44.76918 Y10.06284
X31.96428 Y10.05616
X30.76004 Y8.85197
X30.84492 Y8.62680
X30.86077 Y8.47082
X30.84058 Y8.29439
X30.79161 Y8.14542
X30.70799 Y8.00059
X30.59605 Y7.87628
X30.46954 Y7.78370
X30.30799 Y7.70997
X30.13395 Y7.67463
X29.97718 Y7.67519
X29.80380 Y7.71372
X29.65204 Y7.78370
X29.53365 Y7.86971
X29.42019 Y7.99246
X29.32997 Y8.14545
X29.27665 Y8.31482
X29.26133 Y8.48129
X29.27665 Y8.62680
X29.32621 Y8.78642
X29.41361 Y8.94103
X29.52549 Y9.06533
X29.65204 Y9.15792
X29.80380 Y9.22789
X29.97718 Y9.26643
X30.15473 Y9.26478
X30.30799 Y9.23165
X30.44363 Y9.17184
X31.71198 Y10.44021
X31.83197 Y10.50264
X44.62254 Y10.50607
G04 P0 ( dwell for no time -- G64 should not smooth over this point )
G00 Z8.00000 ( retract )

G00 X43.84093 Y12.26446 ( rapid move to begin. )
F300.00000
G01 Z-0.05000
G04 P0 ( dwell for no time -- G64 should not smooth over this point )
F600.00000
G01 X43.84093 Y12.26446
X47.82637 Y16.24990
X47.89935 Y16.29870
X47.96600 Y16.31389
X48.23991 Y16.31579
X48.30768 Y16.49600
X48.39330 Y16.63337
X48.51723 Y16.76669
X48.68311 Y16.88218
X48.85119 Y16.95206
X49.10572 Y16.99067
X49.28194 Y16.97390
X49.45619 Y16.92138
X49.61631 Y16.83484
X49.75576 Y16.71785
X49.86876 Y16.57517
X49.95075 Y16.41267
X49.97793 Y16.31579
X50.27021 Y16.31295
X50.36096 Y16.27794
X51.45448 Y15.19049
X61.86226 Y15.19049
X63.79881 Y17.12696
X63.76228 Y17.24640
X63.75133 Y17.35033
X63.76662 Y17.49562
X63.80267 Y17.60484
X63.85969 Y17.70469
X63.95745 Y17.81325
X64.06012 Y17.88515
X64.16538 Y17.93143
X64.27775 Y17.95587
X64.40305 Y17.95805
X64.53617 Y17.93143
X64.65077 Y17.88040
X64.75964 Y17.79928
X64.83617 Y17.71348
X64.89416 Y17.61416
X64.93495 Y17.49562
X64.95077 Y17.36082
X64.93495 Y17.22600
X64.89416 Y17.10746
X64.83619 Y17.00814
X64.75964 Y16.92234
X64.64145 Y16.83646
X64.53617 Y16.79019
X64.42382 Y16.76575
X64.28809 Y16.76410
X64.11882 Y16.81071
X62.11453 Y14.80645
X62.04158 Y14.75765
X61.95548 Y14.74051
X51.36139 Y14.74051
X51.27521 Y14.75768
X51.20229 Y14.80645
X50.14293 Y15.86580
X49.98166 Y15.86580
X49.92279 Y15.70378
X49.82827 Y15.54825
X49.70435 Y15.41493
X49.55616 Y15.30926
X49.37039 Y15.22956
X49.11585 Y15.19095
X48.91982 Y15.21178
X48.74679 Y15.26822
X48.60526 Y15.34678
X48.46582 Y15.46377
X48.35281 Y15.60644
X48.27082 Y15.76895
X48.24364 Y15.86580
X48.07859 Y15.86580
X44.09323 Y11.88044
X43.97322 Y11.81801
X28.64259 Y11.81455
X25.68004 Y8.85197
X25.76492 Y8.62680
X25.78077 Y8.47082
X25.76492 Y8.31482
X25.70686 Y8.13610
X25.62799 Y8.00059
X25.50793 Y7.86971
X25.38954 Y7.78370
X25.23777 Y7.71372
X25.07473 Y7.67684
X24.89718 Y7.67519
X24.73356 Y7.70997
X24.57204 Y7.78370
X24.44549 Y7.87631
X24.34019 Y7.99246
X24.24997 Y8.14545
X24.19665 Y8.31482
X24.18133 Y8.48129
X24.19665 Y8.62680
X24.24621 Y8.78642
X24.33361 Y8.94103
X24.44549 Y9.06533
X24.57204 Y9.15792
X24.72380 Y9.22789
X24.89718 Y9.26643
X25.07473 Y9.26478
X25.22799 Y9.23165
X25.36360 Y9.17184
X28.39029 Y12.19860
X28.51028 Y12.26104
X43.84093 Y12.26446

G04 P0 ( dwell for no time -- G64 should not smooth over this point )
G00 Z10.000 ( retract )

M5 ( Spindle off. )
M9 ( Coolant off. )
M2 ( Program end. )

