( pcb2gcode 1.3.2 )
( Software-independent Gcode )

G94 ( Millimeters per minute feed rate. )
G21 ( Units == Millimeters. )

G90 ( Absolute coordinates. )
S1000 ( RPM spindle speed. )
G64 P0.01000 ( set maximum deviation from commanded toolpath )
F600.00000 ( Feedrate. )

F600.00000 ( Feedrate. )
M3 ( Spindle on clockwise. )
G04 P0 ( dwell for no time -- G64 should not smooth over this point )
G00 Z8.00000 ( retract )

G00 X0.85080 Y39.70078 ( rapid move to begin. )
G01 Z-1.00000 F300.00000 ( plunge. )
G04 P0 ( dwell for no time -- G64 should not smooth over this point )
F600.00000
G01 X0.85080 Y39.70078
X35.41080 Y39.70078
Z-0.60000
X37.41080 Y39.70078
Z-1.00000 F300.00000
F600.00000
G01 X71.97080 Y39.70078
X72.11710 Y39.68638
X72.25779 Y39.64371
X72.38746 Y39.57439
X72.50110 Y39.48112
X72.59437 Y39.36748
X72.66369 Y39.23782
X72.70636 Y39.09713
X72.72079 Y38.95080
X72.72079 Y0.85080
X72.70636 Y0.70449
X72.66369 Y0.56380
X72.59437 Y0.43414
X72.50110 Y0.32050
X72.38746 Y0.22723
X72.25779 Y0.15791
X72.11710 Y0.11524
X71.97080 Y0.10081
X37.41080 Y0.10081
Z-0.60000
X35.41080 Y0.10081
Z-1.00000 F300.00000
F600.00000
G01 X0.85080 Y0.10081
X0.70447 Y0.11524
X0.56378 Y0.15791
X0.43411 Y0.22723
X0.32047 Y0.32050
X0.22720 Y0.43414
X0.15789 Y0.56380
X0.11522 Y0.70449
X0.10081 Y0.85080
X0.10081 Y38.95080
X0.11522 Y39.09713
X0.15789 Y39.23782
X0.22720 Y39.36748
X0.32047 Y39.48112
X0.43411 Y39.57439
X0.56378 Y39.64371
X0.70447 Y39.68638
X0.85080 Y39.70078

G04 P0 ( dwell for no time -- G64 should not smooth over this point )
G00 Z10.000 ( retract )

M5 ( Spindle off. )
M9 ( Coolant off. )
M2 ( Program end. )

