(Generated by PartKam Version 0.05)

G21 G90 G40

(profile 1)
G0 Z8
T0 M6
G17
M3
G0 X12.74492385786802 Y18.87005076142132
G1 Z2.9 F800
G3 X12.80203045685279 Y18.878172588832488 I0 J0.22588832487309643 F1500
G3 X12.857868020304569 Y18.901015228426395 I-0.05837563451776649 J0.2182741116751269
G3 X12.903553299492385 Y18.936548223350254 I-0.1116751269035533 J0.1954314720812183
G3 X12.939086294416244 Y18.982233502538072 I-0.1598984771573604 J0.1598984771573604
G3 X12.961928934010151 Y19.038071065989847 I-0.1954314720812183 J0.1116751269035533
G3 X12.969543147208123 Y19.093908629441625 I-0.2182741116751269 J0.05837563451776649
G1 X12.969543147208123 Y19.093908629441625
G1 X12.969543147208123 Y19.093908629441625
G3 X12.961928934010151 Y19.15228426395939 I-0.22588832487309643 J0
G3 X12.939086294416244 Y19.208121827411166 I-0.2182741116751269 J-0.05837563451776649
G3 X12.903553299492385 Y19.253807106598984 I-0.1954314720812183 J-0.1116751269035533
G3 X12.857868020304569 Y19.289340101522843 I-0.1598984771573604 J-0.1598984771573604
G3 X12.80203045685279 Y19.312182741116754 I-0.1116751269035533 J-0.1954314720812183
G3 X12.743654822335024 Y19.31979695431472 I-0.05837563451776649 J-0.2182741116751269
G3 X12.68781725888325 Y19.312182741116754 I0 J-0.22588832487309643
G3 X12.631979695431472 Y19.289340101522843 I0.05837563451776649 J-0.2182741116751269
G3 X12.586294416243655 Y19.253807106598984 I0.1116751269035533 J-0.1954314720812183
G3 X12.550761421319796 Y19.208121827411166 I0.1598984771573604 J-0.1598984771573604
G3 X12.527918781725889 Y19.15228426395939 I0.1954314720812183 J-0.1116751269035533
G3 X12.520304568527918 Y19.093908629441625 I0.2182741116751269 J-0.05837563451776649
G1 X12.520304568527918 Y19.093908629441625
G1 X12.520304568527918 Y19.093908629441625
G3 X12.527918781725889 Y19.038071065989847 I0.22588832487309643 J0
G3 X12.550761421319796 Y18.982233502538072 I0.2182741116751269 J0.05837563451776649
G3 X12.586294416243655 Y18.936548223350254 I0.1954314720812183 J0.1116751269035533
G3 X12.631979695431472 Y18.901015228426395 I0.1598984771573604 J0.1598984771573604
G3 X12.68781725888325 Y18.878172588832488 I0.1116751269035533 J0.1954314720812183
G3 X12.743654822335024 Y18.87055837563452 I0.05837563451776649 J0.2182741116751269
G0 Z8
G0 X13.893654822335025 Y17.946192893401015
G1 Z2.9 F800
G1 X13.893401015228426 Y20.246192893401016 F1500
G1 X11.593908629441625 Y20.246192893401016
G1 X11.593908629441625 Y17.946700507614214
G1 X13.893401015228426 Y17.946700507614214
G0 Z8
G0 X12.74492385786802 Y26.49010152284264
G1 Z2.9 F800
G3 X12.80203045685279 Y26.497461928934012 I0 J0.22588832487309643 F1500
G3 X12.857868020304569 Y26.52030456852792 I-0.05837563451776649 J0.2182741116751269
G3 X12.903553299492385 Y26.555837563451774 I-0.1116751269035533 J0.1954314720812183
G3 X12.939086294416244 Y26.601522842639596 I-0.1598984771573604 J0.1598984771573604
G3 X12.961928934010151 Y26.65736040609137 I-0.1954314720812183 J0.1116751269035533
G3 X12.969543147208123 Y26.715736040609137 I-0.2182741116751269 J0.05837563451776649
G1 X12.969543147208123 Y26.715736040609137
G1 X12.969543147208123 Y26.715736040609137
G3 X12.961928934010151 Y26.774111675126903 I-0.22588832487309643 J0
G3 X12.939086294416244 Y26.827411167512693 I-0.2182741116751269 J-0.05837563451776649
G3 X12.903553299492385 Y26.873096446700508 I-0.1954314720812183 J-0.1116751269035533
G3 X12.857868020304569 Y26.911167512690355 I-0.1598984771573604 J-0.1598984771573604
G3 X12.80203045685279 Y26.931472081218274 I-0.1116751269035533 J-0.1954314720812183
G3 X12.743654822335024 Y26.939086294416246 I-0.05837563451776649 J-0.2182741116751269
G3 X12.68781725888325 Y26.931472081218274 I0 J-0.22588832487309643
G3 X12.631979695431472 Y26.911167512690355 I0.05837563451776649 J-0.2182741116751269
G3 X12.586294416243655 Y26.873096446700508 I0.1116751269035533 J-0.1954314720812183
G3 X12.550761421319796 Y26.827411167512693 I0.1598984771573604 J-0.1598984771573604
G3 X12.527918781725889 Y26.774111675126903 I0.1954314720812183 J-0.1116751269035533
G3 X12.520304568527918 Y26.715736040609137 I0.2182741116751269 J-0.05837563451776649
G1 X12.520304568527918 Y26.715736040609137
G1 X12.520304568527918 Y26.715736040609137
G3 X12.527918781725889 Y26.65736040609137 I0.22588832487309643 J0
G3 X12.550761421319796 Y26.601522842639596 I0.2182741116751269 J0.05837563451776649
G3 X12.586294416243655 Y26.555837563451774 I0.1954314720812183 J0.1116751269035533
G3 X12.631979695431472 Y26.52030456852792 I0.1598984771573604 J0.1598984771573604
G3 X12.68781725888325 Y26.497461928934012 I0.1116751269035533 J0.1954314720812183
G3 X12.743654822335024 Y26.48984771573604 I0.05837563451776649 J0.2182741116751269
G0 Z8
G0 X13.893654822335025 Y25.566243654822333
G1 Z2.9 F800
G1 X13.893401015228426 Y27.865482233502537 F1500
G1 X11.593908629441625 Y27.865482233502537
G1 X11.593908629441625 Y25.565989847715738
G1 X13.893401015228426 Y25.565989847715738
G0 Z8
G0 X53.38477157360406 Y29.48020304568528
G1 Z2.9 F800
G3 X53.327411167512686 Y29.472081218274113 I0 J-0.22588832487309643 F1500
G3 X53.27157360406091 Y29.449238578680202 I0.05837563451776649 J-0.2182741116751269
G3 X53.2258883248731 Y29.413705583756347 I0.1116751269035533 J-0.1954314720812183
G3 X53.19035532994924 Y29.368020304568528 I0.1598984771573604 J-0.1598984771573604
G3 X53.16751269035534 Y29.31218274111675 I0.1954314720812183 J-0.1116751269035533
G3 X53.159898477157356 Y29.256345177664972 I0.2182741116751269 J-0.05837563451776649
G1 X53.159898477157356 Y29.256345177664972
G1 X53.159898477157356 Y29.256345177664972
G3 X53.16751269035534 Y29.19796954314721 I0.22588832487309643 J0
G3 X53.19035532994924 Y29.14213197969543 I0.2182741116751269 J0.05837563451776649
G3 X53.2258883248731 Y29.096446700507613 I0.1954314720812183 J0.1116751269035533
G3 X53.27157360406091 Y29.060913705583754 I0.1598984771573604 J0.1598984771573604
G3 X53.327411167512686 Y29.038071065989847 I0.1116751269035533 J0.1954314720812183
G3 X53.38578680203046 Y29.03045685279188 I0.05837563451776649 J0.2182741116751269
G3 X53.444162436548226 Y29.038071065989847 I0 J0.22588832487309643
G3 X53.497461928934015 Y29.060913705583754 I-0.05837563451776649 J0.2182741116751269
G3 X53.54314720812183 Y29.096446700507613 I-0.1116751269035533 J0.1954314720812183
G3 X53.578680203045685 Y29.14213197969543 I-0.1598984771573604 J0.1598984771573604
G3 X53.601522842639596 Y29.19796954314721 I-0.1954314720812183 J0.1116751269035533
G3 X53.60913705583756 Y29.256345177664972 I-0.2182741116751269 J0.05837563451776649
G1 X53.60913705583756 Y29.256345177664972
G1 X53.60913705583756 Y29.256345177664972
G3 X53.601522842639596 Y29.31218274111675 I-0.22588832487309643 J0
G3 X53.578680203045685 Y29.368020304568528 I-0.2182741116751269 J-0.05837563451776649
G3 X53.54314720812183 Y29.413705583756347 I-0.1954314720812183 J-0.1116751269035533
G3 X53.497461928934015 Y29.449238578680202 I-0.1598984771573604 J-0.1598984771573604
G3 X53.444162436548226 Y29.472081218274113 I-0.1116751269035533 J-0.1954314720812183
G3 X53.38578680203046 Y29.47969543147208 I-0.05837563451776649 J-0.2182741116751269
G0 Z8
G0 X54.533756345177665 Y28.106345177664974
G1 Z2.9 F800
G1 X54.53299492385787 Y30.40609137055838 F1500
G1 X52.233502538071065 Y30.40609137055838
G1 X52.233502538071065 Y28.106598984771573
G1 X54.53299492385787 Y28.106598984771573
G0 Z8
G0 X39.301269035533 Y18.256091370558376
G1 Z2.9 F800
G1 X39.30203045685279 Y18.66497461928934 F1500
G1 X38.25888324873097 Y18.66497461928934
G1 X38.25888324873097 Y18.256345177664976
G1 X39.30203045685279 Y18.256345177664976
G0 Z8
G0 X39.301269035533 Y16.986040609137056
G1 Z2.9 F800
G1 X39.30203045685279 Y17.393401015228427 F1500
G1 X38.25888324873097 Y17.393401015228427
G1 X38.25888324873097 Y16.98730964467005
G1 X39.30203045685279 Y16.98730964467005
G0 Z8
G0 X39.301269035533 Y15.716243654822335
G1 Z2.9 F800
G1 X39.30203045685279 Y16.124365482233504 F1500
G1 X38.25888324873097 Y16.124365482233504
G1 X38.25888324873097 Y15.715736040609137
G1 X39.30203045685279 Y15.715736040609137
G0 Z8
G0 X39.301269035533 Y14.446192893401015
G1 Z2.9 F800
G1 X39.30203045685279 Y14.855329949238579 F1500
G1 X38.25888324873097 Y14.855329949238579
G1 X38.25888324873097 Y14.446700507614214
G1 X39.30203045685279 Y14.446700507614214
G0 Z8
G0 X32.951269035532995 Y14.446192893401015
G1 Z2.9 F800
G1 X32.95177664974619 Y14.855329949238579 F1500
G1 X31.908629441624367 Y14.855329949238579
G1 X31.908629441624367 Y14.446700507614214
G1 X32.95177664974619 Y14.446700507614214
G0 Z8
G0 X32.951269035532995 Y15.716243654822335
G1 Z2.9 F800
G1 X32.95177664974619 Y16.124365482233504 F1500
G1 X31.908629441624367 Y16.124365482233504
G1 X31.908629441624367 Y15.715736040609137
G1 X32.95177664974619 Y15.715736040609137
G0 Z8
G0 X32.951269035532995 Y16.986040609137056
G1 Z2.9 F800
G1 X32.95177664974619 Y17.393401015228427 F1500
G1 X31.908629441624367 Y17.393401015228427
G1 X31.908629441624367 Y16.98730964467005
G1 X32.95177664974619 Y16.98730964467005
G0 Z8
G0 X32.951269035532995 Y18.256091370558376
G1 Z2.9 F800
G1 X32.95177664974619 Y18.66497461928934 F1500
G1 X31.908629441624367 Y18.66497461928934
G1 X31.908629441624367 Y18.256345177664976
G1 X32.95177664974619 Y18.256345177664976
G0 Z8
G0 X39.301269035533 Y27.146192893401015
G1 Z2.9 F800
G1 X39.30203045685279 Y27.553299492385786 F1500
G1 X38.25888324873097 Y27.553299492385786
G1 X38.25888324873097 Y27.14720812182741
G1 X39.30203045685279 Y27.14720812182741
G0 Z8
G0 X39.301269035533 Y25.876142131979694
G1 Z2.9 F800
G1 X39.30203045685279 Y26.284263959390863 F1500
G1 X38.25888324873097 Y26.284263959390863
G1 X38.25888324873097 Y25.875634517766496
G1 X39.30203045685279 Y25.875634517766496
G0 Z8
G0 X39.301269035533 Y24.606091370558374
G1 Z2.9 F800
G1 X39.30203045685279 Y25.015228426395943 F1500
G1 X38.25888324873097 Y25.015228426395943
G1 X38.25888324873097 Y24.606598984771573
G1 X39.30203045685279 Y24.606598984771573
G0 Z8
G0 X39.301269035533 Y23.336040609137054
G1 Z2.9 F800
G1 X39.30203045685279 Y23.743654822335024 F1500
G1 X38.25888324873097 Y23.743654822335024
G1 X38.25888324873097 Y23.33502538071066
G1 X39.30203045685279 Y23.33502538071066
G0 Z8
G0 X32.951269035532995 Y23.336040609137054
G1 Z2.9 F800
G1 X32.95177664974619 Y23.743654822335024 F1500
G1 X31.908629441624367 Y23.743654822335024
G1 X31.908629441624367 Y23.33502538071066
G1 X32.95177664974619 Y23.33502538071066
G0 Z8
G0 X32.951269035532995 Y24.606091370558374
G1 Z2.9 F800
G1 X32.95177664974619 Y25.015228426395943 F1500
G1 X31.908629441624367 Y25.015228426395943
G1 X31.908629441624367 Y24.606598984771573
G1 X32.95177664974619 Y24.606598984771573
G0 Z8
G0 X32.951269035532995 Y25.876142131979694
G1 Z2.9 F800
G1 X32.95177664974619 Y26.284263959390863 F1500
G1 X31.908629441624367 Y26.284263959390863
G1 X31.908629441624367 Y25.875634517766496
G1 X32.95177664974619 Y25.875634517766496
G0 Z8
G0 X32.951269035532995 Y27.146192893401015
G1 Z2.9 F800
G1 X32.95177664974619 Y27.553299492385786 F1500
G1 X31.908629441624367 Y27.553299492385786
G1 X31.908629441624367 Y27.14720812182741
G1 X32.95177664974619 Y27.14720812182741
G0 Z8
G0 X53.337055837563454 Y22.370558375634516
G1 Z2.9 F800
G3 X53.296954314720814 Y22.34263959390863 I0.04822335025380711 J-0.11675126903553298 F1500
G3 X53.26903553299492 Y22.30203045685279 I0.08883248730964467 J-0.08883248730964467
G3 X53.25888324873097 Y22.256345177664976 I0.11675126903553298 J-0.04822335025380711
G1 X53.25888324873097 Y22.256345177664976
G3 X53.26395939086295 Y22.223350253807105 I0.12436548223350254 J0
G3 X53.276649746192895 Y22.192893401015226 I0.1218274111675127 J0.03299492385786802
G3 X53.296954314720814 Y22.16751269035533 I0.10913705583756345 J0.06345177664974619
G3 X53.32233502538071 Y22.14720812182741 I0.08883248730964467 J0.08883248730964467
G3 X53.35279187817258 Y22.134517766497463 I0.06345177664974619 J0.10913705583756345
G3 X53.38578680203046 Y22.12944162436548 I0.03299492385786802 J0.1218274111675127
G3 X53.41624365482233 Y22.134517766497463 I0 J0.12436548223350254
G3 X53.44670050761422 Y22.14720812182741 I-0.03299492385786802 J0.1218274111675127
G3 X53.47208121827411 Y22.16751269035533 I-0.06345177664974619 J0.10913705583756345
G3 X53.49238578680203 Y22.192893401015226 I-0.08883248730964467 J0.08883248730964467
G3 X53.50507614213198 Y22.223350253807105 I-0.10913705583756345 J0.06345177664974619
G3 X53.51015228426397 Y22.256345177664976 I-0.1218274111675127 J0.03299492385786802
G1 X53.51015228426397 Y22.256345177664976
G3 X53.5 Y22.30203045685279 I-0.12436548223350254 J0
G3 X53.47208121827411 Y22.34263959390863 I-0.11675126903553298 J-0.04822335025380711
G3 X53.431472081218274 Y22.370558375634516 I-0.08883248730964467 J-0.08883248730964467
G3 X53.38578680203046 Y22.380710659898476 I-0.04822335025380711 J-0.11675126903553298
G3 X53.33756345177665 Y22.370558375634516 I0 J-0.12436548223350254
G0 Z8
G0 X53.38477157360406 Y21.10507614213198
G1 Z2.9 F800
G3 X53.8248730964467 Y21.192893401015226 I0 J1.1497461928934012 F1500
G3 X54.1979695431472 Y21.441624365482234 I-0.4390862944162437 J1.0634517766497462
G3 X54.44670050761421 Y21.814720812182742 I-0.8121827411167513 J0.8121827411167513
G3 X54.535532994923855 Y22.256345177664976 I-1.0634517766497462 J0.4390862944162437
G3 X54.44670050761421 Y22.695431472081218 I-1.1497461928934012 J0
G3 X54.1979695431472 Y23.068527918781726 I-1.0634517766497462 J-0.4390862944162437
G3 X53.8248730964467 Y23.317258883248734 I-0.8121827411167513 J-0.8121827411167513
G3 X53.38578680203046 Y23.406091370558375 I-0.4390862944162437 J-1.0634517766497462
G3 X52.944162436548226 Y23.317258883248734 I0 J-1.1497461928934012
G3 X52.57106598984771 Y23.068527918781726 I0.4390862944162437 J-1.0634517766497462
G3 X52.32233502538071 Y22.695431472081218 I0.8121827411167513 J-0.8121827411167513
G3 X52.23604060913706 Y22.256345177664976 I1.0634517766497462 J-0.4390862944162437
G3 X52.32233502538071 Y21.814720812182742 I1.1497461928934012 J0
G3 X52.57106598984771 Y21.441624365482234 I1.0634517766497462 J0.4390862944162437
G3 X52.944162436548226 Y21.192893401015226 I0.8121827411167513 J0.8121827411167513
G3 X53.38578680203046 Y21.104060913705585 I0.4390862944162437 J1.0634517766497462
G0 Z8
G0 X53.337055837563454 Y18.870558375634516
G1 Z2.9 F800
G3 X53.296954314720814 Y18.84263959390863 I0.04822335025380711 J-0.11675126903553298 F1500
G3 X53.26903553299492 Y18.80203045685279 I0.08883248730964467 J-0.08883248730964467
G3 X53.25888324873097 Y18.753807106598984 I0.11675126903553298 J-0.04822335025380711
G1 X53.25888324873097 Y18.753807106598984
G3 X53.26395939086295 Y18.72335025380711 I0.12436548223350254 J0
G3 X53.276649746192895 Y18.69289340101523 I0.1218274111675127 J0.03299492385786802
G3 X53.296954314720814 Y18.66751269035533 I0.10913705583756345 J0.06345177664974619
G3 X53.32233502538071 Y18.64720812182741 I0.08883248730964467 J0.08883248730964467
G3 X53.35279187817258 Y18.634517766497463 I0.06345177664974619 J0.10913705583756345
G3 X53.38578680203046 Y18.62944162436548 I0.03299492385786802 J0.1218274111675127
G3 X53.41624365482233 Y18.634517766497463 I0 J0.12436548223350254
G3 X53.44670050761422 Y18.64720812182741 I-0.03299492385786802 J0.1218274111675127
G3 X53.47208121827411 Y18.66751269035533 I-0.06345177664974619 J0.10913705583756345
G3 X53.49238578680203 Y18.69289340101523 I-0.08883248730964467 J0.08883248730964467
G3 X53.50507614213198 Y18.72335025380711 I-0.10913705583756345 J0.06345177664974619
G3 X53.51015228426397 Y18.753807106598984 I-0.1218274111675127 J0.03299492385786802
G1 X53.51015228426397 Y18.753807106598984
G3 X53.5 Y18.80203045685279 I-0.12436548223350254 J0
G3 X53.47208121827411 Y18.84263959390863 I-0.11675126903553298 J-0.04822335025380711
G3 X53.431472081218274 Y18.87055837563452 I-0.08883248730964467 J-0.08883248730964467
G3 X53.38578680203046 Y18.880710659898476 I-0.04822335025380711 J-0.11675126903553298
G3 X53.33756345177665 Y18.87055837563452 I0 J-0.12436548223350254
G0 Z8
G0 X53.38477157360406 Y17.60507614213198
G1 Z2.9 F800
G3 X53.8248730964467 Y17.69289340101523 I0 J1.1497461928934012 F1500
G3 X54.1979695431472 Y17.941624365482234 I-0.4390862944162437 J1.0634517766497462
G3 X54.44670050761421 Y18.314720812182742 I-0.8121827411167513 J0.8121827411167513
G3 X54.535532994923855 Y18.753807106598984 I-1.0634517766497462 J0.4390862944162437
G3 X54.44670050761421 Y19.195431472081218 I-1.1497461928934012 J0
G3 X54.1979695431472 Y19.568527918781726 I-1.0634517766497462 J-0.4390862944162437
G3 X53.8248730964467 Y19.817258883248734 I-0.8121827411167513 J-0.8121827411167513
G3 X53.38578680203046 Y19.906091370558375 I-0.4390862944162437 J-1.0634517766497462
G3 X52.944162436548226 Y19.817258883248734 I0 J-1.1497461928934012
G3 X52.57106598984771 Y19.568527918781726 I0.4390862944162437 J-1.0634517766497462
G3 X52.32233502538071 Y19.195431472081218 I0.8121827411167513 J-0.8121827411167513
G3 X52.23604060913706 Y18.753807106598984 I1.0634517766497462 J-0.4390862944162437
G3 X52.32233502538071 Y18.314720812182742 I1.1497461928934012 J0
G3 X52.57106598984771 Y17.941624365482234 I1.0634517766497462 J0.4390862944162437
G3 X52.944162436548226 Y17.69289340101523 I0.8121827411167513 J0.8121827411167513
G3 X53.38578680203046 Y17.604060913705585 I0.4390862944162437 J1.0634517766497462
G0 Z8
G0 X53.43274111675127 Y11.639593908629442
G1 Z2.9 F800
G3 X53.47208121827411 Y11.66751269035533 I-0.04822335025380711 J0.11675126903553298 F1500
G3 X53.5 Y11.708121827411166 I-0.08883248730964467 J0.08883248730964467
G3 X53.51015228426397 Y11.753807106598986 I-0.11675126903553298 J0.04822335025380711
G1 X53.51015228426397 Y11.753807106598986
G3 X53.50507614213198 Y11.786802030456853 I-0.12436548223350254 J0
G3 X53.49238578680203 Y11.817258883248732 I-0.1218274111675127 J-0.03299492385786802
G3 X53.47208121827411 Y11.84263959390863 I-0.10913705583756345 J-0.06345177664974619
G3 X53.44670050761422 Y11.862944162436548 I-0.08883248730964467 J-0.08883248730964467
G3 X53.41624365482233 Y11.875634517766498 I-0.06345177664974619 J-0.10913705583756345
G3 X53.38578680203046 Y11.880710659898476 I-0.03299492385786802 J-0.1218274111675127
G3 X53.35279187817258 Y11.875634517766498 I0 J-0.12436548223350254
G3 X53.32233502538071 Y11.862944162436548 I0.03299492385786802 J-0.1218274111675127
G3 X53.296954314720814 Y11.84263959390863 I0.06345177664974619 J-0.10913705583756345
G3 X53.276649746192895 Y11.817258883248732 I0.08883248730964467 J-0.08883248730964467
G3 X53.26395939086295 Y11.786802030456853 I0.10913705583756345 J-0.06345177664974619
G3 X53.25888324873097 Y11.753807106598986 I0.1218274111675127 J-0.03299492385786802
G1 X53.25888324873097 Y11.753807106598986
G3 X53.26903553299492 Y11.708121827411166 I0.12436548223350254 J0
G3 X53.296954314720814 Y11.66751269035533 I0.11675126903553298 J0.04822335025380711
G3 X53.33756345177665 Y11.639593908629442 I0.08883248730964467 J0.08883248730964467
G3 X53.38578680203046 Y11.629441624365482 I0.04822335025380711 J0.11675126903553298
G3 X53.431472081218274 Y11.639593908629442 I0 J0.12436548223350254
G0 Z8
G0 X53.38477157360406 Y10.60507614213198
G1 Z2.9 F800
G3 X53.8248730964467 Y10.69289340101523 I0 J1.1497461928934012 F1500
G3 X54.1979695431472 Y10.941624365482234 I-0.4390862944162437 J1.0634517766497462
G3 X54.44670050761421 Y11.314720812182742 I-0.8121827411167513 J0.8121827411167513
G3 X54.535532994923855 Y11.753807106598986 I-1.0634517766497462 J0.4390862944162437
G3 X54.44670050761421 Y12.195431472081218 I-1.1497461928934012 J0
G3 X54.1979695431472 Y12.568527918781726 I-1.0634517766497462 J-0.4390862944162437
G3 X53.8248730964467 Y12.81725888324873 I-0.8121827411167513 J-0.8121827411167513
G3 X53.38578680203046 Y12.906091370558375 I-0.4390862944162437 J-1.0634517766497462
G3 X52.944162436548226 Y12.81725888324873 I0 J-1.1497461928934012
G3 X52.57106598984771 Y12.568527918781726 I0.4390862944162437 J-1.0634517766497462
G3 X52.32233502538071 Y12.195431472081218 I0.8121827411167513 J-0.8121827411167513
G3 X52.23604060913706 Y11.753807106598986 I1.0634517766497462 J-0.4390862944162437
G3 X52.32233502538071 Y11.314720812182742 I1.1497461928934012 J0
G3 X52.57106598984771 Y10.941624365482234 I1.0634517766497462 J0.4390862944162437
G3 X52.944162436548226 Y10.69289340101523 I0.8121827411167513 J0.8121827411167513
G3 X53.38578680203046 Y10.604060913705585 I0.4390862944162437 J1.0634517766497462
G0 Z8
G0 X12.777157360406092 Y15.474365482233502
G1 Z2.9 F800
G3 X12.807106598984772 Y15.48730964467005 I-0.03299492385786802 J0.1218274111675127 F1500
G3 X12.83248730964467 Y15.507614213197968 I-0.06345177664974619 J0.10913705583756345
G3 X12.852791878172589 Y15.532994923857867 I-0.08883248730964467 J0.08883248730964467
G3 X12.865482233502538 Y15.563451776649746 I-0.10913705583756345 J0.06345177664974619
G3 X12.870558375634518 Y15.593908629441625 I-0.1218274111675127 J0.03299492385786802
G1 X12.870558375634518 Y15.593908629441625
G1 X12.870558375634518 Y15.593908629441625
G3 X12.865482233502538 Y15.626903553299492 I-0.12436548223350254 J0
G3 X12.852791878172589 Y15.65736040609137 I-0.1218274111675127 J-0.03299492385786802
G3 X12.83248730964467 Y15.682741116751268 I-0.10913705583756345 J-0.06345177664974619
G3 X12.807106598984772 Y15.70304568527919 I-0.08883248730964467 J-0.08883248730964467
G3 X12.776649746192895 Y15.715736040609137 I-0.06345177664974619 J-0.10913705583756345
G3 X12.743654822335024 Y15.720812182741117 I-0.03299492385786802 J-0.1218274111675127
G3 X12.713197969543145 Y15.715736040609137 I0 J-0.12436548223350254
G3 X12.682741116751268 Y15.70304568527919 I0.03299492385786802 J-0.1218274111675127
G3 X12.657360406091371 Y15.682741116751268 I0.06345177664974619 J-0.10913705583756345
G3 X12.637055837563452 Y15.65736040609137 I0.08883248730964467 J-0.08883248730964467
G3 X12.624365482233502 Y15.626903553299492 I0.10913705583756345 J-0.06345177664974619
G3 X12.619289340101522 Y15.593908629441625 I0.1218274111675127 J-0.03299492385786802
G1 X12.619289340101522 Y15.593908629441625
G1 X12.619289340101522 Y15.593908629441625
G3 X12.624365482233502 Y15.563451776649746 I0.12436548223350254 J0
G3 X12.637055837563452 Y15.532994923857867 I0.1218274111675127 J0.03299492385786802
G3 X12.657360406091371 Y15.507614213197968 I0.10913705583756345 J0.06345177664974619
G3 X12.682741116751268 Y15.48730964467005 I0.08883248730964467 J0.08883248730964467
G3 X12.713197969543145 Y15.474619289340101 I0.06345177664974619 J0.10913705583756345
G3 X12.743654822335024 Y15.469543147208123 I0.03299492385786802 J0.1218274111675127
G3 X12.776649746192895 Y15.474619289340101 I0 J0.12436548223350254
G0 Z8
G0 X12.74492385786802 Y16.74492385786802
G1 Z2.9 F800
G3 X12.304568527918782 Y16.65736040609137 I0 J-1.1497461928934012 F1500
G3 X11.931472081218274 Y16.408629441624363 I0.4390862944162437 J-1.0634517766497462
G3 X11.68274111675127 Y16.03553299492386 I0.8121827411167513 J-0.8121827411167513
G3 X11.593908629441625 Y15.593908629441625 I1.0634517766497462 J-0.4390862944162437
G3 X11.68274111675127 Y15.15482233502538 I1.1497461928934012 J0
G3 X11.931472081218274 Y14.781725888324873 I1.0634517766497462 J0.4390862944162437
G3 X12.304568527918782 Y14.532994923857867 I0.8121827411167513 J0.8121827411167513
G3 X12.743654822335024 Y14.444162436548222 I0.4390862944162437 J1.0634517766497462
G3 X13.185279187817258 Y14.532994923857867 I0 J1.1497461928934012
G3 X13.558375634517768 Y14.781725888324873 I-0.4390862944162437 J1.0634517766497462
G3 X13.80710659898477 Y15.15482233502538 I-0.8121827411167513 J0.8121827411167513
G3 X13.895939086294415 Y15.593908629441625 I-1.0634517766497462 J0.4390862944162437
G3 X13.80710659898477 Y16.03553299492386 I-1.1497461928934012 J0
G3 X13.558375634517768 Y16.408629441624363 I-1.0634517766497462 J-0.4390862944162437
G3 X13.185279187817258 Y16.65736040609137 I-0.8121827411167513 J-0.8121827411167513
G3 X12.743654822335024 Y16.746192893401016 I-0.4390862944162437 J-1.0634517766497462
G0 Z8
G0 X53.41725888324873 Y25.634263959390864
G1 Z2.9 F800
G3 X53.44670050761422 Y25.64720812182741 I-0.03299492385786802 J0.1218274111675127 F1500
G3 X53.47208121827411 Y25.66751269035533 I-0.06345177664974619 J0.10913705583756345
G3 X53.49238578680203 Y25.69289340101523 I-0.08883248730964467 J0.08883248730964467
G3 X53.50507614213198 Y25.723350253807105 I-0.10913705583756345 J0.06345177664974619
G3 X53.51015228426397 Y25.753807106598984 I-0.1218274111675127 J0.03299492385786802
G1 X53.51015228426397 Y25.753807106598984
G1 X53.51015228426397 Y25.753807106598984
G3 X53.50507614213198 Y25.786802030456855 I-0.12436548223350254 J0
G3 X53.49238578680203 Y25.817258883248734 I-0.1218274111675127 J-0.03299492385786802
G3 X53.47208121827411 Y25.84263959390863 I-0.10913705583756345 J-0.06345177664974619
G3 X53.44670050761422 Y25.86294416243655 I-0.08883248730964467 J-0.08883248730964467
G3 X53.41624365482233 Y25.875634517766496 I-0.06345177664974619 J-0.10913705583756345
G3 X53.38578680203046 Y25.880710659898476 I-0.03299492385786802 J-0.1218274111675127
G3 X53.35279187817258 Y25.875634517766496 I0 J-0.12436548223350254
G3 X53.32233502538071 Y25.86294416243655 I0.03299492385786802 J-0.1218274111675127
G3 X53.296954314720814 Y25.84263959390863 I0.06345177664974619 J-0.10913705583756345
G3 X53.276649746192895 Y25.817258883248734 I0.08883248730964467 J-0.08883248730964467
G3 X53.26395939086295 Y25.786802030456855 I0.10913705583756345 J-0.06345177664974619
G3 X53.25888324873097 Y25.753807106598984 I0.1218274111675127 J-0.03299492385786802
G1 X53.25888324873097 Y25.753807106598984
G1 X53.25888324873097 Y25.753807106598984
G3 X53.26395939086295 Y25.723350253807105 I0.12436548223350254 J0
G3 X53.276649746192895 Y25.69289340101523 I0.1218274111675127 J0.03299492385786802
G3 X53.296954314720814 Y25.66751269035533 I0.10913705583756345 J0.06345177664974619
G3 X53.32233502538071 Y25.64720812182741 I0.08883248730964467 J0.08883248730964467
G3 X53.35279187817258 Y25.63451776649746 I0.06345177664974619 J0.10913705583756345
G3 X53.38578680203046 Y25.62944162436548 I0.03299492385786802 J0.1218274111675127
G3 X53.41624365482233 Y25.63451776649746 I0 J0.12436548223350254
G0 Z8
G0 X53.38477157360406 Y26.90507614213198
G1 Z2.9 F800
G3 X52.944162436548226 Y26.81725888324873 I0 J-1.1497461928934012 F1500
G3 X52.57106598984771 Y26.568527918781726 I0.4390862944162437 J-1.0634517766497462
G3 X52.32233502538071 Y26.195431472081218 I0.8121827411167513 J-0.8121827411167513
G3 X52.23604060913706 Y25.753807106598984 I1.0634517766497462 J-0.4390862944162437
G3 X52.32233502538071 Y25.314720812182742 I1.1497461928934012 J0
G3 X52.57106598984771 Y24.941624365482234 I1.0634517766497462 J0.4390862944162437
G3 X52.944162436548226 Y24.692893401015226 I0.8121827411167513 J0.8121827411167513
G3 X53.38578680203046 Y24.604060913705585 I0.4390862944162437 J1.0634517766497462
G3 X53.8248730964467 Y24.692893401015226 I0 J1.1497461928934012
G3 X54.1979695431472 Y24.941624365482234 I-0.4390862944162437 J1.0634517766497462
G3 X54.44670050761421 Y25.314720812182742 I-0.8121827411167513 J0.8121827411167513
G3 X54.535532994923855 Y25.753807106598984 I-1.0634517766497462 J0.4390862944162437
G3 X54.44670050761421 Y26.195431472081218 I-1.1497461928934012 J0
G3 X54.1979695431472 Y26.568527918781726 I-1.0634517766497462 J-0.4390862944162437
G3 X53.8248730964467 Y26.81725888324873 I-0.8121827411167513 J-0.8121827411167513
G3 X53.38578680203046 Y26.906091370558375 I-0.4390862944162437 J-1.0634517766497462
G0 Z8
G0 X53.43274111675127 Y15.139593908629442
G1 Z2.9 F800
G3 X53.47208121827411 Y15.167512690355329 I-0.04822335025380711 J0.11675126903553298 F1500
G3 X53.5 Y15.208121827411167 I-0.08883248730964467 J0.08883248730964467
G3 X53.51015228426397 Y15.256345177664974 I-0.11675126903553298 J0.04822335025380711
G1 X53.51015228426397 Y15.256345177664974
G3 X53.50507614213198 Y15.286802030456851 I-0.12436548223350254 J0
G3 X53.49238578680203 Y15.31725888324873 I-0.1218274111675127 J-0.03299492385786802
G3 X53.47208121827411 Y15.342639593908629 I-0.10913705583756345 J-0.06345177664974619
G3 X53.44670050761422 Y15.362944162436548 I-0.08883248730964467 J-0.08883248730964467
G3 X53.41624365482233 Y15.375634517766496 I-0.06345177664974619 J-0.10913705583756345
G3 X53.38578680203046 Y15.380710659898478 I-0.03299492385786802 J-0.1218274111675127
G3 X53.35279187817258 Y15.375634517766496 I0 J-0.12436548223350254
G3 X53.32233502538071 Y15.362944162436548 I0.03299492385786802 J-0.1218274111675127
G3 X53.296954314720814 Y15.342639593908629 I0.06345177664974619 J-0.10913705583756345
G3 X53.276649746192895 Y15.31725888324873 I0.08883248730964467 J-0.08883248730964467
G3 X53.26395939086295 Y15.286802030456851 I0.10913705583756345 J-0.06345177664974619
G3 X53.25888324873097 Y15.256345177664974 I0.1218274111675127 J-0.03299492385786802
G1 X53.25888324873097 Y15.256345177664974
G3 X53.26903553299492 Y15.208121827411167 I0.12436548223350254 J0
G3 X53.296954314720814 Y15.167512690355329 I0.11675126903553298 J0.04822335025380711
G3 X53.33756345177665 Y15.13959390862944 I0.08883248730964467 J0.08883248730964467
G3 X53.38578680203046 Y15.129441624365484 I0.04822335025380711 J0.11675126903553298
G3 X53.431472081218274 Y15.13959390862944 I0 J0.12436548223350254
G0 Z8
G0 X53.38477157360406 Y14.10507614213198
G1 Z2.9 F800
G3 X53.8248730964467 Y14.192893401015228 I0 J1.1497461928934012 F1500
G3 X54.1979695431472 Y14.441624365482234 I-0.4390862944162437 J1.0634517766497462
G3 X54.44670050761421 Y14.81472081218274 I-0.8121827411167513 J0.8121827411167513
G3 X54.535532994923855 Y15.256345177664974 I-1.0634517766497462 J0.4390862944162437
G3 X54.44670050761421 Y15.695431472081218 I-1.1497461928934012 J0
G3 X54.1979695431472 Y16.068527918781726 I-1.0634517766497462 J-0.4390862944162437
G3 X53.8248730964467 Y16.31725888324873 I-0.8121827411167513 J-0.8121827411167513
G3 X53.38578680203046 Y16.406091370558375 I-0.4390862944162437 J-1.0634517766497462
G3 X52.944162436548226 Y16.31725888324873 I0 J-1.1497461928934012
G3 X52.57106598984771 Y16.068527918781726 I0.4390862944162437 J-1.0634517766497462
G3 X52.32233502538071 Y15.695431472081218 I0.8121827411167513 J-0.8121827411167513
G3 X52.23604060913706 Y15.256345177664974 I1.0634517766497462 J-0.4390862944162437
G3 X52.32233502538071 Y14.81472081218274 I1.1497461928934012 J0
G3 X52.57106598984771 Y14.441624365482234 I1.0634517766497462 J0.4390862944162437
G3 X52.944162436548226 Y14.192893401015228 I0.8121827411167513 J0.8121827411167513
G3 X53.38578680203046 Y14.104060913705583 I0.4390862944162437 J1.0634517766497462
G0 Z8
G0 X12.71243654822335 Y23.335786802030455
G1 Z2.9 F800
G3 X12.682741116751268 Y23.32233502538071 I0.03299492385786802 J-0.1218274111675127 F1500
G3 X12.657360406091371 Y23.304568527918782 I0.06345177664974619 J-0.10913705583756345
G3 X12.637055837563452 Y23.27664974619289 I0.08883248730964467 J-0.08883248730964467
G3 X12.624365482233502 Y23.246192893401016 I0.10913705583756345 J-0.06345177664974619
G3 X12.619289340101522 Y23.215736040609137 I0.1218274111675127 J-0.03299492385786802
G1 X12.619289340101522 Y23.215736040609137
G1 X12.619289340101522 Y23.215736040609137
G3 X12.624365482233502 Y23.18274111675127 I0.12436548223350254 J0
G3 X12.637055837563452 Y23.152284263959395 I0.1218274111675127 J0.03299492385786802
G3 X12.657360406091371 Y23.126903553299492 I0.10913705583756345 J0.06345177664974619
G3 X12.682741116751268 Y23.106598984771573 I0.08883248730964467 J0.08883248730964467
G3 X12.713197969543145 Y23.093908629441625 I0.06345177664974619 J0.10913705583756345
G3 X12.743654822335024 Y23.088832487309645 I0.03299492385786802 J0.1218274111675127
G3 X12.776649746192895 Y23.093908629441625 I0 J0.12436548223350254
G3 X12.807106598984772 Y23.106598984771573 I-0.03299492385786802 J0.1218274111675127
G3 X12.83248730964467 Y23.126903553299492 I-0.06345177664974619 J0.10913705583756345
G3 X12.852791878172589 Y23.152284263959395 I-0.08883248730964467 J0.08883248730964467
G3 X12.865482233502538 Y23.18274111675127 I-0.10913705583756345 J0.06345177664974619
G3 X12.870558375634518 Y23.215736040609137 I-0.1218274111675127 J0.03299492385786802
G1 X12.870558375634518 Y23.215736040609137
G1 X12.870558375634518 Y23.215736040609137
G3 X12.865482233502538 Y23.246192893401016 I-0.12436548223350254 J0
G3 X12.852791878172589 Y23.27664974619289 I-0.1218274111675127 J-0.03299492385786802
G3 X12.83248730964467 Y23.304568527918782 I-0.10913705583756345 J-0.06345177664974619
G3 X12.807106598984772 Y23.32233502538071 I-0.08883248730964467 J-0.08883248730964467
G3 X12.776649746192895 Y23.33502538071066 I-0.06345177664974619 J-0.10913705583756345
G3 X12.743654822335024 Y23.34010152284264 I-0.03299492385786802 J-0.1218274111675127
G3 X12.713197969543145 Y23.33502538071066 I0 J-0.12436548223350254
G0 Z8
G0 X12.74492385786802 Y24.36497461928934
G1 Z2.9 F800
G3 X12.304568527918782 Y24.276649746192895 I0 J-1.1497461928934012 F1500
G3 X11.931472081218274 Y24.02791878172589 I0.4390862944162437 J-1.0634517766497462
G3 X11.68274111675127 Y23.654822335025383 I0.8121827411167513 J-0.8121827411167513
G3 X11.593908629441625 Y23.215736040609137 I1.0634517766497462 J-0.4390862944162437
G3 X11.68274111675127 Y22.774111675126903 I1.1497461928934012 J0
G3 X11.931472081218274 Y22.401015228426395 I1.0634517766497462 J0.4390862944162437
G3 X12.304568527918782 Y22.15228426395939 I0.8121827411167513 J0.8121827411167513
G3 X12.743654822335024 Y22.065989847715738 I0.4390862944162437 J1.0634517766497462
G3 X13.185279187817258 Y22.15228426395939 I0 J1.1497461928934012
G3 X13.558375634517768 Y22.401015228426395 I-0.4390862944162437 J1.0634517766497462
G3 X13.80710659898477 Y22.774111675126903 I-0.8121827411167513 J0.8121827411167513
G3 X13.895939086294415 Y23.215736040609137 I-1.0634517766497462 J0.4390862944162437
G3 X13.80710659898477 Y23.654822335025383 I-1.1497461928934012 J0
G3 X13.558375634517768 Y24.02791878172589 I-1.0634517766497462 J-0.4390862944162437
G3 X13.185279187817258 Y24.276649746192895 I-0.8121827411167513 J-0.8121827411167513
G3 X12.743654822335024 Y24.36548223350254 I-0.4390862944162437 J-1.0634517766497462
G0 Z8
G0 X20.39720812182741 Y22.784517766497462
G1 Z2.9 F800
G3 X20.42639593908629 Y22.796954314720814 I-0.03299492385786802 J0.1218274111675127 F1500
G3 X20.454314720812185 Y22.81725888324873 I-0.06345177664974619 J0.10913705583756345
G3 X20.472081218274113 Y22.84263959390863 I-0.08883248730964467 J0.08883248730964467
G3 X20.48477157360406 Y22.873096446700508 I-0.10913705583756345 J0.06345177664974619
G3 X20.48984771573604 Y22.90609137055838 I-0.1218274111675127 J0.03299492385786802
G1 X20.48984771573604 Y22.90609137055838
G1 X20.48984771573604 Y22.90609137055838
G3 X20.48477157360406 Y22.936548223350254 I-0.12436548223350254 J0
G3 X20.472081218274113 Y22.967005076142133 I-0.1218274111675127 J-0.03299492385786802
G3 X20.454314720812185 Y22.992385786802032 I-0.10913705583756345 J-0.06345177664974619
G3 X20.42639593908629 Y23.012690355329948 I-0.08883248730964467 J-0.08883248730964467
G3 X20.395939086294415 Y23.025380710659896 I-0.06345177664974619 J-0.10913705583756345
G3 X20.365482233502537 Y23.030456852791875 I-0.03299492385786802 J-0.1218274111675127
G3 X20.33248730964467 Y23.025380710659896 I0 J-0.12436548223350254
G3 X20.302030456852794 Y23.012690355329948 I0.03299492385786802 J-0.1218274111675127
G3 X20.276649746192895 Y22.992385786802032 I0.06345177664974619 J-0.10913705583756345
G3 X20.256345177664976 Y22.967005076142133 I0.08883248730964467 J-0.08883248730964467
G3 X20.243654822335024 Y22.936548223350254 I0.10913705583756345 J-0.06345177664974619
G3 X20.241116751269036 Y22.90609137055838 I0.1218274111675127 J-0.03299492385786802
G1 X20.241116751269036 Y22.90609137055838
G1 X20.241116751269036 Y22.90609137055838
G3 X20.243654822335024 Y22.873096446700508 I0.12436548223350254 J0
G3 X20.256345177664976 Y22.84263959390863 I0.1218274111675127 J0.03299492385786802
G3 X20.276649746192895 Y22.81725888324873 I0.10913705583756345 J0.06345177664974619
G3 X20.302030456852794 Y22.796954314720814 I0.08883248730964467 J0.08883248730964467
G3 X20.33248730964467 Y22.784263959390863 I0.06345177664974619 J0.10913705583756345
G3 X20.365482233502537 Y22.77918781725888 I0.03299492385786802 J0.1218274111675127
G3 X20.395939086294415 Y22.784263959390863 I0 J0.12436548223350254
G0 Z8
G0 X20.36497461928934 Y22.15507614213198
G1 Z2.9 F800
G3 X20.652284263959395 Y22.21319796954315 I0 J0.751269035532995 F1500
G3 X20.89593908629442 Y22.375634517766496 I-0.2868020304568528 J0.6928934010152283
G3 X21.058375634517766 Y22.619289340101524 I-0.5304568527918782 J0.5304568527918782
G3 X21.11421319796954 Y22.90609137055838 I-0.6928934010152283 J0.2868020304568528
G3 X21.058375634517766 Y23.19289340101523 I-0.748730964467005 J0
G3 X20.89593908629442 Y23.436548223350254 I-0.6928934010152283 J-0.2868020304568528
G3 X20.652284263959395 Y23.598984771573605 I-0.5304568527918782 J-0.5304568527918782
G3 X20.365482233502537 Y23.654822335025383 I-0.2868020304568528 J-0.6928934010152283
G3 X20.078680203045685 Y23.598984771573605 I0 J-0.751269035532995
G3 X19.83502538071066 Y23.436548223350254 I0.2868020304568528 J-0.6928934010152283
G3 X19.67258883248731 Y23.19289340101523 I0.5304568527918782 J-0.5304568527918782
G3 X19.614213197969544 Y22.90609137055838 I0.6928934010152283 J-0.2868020304568528
G3 X19.67258883248731 Y22.619289340101524 I0.748730964467005 J0
G3 X19.83502538071066 Y22.375634517766496 I0.6928934010152283 J0.2868020304568528
G3 X20.078680203045685 Y22.21319796954315 I0.5304568527918782 J0.5304568527918782
G3 X20.365482233502537 Y22.15482233502538 I0.2868020304568528 J0.6928934010152283
G0 Z8
G0 X20.33248730964467 Y19.215989847715736
G1 Z2.9 F800
G3 X20.302030456852794 Y19.203045685279186 I0.03299492385786802 J-0.1218274111675127 F1500
G3 X20.276649746192895 Y19.18274111675127 I0.06345177664974619 J-0.10913705583756345
G3 X20.256345177664976 Y19.15736040609137 I0.08883248730964467 J-0.08883248730964467
G3 X20.243654822335024 Y19.126903553299492 I0.10913705583756345 J-0.06345177664974619
G3 X20.241116751269036 Y19.093908629441625 I0.1218274111675127 J-0.03299492385786802
G1 X20.241116751269036 Y19.093908629441625
G1 X20.241116751269036 Y19.093908629441625
G3 X20.243654822335024 Y19.063451776649746 I0.12436548223350254 J0
G3 X20.256345177664976 Y19.03299492385787 I0.1218274111675127 J0.03299492385786802
G3 X20.276649746192895 Y19.007614213197968 I0.10913705583756345 J0.06345177664974619
G3 X20.302030456852794 Y18.987309644670052 I0.08883248730964467 J0.08883248730964467
G3 X20.33248730964467 Y18.9746192893401 I0.06345177664974619 J0.10913705583756345
G3 X20.365482233502537 Y18.96954314720812 I0.03299492385786802 J0.1218274111675127
G3 X20.395939086294415 Y18.9746192893401 I0 J0.12436548223350254
G3 X20.42639593908629 Y18.987309644670052 I-0.03299492385786802 J0.1218274111675127
G3 X20.454314720812185 Y19.007614213197968 I-0.06345177664974619 J0.10913705583756345
G3 X20.472081218274113 Y19.03299492385787 I-0.08883248730964467 J0.08883248730964467
G3 X20.48477157360406 Y19.063451776649746 I-0.10913705583756345 J0.06345177664974619
G3 X20.48984771573604 Y19.093908629441625 I-0.1218274111675127 J0.03299492385786802
G1 X20.48984771573604 Y19.093908629441625
G1 X20.48984771573604 Y19.093908629441625
G3 X20.48477157360406 Y19.126903553299492 I-0.12436548223350254 J0
G3 X20.472081218274113 Y19.15736040609137 I-0.1218274111675127 J-0.03299492385786802
G3 X20.454314720812185 Y19.18274111675127 I-0.10913705583756345 J-0.06345177664974619
G3 X20.42639593908629 Y19.203045685279186 I-0.08883248730964467 J-0.08883248730964467
G3 X20.395939086294415 Y19.215736040609137 I-0.06345177664974619 J-0.10913705583756345
G3 X20.365482233502537 Y19.220812182741117 I-0.03299492385786802 J-0.1218274111675127
G3 X20.33248730964467 Y19.215736040609137 I0 J-0.12436548223350254
G0 Z8
G0 X20.36497461928934 Y19.84517766497462
G1 Z2.9 F800
G3 X20.078680203045685 Y19.786802030456855 I0 J-0.751269035532995 F1500
G3 X19.83502538071066 Y19.624365482233504 I0.2868020304568528 J-0.6928934010152283
G3 X19.67258883248731 Y19.383248730964468 I0.5304568527918782 J-0.5304568527918782
G3 X19.614213197969544 Y19.093908629441625 I0.6928934010152283 J-0.2868020304568528
G3 X19.67258883248731 Y18.80710659898477 I0.748730964467005 J0
G3 X19.83502538071066 Y18.565989847715734 I0.6928934010152283 J0.2868020304568528
G3 X20.078680203045685 Y18.401015228426395 I0.5304568527918782 J0.5304568527918782
G3 X20.365482233502537 Y18.34517766497462 I0.2868020304568528 J0.6928934010152283
G3 X20.652284263959395 Y18.401015228426395 I0 J0.751269035532995
G3 X20.89593908629442 Y18.565989847715734 I-0.2868020304568528 J0.6928934010152283
G3 X21.058375634517766 Y18.80710659898477 I-0.5304568527918782 J0.5304568527918782
G3 X21.11421319796954 Y19.093908629441625 I-0.6928934010152283 J0.2868020304568528
G3 X21.058375634517766 Y19.383248730964468 I-0.748730964467005 J0
G3 X20.89593908629442 Y19.624365482233504 I-0.6928934010152283 J-0.2868020304568528
G3 X20.652284263959395 Y19.786802030456855 I-0.5304568527918782 J-0.5304568527918782
G3 X20.365482233502537 Y19.84517766497462 I-0.2868020304568528 J-0.6928934010152283
G0 Z8
G0 X20.33248730964467 Y15.405837563451776
G1 Z2.9 F800
G3 X20.302030456852794 Y15.393401015228427 I0.03299492385786802 J-0.1218274111675127 F1500
G3 X20.276649746192895 Y15.373096446700508 I0.06345177664974619 J-0.10913705583756345
G3 X20.256345177664976 Y15.34771573604061 I0.08883248730964467 J-0.08883248730964467
G3 X20.243654822335024 Y15.31725888324873 I0.10913705583756345 J-0.06345177664974619
G3 X20.241116751269036 Y15.284263959390863 I0.1218274111675127 J-0.03299492385786802
G1 X20.241116751269036 Y15.284263959390863
G1 X20.241116751269036 Y15.284263959390863
G3 X20.243654822335024 Y15.253807106598984 I0.12436548223350254 J0
G3 X20.256345177664976 Y15.223350253807107 I0.1218274111675127 J0.03299492385786802
G3 X20.276649746192895 Y15.197969543147208 I0.10913705583756345 J0.06345177664974619
G3 X20.302030456852794 Y15.17766497461929 I0.08883248730964467 J0.08883248730964467
G3 X20.33248730964467 Y15.164974619289339 I0.06345177664974619 J0.10913705583756345
G3 X20.365482233502537 Y15.15989847715736 I0.03299492385786802 J0.1218274111675127
G3 X20.395939086294415 Y15.164974619289339 I0 J0.12436548223350254
G3 X20.42639593908629 Y15.17766497461929 I-0.03299492385786802 J0.1218274111675127
G3 X20.454314720812185 Y15.197969543147208 I-0.06345177664974619 J0.10913705583756345
G3 X20.472081218274113 Y15.223350253807107 I-0.08883248730964467 J0.08883248730964467
G3 X20.48477157360406 Y15.253807106598984 I-0.10913705583756345 J0.06345177664974619
G3 X20.48984771573604 Y15.284263959390863 I-0.1218274111675127 J0.03299492385786802
G1 X20.48984771573604 Y15.284263959390863
G1 X20.48984771573604 Y15.284263959390863
G3 X20.48477157360406 Y15.31725888324873 I-0.12436548223350254 J0
G3 X20.472081218274113 Y15.34771573604061 I-0.1218274111675127 J-0.03299492385786802
G3 X20.454314720812185 Y15.373096446700508 I-0.10913705583756345 J-0.06345177664974619
G3 X20.42639593908629 Y15.393401015228427 I-0.08883248730964467 J-0.08883248730964467
G3 X20.395939086294415 Y15.406091370558375 I-0.06345177664974619 J-0.10913705583756345
G3 X20.365482233502537 Y15.411167512690355 I-0.03299492385786802 J-0.1218274111675127
G3 X20.33248730964467 Y15.406091370558375 I0 J-0.12436548223350254
G0 Z8
G0 X20.36497461928934 Y14.53527918781726
G1 Z2.9 F800
G3 X20.652284263959395 Y14.591370558375633 I0 J0.751269035532995 F1500
G3 X20.89593908629442 Y14.753807106598984 I-0.2868020304568528 J0.6928934010152283
G3 X21.058375634517766 Y14.99746192893401 I-0.5304568527918782 J0.5304568527918782
G3 X21.11421319796954 Y15.284263959390863 I-0.6928934010152283 J0.2868020304568528
G3 X21.058375634517766 Y15.571065989847718 I-0.748730964467005 J0
G3 X20.89593908629442 Y15.814720812182742 I-0.6928934010152283 J-0.2868020304568528
G3 X20.652284263959395 Y15.97715736040609 I-0.5304568527918782 J-0.5304568527918782
G3 X20.365482233502537 Y16.03553299492386 I-0.2868020304568528 J-0.6928934010152283
G3 X20.078680203045685 Y15.97715736040609 I0 J-0.751269035532995
G3 X19.83502538071066 Y15.814720812182742 I0.2868020304568528 J-0.6928934010152283
G3 X19.67258883248731 Y15.571065989847718 I0.5304568527918782 J-0.5304568527918782
G3 X19.614213197969544 Y15.284263959390863 I0.6928934010152283 J-0.2868020304568528
G3 X19.67258883248731 Y14.99746192893401 I0.748730964467005 J0
G3 X19.83502538071066 Y14.753807106598984 I0.6928934010152283 J0.2868020304568528
G3 X20.078680203045685 Y14.591370558375633 I0.5304568527918782 J0.5304568527918782
G3 X20.365482233502537 Y14.535532994923859 I0.2868020304568528 J0.6928934010152283
G0 Z8
G0 X20.33248730964467 Y26.835786802030455
G1 Z2.9 F800
G3 X20.302030456852794 Y26.822335025380713 I0.03299492385786802 J-0.1218274111675127 F1500
G3 X20.276649746192895 Y26.80456852791878 I0.06345177664974619 J-0.10913705583756345
G3 X20.256345177664976 Y26.776649746192895 I0.08883248730964467 J-0.08883248730964467
G3 X20.243654822335024 Y26.748730964467008 I0.10913705583756345 J-0.06345177664974619
G3 X20.241116751269036 Y26.715736040609137 I0.1218274111675127 J-0.03299492385786802
G1 X20.241116751269036 Y26.715736040609137
G1 X20.241116751269036 Y26.715736040609137
G3 X20.243654822335024 Y26.682741116751266 I0.12436548223350254 J0
G3 X20.256345177664976 Y26.652284263959388 I0.1218274111675127 J0.03299492385786802
G3 X20.276649746192895 Y26.626903553299492 I0.10913705583756345 J0.06345177664974619
G3 X20.302030456852794 Y26.606598984771573 I0.08883248730964467 J0.08883248730964467
G3 X20.33248730964467 Y26.593908629441625 I0.06345177664974619 J0.10913705583756345
G3 X20.365482233502537 Y26.591370558375633 I0.03299492385786802 J0.1218274111675127
G3 X20.395939086294415 Y26.593908629441625 I0 J0.12436548223350254
G3 X20.42639593908629 Y26.606598984771573 I-0.03299492385786802 J0.1218274111675127
G3 X20.454314720812185 Y26.626903553299492 I-0.06345177664974619 J0.10913705583756345
G3 X20.472081218274113 Y26.652284263959388 I-0.08883248730964467 J0.08883248730964467
G3 X20.48477157360406 Y26.682741116751266 I-0.10913705583756345 J0.06345177664974619
G3 X20.48984771573604 Y26.715736040609137 I-0.1218274111675127 J0.03299492385786802
G1 X20.48984771573604 Y26.715736040609137
G1 X20.48984771573604 Y26.715736040609137
G3 X20.48477157360406 Y26.748730964467008 I-0.12436548223350254 J0
G3 X20.472081218274113 Y26.776649746192895 I-0.1218274111675127 J-0.03299492385786802
G3 X20.454314720812185 Y26.80456852791878 I-0.10913705583756345 J-0.06345177664974619
G3 X20.42639593908629 Y26.822335025380713 I-0.08883248730964467 J-0.08883248730964467
G3 X20.395939086294415 Y26.83502538071066 I-0.06345177664974619 J-0.10913705583756345
G3 X20.365482233502537 Y26.84010152284264 I-0.03299492385786802 J-0.1218274111675127
G3 X20.33248730964467 Y26.83502538071066 I0 J-0.12436548223350254
G0 Z8
G0 X20.36497461928934 Y27.46522842639594
G1 Z2.9 F800
G3 X20.078680203045685 Y27.408629441624367 I0 J-0.751269035532995 F1500
G3 X19.83502538071066 Y27.246192893401012 I0.2868020304568528 J-0.6928934010152283
G3 X19.67258883248731 Y27.002538071065988 I0.5304568527918782 J-0.5304568527918782
G3 X19.614213197969544 Y26.715736040609137 I0.6928934010152283 J-0.2868020304568528
G3 X19.67258883248731 Y26.428934010152286 I0.748730964467005 J0
G3 X19.83502538071066 Y26.18527918781726 I0.6928934010152283 J0.2868020304568528
G3 X20.078680203045685 Y26.022842639593907 I0.5304568527918782 J0.5304568527918782
G3 X20.365482233502537 Y25.964467005076145 I0.2868020304568528 J0.6928934010152283
G3 X20.652284263959395 Y26.022842639593907 I0 J0.751269035532995
G3 X20.89593908629442 Y26.18527918781726 I-0.2868020304568528 J0.6928934010152283
G3 X21.058375634517766 Y26.428934010152286 I-0.5304568527918782 J0.5304568527918782
G3 X21.11421319796954 Y26.715736040609137 I-0.6928934010152283 J0.2868020304568528
G3 X21.058375634517766 Y27.002538071065988 I-0.748730964467005 J0
G3 X20.89593908629442 Y27.246192893401012 I-0.6928934010152283 J-0.2868020304568528
G3 X20.652284263959395 Y27.408629441624367 I-0.5304568527918782 J-0.5304568527918782
G3 X20.365482233502537 Y27.464467005076145 I-0.2868020304568528 J-0.6928934010152283
G0 Z8
G0 X43.25710659898477 Y25.324365482233503
G1 Z2.9 F800
G3 X43.286802030456855 Y25.33756345177665 I-0.03299492385786802 J0.1218274111675127 F1500
G3 X43.31218274111676 Y25.357868020304572 I-0.06345177664974619 J0.10913705583756345
G3 X43.33248730964467 Y25.383248730964464 I-0.08883248730964467 J0.08883248730964467
G3 X43.34517766497462 Y25.413705583756343 I-0.10913705583756345 J0.06345177664974619
G3 X43.350253807106604 Y25.444162436548226 I-0.1218274111675127 J0.03299492385786802
G1 X43.350253807106604 Y25.444162436548226
G1 X43.350253807106604 Y25.444162436548226
G3 X43.34517766497462 Y25.47715736040609 I-0.12436548223350254 J0
G3 X43.33248730964467 Y25.507614213197968 I-0.1218274111675127 J-0.03299492385786802
G3 X43.31218274111676 Y25.532994923857867 I-0.10913705583756345 J-0.06345177664974619
G3 X43.286802030456855 Y25.55329949238579 I-0.08883248730964467 J-0.08883248730964467
G3 X43.25634517766497 Y25.565989847715738 I-0.06345177664974619 J-0.10913705583756345
G3 X43.2258883248731 Y25.571065989847718 I-0.03299492385786802 J-0.1218274111675127
G3 X43.192893401015226 Y25.565989847715738 I0 J-0.12436548223350254
G3 X43.162436548223354 Y25.55329949238579 I0.03299492385786802 J-0.1218274111675127
G3 X43.13705583756345 Y25.532994923857867 I0.06345177664974619 J-0.10913705583756345
G3 X43.11675126903553 Y25.507614213197968 I0.08883248730964467 J-0.08883248730964467
G3 X43.10406091370559 Y25.47715736040609 I0.10913705583756345 J-0.06345177664974619
G3 X43.098984771573605 Y25.444162436548226 I0.1218274111675127 J-0.03299492385786802
G1 X43.098984771573605 Y25.444162436548226
G1 X43.098984771573605 Y25.444162436548226
G3 X43.10406091370559 Y25.413705583756343 I0.12436548223350254 J0
G3 X43.11675126903553 Y25.383248730964464 I0.1218274111675127 J0.03299492385786802
G3 X43.13705583756345 Y25.357868020304572 I0.10913705583756345 J0.06345177664974619
G3 X43.162436548223354 Y25.33756345177665 I0.08883248730964467 J0.08883248730964467
G3 X43.192893401015226 Y25.3248730964467 I0.06345177664974619 J0.10913705583756345
G3 X43.2258883248731 Y25.31979695431472 I0.03299492385786802 J0.1218274111675127
G3 X43.25634517766497 Y25.3248730964467 I0 J0.12436548223350254
G0 Z8
G0 X43.47360406091371 Y24.844670050761422
G1 Z2.9 F800
G3 X43.68527918781726 Y24.984771573604057 I-0.24873096446700507 J0.6015228426395939 F1500
G3 X43.8248730964467 Y25.195431472081218 I-0.4593908629441624 J0.4593908629441624
G3 X43.8756345177665 Y25.444162436548226 I-0.6015228426395939 J0.24873096446700507
G3 X43.8248730964467 Y25.69289340101523 I-0.6497461928934011 J0
G3 X43.68527918781726 Y25.903553299492387 I-0.6015228426395939 J-0.24873096446700507
G3 X43.4746192893401 Y26.045685279187815 I-0.4593908629441624 J-0.4593908629441624
G3 X43.2258883248731 Y26.09390862944162 I-0.24873096446700507 J-0.6015228426395939
G3 X42.97715736040609 Y26.045685279187815 I0 J-0.6497461928934011
G3 X42.76395939086294 Y25.903553299492387 I0.24873096446700507 J-0.6015228426395939
G3 X42.6243654822335 Y25.69289340101523 I0.4593908629441624 J-0.4593908629441624
G3 X42.57360406091371 Y25.444162436548226 I0.6015228426395939 J-0.24873096446700507
G3 X42.6243654822335 Y25.195431472081218 I0.6497461928934011 J0
G3 X42.76395939086294 Y24.984771573604057 I0.6015228426395939 J0.24873096446700507
G3 X42.97715736040609 Y24.845177664974617 I0.4593908629441624 J0.4593908629441624
G3 X43.2258883248731 Y24.794416243654823 I0.24873096446700507 J0.6015228426395939
G3 X43.4746192893401 Y24.845177664974617 I0 J0.6497461928934011
G0 Z8
G0 X45.7248730964467 Y25.57005076142132
G1 Z2.9 F800
G3 X45.692893401015226 Y25.565989847715738 I0 J-0.12436548223350254 F1500
G3 X45.662436548223354 Y25.55329949238579 I0.03299492385786802 J-0.1218274111675127
G3 X45.63705583756345 Y25.532994923857867 I0.06345177664974619 J-0.10913705583756345
G3 X45.61675126903553 Y25.507614213197968 I0.08883248730964467 J-0.08883248730964467
G3 X45.60406091370559 Y25.47715736040609 I0.10913705583756345 J-0.06345177664974619
G3 X45.598984771573605 Y25.444162436548226 I0.1218274111675127 J-0.03299492385786802
G1 X45.598984771573605 Y25.444162436548226
G1 X45.598984771573605 Y25.444162436548226
G3 X45.60406091370559 Y25.413705583756343 I0.12436548223350254 J0
G3 X45.61675126903553 Y25.383248730964464 I0.1218274111675127 J0.03299492385786802
G3 X45.63705583756345 Y25.357868020304572 I0.10913705583756345 J0.06345177664974619
G3 X45.662436548223354 Y25.33756345177665 I0.08883248730964467 J0.08883248730964467
G3 X45.692893401015226 Y25.3248730964467 I0.06345177664974619 J0.10913705583756345
G3 X45.7258883248731 Y25.31979695431472 I0.03299492385786802 J0.1218274111675127
G3 X45.77157360406091 Y25.329949238578678 I0 J0.12436548223350254
G3 X45.81218274111676 Y25.357868020304572 I-0.04822335025380711 J0.11675126903553298
G3 X45.84010152284264 Y25.398477157360407 I-0.08883248730964467 J0.08883248730964467
G3 X45.850253807106604 Y25.444162436548226 I-0.11675126903553298 J0.04822335025380711
G1 X45.850253807106604 Y25.444162436548226
G1 X45.850253807106604 Y25.444162436548226
G3 X45.84010152284264 Y25.492385786802032 I-0.12436548223350254 J0
G3 X45.81218274111676 Y25.532994923857867 I-0.11675126903553298 J-0.04822335025380711
G3 X45.77157360406091 Y25.560913705583754 I-0.08883248730964467 J-0.08883248730964467
G3 X45.7258883248731 Y25.571065989847718 I-0.04822335025380711 J-0.11675126903553298
G0 Z8
G0 X45.97360406091371 Y24.844670050761422
G1 Z2.9 F800
G3 X46.18527918781726 Y24.984771573604057 I-0.24873096446700507 J0.6015228426395939 F1500
G3 X46.3248730964467 Y25.195431472081218 I-0.4593908629441624 J0.4593908629441624
G3 X46.3756345177665 Y25.444162436548226 I-0.6015228426395939 J0.24873096446700507
G3 X46.3248730964467 Y25.69289340101523 I-0.6497461928934011 J0
G3 X46.18527918781726 Y25.903553299492387 I-0.6015228426395939 J-0.24873096446700507
G3 X45.9746192893401 Y26.045685279187815 I-0.4593908629441624 J-0.4593908629441624
G3 X45.7258883248731 Y26.09390862944162 I-0.24873096446700507 J-0.6015228426395939
G3 X45.47715736040609 Y26.045685279187815 I0 J-0.6497461928934011
G3 X45.266497461928935 Y25.903553299492387 I0.24873096446700507 J-0.6015228426395939
G3 X45.1243654822335 Y25.69289340101523 I0.4593908629441624 J-0.4593908629441624
G3 X45.076142131979694 Y25.444162436548226 I0.6015228426395939 J-0.24873096446700507
G3 X45.1243654822335 Y25.195431472081218 I0.6497461928934011 J0
G3 X45.266497461928935 Y24.984771573604057 I0.6015228426395939 J0.24873096446700507
G3 X45.47715736040609 Y24.845177664974617 I0.4593908629441624 J0.4593908629441624
G3 X45.7258883248731 Y24.794416243654823 I0.24873096446700507 J0.6015228426395939
G3 X45.9746192893401 Y24.845177664974617 I0 J0.6497461928934011
G0 Z8
G0 X43.25710659898477 Y16.43451776649746
G1 Z2.9 F800
G3 X43.286802030456855 Y16.446700507614214 I-0.03299492385786802 J0.1218274111675127 F1500
G3 X43.31218274111676 Y16.467005076142133 I-0.06345177664974619 J0.10913705583756345
G3 X43.33248730964467 Y16.492385786802032 I-0.08883248730964467 J0.08883248730964467
G3 X43.34517766497462 Y16.522842639593907 I-0.10913705583756345 J0.06345177664974619
G3 X43.350253807106604 Y16.555837563451774 I-0.1218274111675127 J0.03299492385786802
G1 X43.350253807106604 Y16.555837563451774
G1 X43.350253807106604 Y16.555837563451774
G3 X43.34517766497462 Y16.586294416243653 I-0.12436548223350254 J0
G3 X43.33248730964467 Y16.616751269035532 I-0.1218274111675127 J-0.03299492385786802
G3 X43.31218274111676 Y16.64467005076142 I-0.10913705583756345 J-0.06345177664974619
G3 X43.286802030456855 Y16.66243654822335 I-0.08883248730964467 J-0.08883248730964467
G3 X43.25634517766497 Y16.6751269035533 I-0.06345177664974619 J-0.10913705583756345
G3 X43.2258883248731 Y16.680203045685282 I-0.03299492385786802 J-0.1218274111675127
G3 X43.192893401015226 Y16.6751269035533 I0 J-0.12436548223350254
G3 X43.162436548223354 Y16.66243654822335 I0.03299492385786802 J-0.1218274111675127
G3 X43.13705583756345 Y16.64467005076142 I0.06345177664974619 J-0.10913705583756345
G3 X43.11675126903553 Y16.616751269035532 I0.08883248730964467 J-0.08883248730964467
G3 X43.10406091370559 Y16.586294416243653 I0.10913705583756345 J-0.06345177664974619
G3 X43.098984771573605 Y16.555837563451774 I0.1218274111675127 J-0.03299492385786802
G1 X43.098984771573605 Y16.555837563451774
G1 X43.098984771573605 Y16.555837563451774
G3 X43.10406091370559 Y16.522842639593907 I0.12436548223350254 J0
G3 X43.11675126903553 Y16.492385786802032 I0.1218274111675127 J0.03299492385786802
G3 X43.13705583756345 Y16.467005076142133 I0.10913705583756345 J0.06345177664974619
G3 X43.162436548223354 Y16.446700507614214 I0.08883248730964467 J0.08883248730964467
G3 X43.192893401015226 Y16.434010152284266 I0.06345177664974619 J0.10913705583756345
G3 X43.2258883248731 Y16.428934010152286 I0.03299492385786802 J0.1218274111675127
G3 X43.25634517766497 Y16.434010152284266 I0 J0.12436548223350254
G0 Z8
G0 X43.47360406091371 Y15.954568527918783
G1 Z2.9 F800
G3 X43.68527918781726 Y16.096446700507613 I-0.24873096446700507 J0.6015228426395939 F1500
G3 X43.8248730964467 Y16.30710659898477 I-0.4593908629441624 J0.4593908629441624
G3 X43.8756345177665 Y16.555837563451774 I-0.6015228426395939 J0.24873096446700507
G3 X43.8248730964467 Y16.804568527918782 I-0.6497461928934011 J0
G3 X43.68527918781726 Y17.01522842639594 I-0.6015228426395939 J-0.24873096446700507
G3 X43.4746192893401 Y17.154822335025383 I-0.4593908629441624 J-0.4593908629441624
G3 X43.2258883248731 Y17.205583756345177 I-0.24873096446700507 J-0.6015228426395939
G3 X42.97715736040609 Y17.154822335025383 I0 J-0.6497461928934011
G3 X42.76395939086294 Y17.01522842639594 I0.24873096446700507 J-0.6015228426395939
G3 X42.6243654822335 Y16.804568527918782 I0.4593908629441624 J-0.4593908629441624
G3 X42.57360406091371 Y16.555837563451774 I0.6015228426395939 J-0.24873096446700507
G3 X42.6243654822335 Y16.30710659898477 I0.6497461928934011 J0
G3 X42.76395939086294 Y16.096446700507613 I0.6015228426395939 J0.24873096446700507
G3 X42.97715736040609 Y15.954314720812183 I0.4593908629441624 J0.4593908629441624
G3 X43.2258883248731 Y15.906091370558375 I0.24873096446700507 J0.6015228426395939
G3 X43.4746192893401 Y15.954314720812183 I0 J0.6497461928934011
G0 Z8
G0 X45.7248730964467 Y16.68020304568528
G1 Z2.9 F800
G3 X45.692893401015226 Y16.6751269035533 I0 J-0.12436548223350254 F1500
G3 X45.662436548223354 Y16.66243654822335 I0.03299492385786802 J-0.1218274111675127
G3 X45.63705583756345 Y16.64467005076142 I0.06345177664974619 J-0.10913705583756345
G3 X45.61675126903553 Y16.616751269035532 I0.08883248730964467 J-0.08883248730964467
G3 X45.60406091370559 Y16.586294416243653 I0.10913705583756345 J-0.06345177664974619
G3 X45.598984771573605 Y16.555837563451774 I0.1218274111675127 J-0.03299492385786802
G1 X45.598984771573605 Y16.555837563451774
G1 X45.598984771573605 Y16.555837563451774
G3 X45.60406091370559 Y16.522842639593907 I0.12436548223350254 J0
G3 X45.61675126903553 Y16.492385786802032 I0.1218274111675127 J0.03299492385786802
G3 X45.63705583756345 Y16.467005076142133 I0.10913705583756345 J0.06345177664974619
G3 X45.662436548223354 Y16.446700507614214 I0.08883248730964467 J0.08883248730964467
G3 X45.692893401015226 Y16.434010152284266 I0.06345177664974619 J0.10913705583756345
G3 X45.7258883248731 Y16.428934010152286 I0.03299492385786802 J0.1218274111675127
G3 X45.77157360406091 Y16.439086294416242 I0 J0.12436548223350254
G3 X45.81218274111676 Y16.467005076142133 I-0.04822335025380711 J0.11675126903553298
G3 X45.84010152284264 Y16.507614213197968 I-0.08883248730964467 J0.08883248730964467
G3 X45.850253807106604 Y16.555837563451774 I-0.11675126903553298 J0.04822335025380711
G1 X45.850253807106604 Y16.555837563451774
G1 X45.850253807106604 Y16.555837563451774
G3 X45.84010152284264 Y16.60406091370558 I-0.12436548223350254 J0
G3 X45.81218274111676 Y16.64467005076142 I-0.11675126903553298 J-0.04822335025380711
G3 X45.77157360406091 Y16.67005076142132 I-0.08883248730964467 J-0.08883248730964467
G3 X45.7258883248731 Y16.680203045685282 I-0.04822335025380711 J-0.11675126903553298
G0 Z8
G0 X45.7248730964467 Y15.90507614213198
G1 Z2.9 F800
G3 X45.9746192893401 Y15.954314720812183 I0 J0.6497461928934011 F1500
G3 X46.18527918781726 Y16.096446700507613 I-0.24873096446700507 J0.6015228426395939
G3 X46.3248730964467 Y16.30710659898477 I-0.4593908629441624 J0.4593908629441624
G3 X46.3756345177665 Y16.555837563451774 I-0.6015228426395939 J0.24873096446700507
G3 X46.3248730964467 Y16.804568527918782 I-0.6497461928934011 J0
G3 X46.18527918781726 Y17.01522842639594 I-0.6015228426395939 J-0.24873096446700507
G3 X45.9746192893401 Y17.154822335025383 I-0.4593908629441624 J-0.4593908629441624
G3 X45.7258883248731 Y17.205583756345177 I-0.24873096446700507 J-0.6015228426395939
G3 X45.47715736040609 Y17.154822335025383 I0 J-0.6497461928934011
G3 X45.266497461928935 Y17.01522842639594 I0.24873096446700507 J-0.6015228426395939
G3 X45.1243654822335 Y16.804568527918782 I0.4593908629441624 J-0.4593908629441624
G3 X45.076142131979694 Y16.555837563451774 I0.6015228426395939 J-0.24873096446700507
G3 X45.1243654822335 Y16.30710659898477 I0.6497461928934011 J0
G3 X45.266497461928935 Y16.096446700507613 I0.6015228426395939 J0.24873096446700507
G3 X45.47715736040609 Y15.954314720812183 I0.4593908629441624 J0.4593908629441624
G3 X45.7258883248731 Y15.906091370558375 I0.24873096446700507 J0.6015228426395939
G0 Z8
G0 X27.95253807106599 Y26.835786802030455
G1 Z2.9 F800
G3 X27.921319796954315 Y26.822335025380713 I0.03299492385786802 J-0.1218274111675127 F1500
G3 X27.895939086294415 Y26.80456852791878 I0.06345177664974619 J-0.10913705583756345
G3 X27.8756345177665 Y26.776649746192895 I0.08883248730964467 J-0.08883248730964467
G3 X27.86294416243655 Y26.748730964467008 I0.10913705583756345 J-0.06345177664974619
G3 X27.860406091370557 Y26.715736040609137 I0.1218274111675127 J-0.03299492385786802
G1 X27.860406091370557 Y26.715736040609137
G1 X27.860406091370557 Y26.715736040609137
G3 X27.86294416243655 Y26.682741116751266 I0.12436548223350254 J0
G3 X27.8756345177665 Y26.652284263959388 I0.1218274111675127 J0.03299492385786802
G3 X27.895939086294415 Y26.626903553299492 I0.10913705583756345 J0.06345177664974619
G3 X27.921319796954315 Y26.606598984771573 I0.08883248730964467 J0.08883248730964467
G3 X27.951776649746193 Y26.593908629441625 I0.06345177664974619 J0.10913705583756345
G3 X27.98477157360406 Y26.591370558375633 I0.03299492385786802 J0.1218274111675127
G3 X28.01776649746193 Y26.593908629441625 I0 J0.12436548223350254
G3 X28.04822335025381 Y26.606598984771573 I-0.03299492385786802 J0.1218274111675127
G3 X28.073604060913702 Y26.626903553299492 I-0.06345177664974619 J0.10913705583756345
G3 X28.093908629441625 Y26.652284263959388 I-0.08883248730964467 J0.08883248730964467
G3 X28.106598984771573 Y26.682741116751266 I-0.10913705583756345 J0.06345177664974619
G3 X28.109137055837564 Y26.715736040609137 I-0.1218274111675127 J0.03299492385786802
G1 X28.109137055837564 Y26.715736040609137
G1 X28.109137055837564 Y26.715736040609137
G3 X28.106598984771573 Y26.748730964467008 I-0.12436548223350254 J0
G3 X28.093908629441625 Y26.776649746192895 I-0.1218274111675127 J-0.03299492385786802
G3 X28.073604060913702 Y26.80456852791878 I-0.10913705583756345 J-0.06345177664974619
G3 X28.04822335025381 Y26.822335025380713 I-0.08883248730964467 J-0.08883248730964467
G3 X28.01776649746193 Y26.83502538071066 I-0.06345177664974619 J-0.10913705583756345
G3 X27.98477157360406 Y26.84010152284264 I-0.03299492385786802 J-0.1218274111675127
G3 X27.951776649746193 Y26.83502538071066 I0 J-0.12436548223350254
G0 Z8
G0 X28.01725888324873 Y22.784517766497462
G1 Z2.9 F800
G3 X28.04822335025381 Y22.796954314720814 I-0.03299492385786802 J0.1218274111675127 F1500
G3 X28.073604060913702 Y22.81725888324873 I-0.06345177664974619 J0.10913705583756345
G3 X28.093908629441625 Y22.84263959390863 I-0.08883248730964467 J0.08883248730964467
G3 X28.106598984771573 Y22.873096446700508 I-0.10913705583756345 J0.06345177664974619
G3 X28.109137055837564 Y22.90609137055838 I-0.1218274111675127 J0.03299492385786802
G1 X28.109137055837564 Y22.90609137055838
G1 X28.109137055837564 Y22.90609137055838
G3 X28.106598984771573 Y22.936548223350254 I-0.12436548223350254 J0
G3 X28.093908629441625 Y22.967005076142133 I-0.1218274111675127 J-0.03299492385786802
G3 X28.073604060913702 Y22.992385786802032 I-0.10913705583756345 J-0.06345177664974619
G3 X28.04822335025381 Y23.012690355329948 I-0.08883248730964467 J-0.08883248730964467
G3 X28.01776649746193 Y23.025380710659896 I-0.06345177664974619 J-0.10913705583756345
G3 X27.98477157360406 Y23.030456852791875 I-0.03299492385786802 J-0.1218274111675127
G3 X27.951776649746193 Y23.025380710659896 I0 J-0.12436548223350254
G3 X27.921319796954315 Y23.012690355329948 I0.03299492385786802 J-0.1218274111675127
G3 X27.895939086294415 Y22.992385786802032 I0.06345177664974619 J-0.10913705583756345
G3 X27.8756345177665 Y22.967005076142133 I0.08883248730964467 J-0.08883248730964467
G3 X27.86294416243655 Y22.936548223350254 I0.10913705583756345 J-0.06345177664974619
G3 X27.860406091370557 Y22.90609137055838 I0.1218274111675127 J-0.03299492385786802
G1 X27.860406091370557 Y22.90609137055838
G1 X27.860406091370557 Y22.90609137055838
G3 X27.86294416243655 Y22.873096446700508 I0.12436548223350254 J0
G3 X27.8756345177665 Y22.84263959390863 I0.1218274111675127 J0.03299492385786802
G3 X27.895939086294415 Y22.81725888324873 I0.10913705583756345 J0.06345177664974619
G3 X27.921319796954315 Y22.796954314720814 I0.08883248730964467 J0.08883248730964467
G3 X27.951776649746193 Y22.784263959390863 I0.06345177664974619 J0.10913705583756345
G3 X27.98477157360406 Y22.77918781725888 I0.03299492385786802 J0.1218274111675127
G3 X28.01776649746193 Y22.784263959390863 I0 J0.12436548223350254
G0 Z8
G0 X28.01725888324873 Y15.164467005076142
G1 Z2.9 F800
G3 X28.04822335025381 Y15.17766497461929 I-0.03299492385786802 J0.1218274111675127 F1500
G3 X28.073604060913702 Y15.197969543147208 I-0.06345177664974619 J0.10913705583756345
G3 X28.093908629441625 Y15.223350253807107 I-0.08883248730964467 J0.08883248730964467
G3 X28.106598984771573 Y15.253807106598984 I-0.10913705583756345 J0.06345177664974619
G3 X28.109137055837564 Y15.284263959390863 I-0.1218274111675127 J0.03299492385786802
G1 X28.109137055837564 Y15.284263959390863
G1 X28.109137055837564 Y15.284263959390863
G3 X28.106598984771573 Y15.31725888324873 I-0.12436548223350254 J0
G3 X28.093908629441625 Y15.34771573604061 I-0.1218274111675127 J-0.03299492385786802
G3 X28.073604060913702 Y15.373096446700508 I-0.10913705583756345 J-0.06345177664974619
G3 X28.04822335025381 Y15.393401015228427 I-0.08883248730964467 J-0.08883248730964467
G3 X28.01776649746193 Y15.406091370558375 I-0.06345177664974619 J-0.10913705583756345
G3 X27.98477157360406 Y15.411167512690355 I-0.03299492385786802 J-0.1218274111675127
G3 X27.951776649746193 Y15.406091370558375 I0 J-0.12436548223350254
G3 X27.921319796954315 Y15.393401015228427 I0.03299492385786802 J-0.1218274111675127
G3 X27.895939086294415 Y15.373096446700508 I0.06345177664974619 J-0.10913705583756345
G3 X27.8756345177665 Y15.34771573604061 I0.08883248730964467 J-0.08883248730964467
G3 X27.86294416243655 Y15.31725888324873 I0.10913705583756345 J-0.06345177664974619
G3 X27.860406091370557 Y15.284263959390863 I0.1218274111675127 J-0.03299492385786802
G1 X27.860406091370557 Y15.284263959390863
G1 X27.860406091370557 Y15.284263959390863
G3 X27.86294416243655 Y15.253807106598984 I0.12436548223350254 J0
G3 X27.8756345177665 Y15.223350253807107 I0.1218274111675127 J0.03299492385786802
G3 X27.895939086294415 Y15.197969543147208 I0.10913705583756345 J0.06345177664974619
G3 X27.921319796954315 Y15.17766497461929 I0.08883248730964467 J0.08883248730964467
G3 X27.951776649746193 Y15.164974619289339 I0.06345177664974619 J0.10913705583756345
G3 X27.98477157360406 Y15.15989847715736 I0.03299492385786802 J0.1218274111675127
G3 X28.01776649746193 Y15.164974619289339 I0 J0.12436548223350254
G0 Z8
G0 X28.01725888324873 Y18.9743654822335
G1 Z2.9 F800
G3 X28.04822335025381 Y18.987309644670052 I-0.03299492385786802 J0.1218274111675127 F1500
G3 X28.073604060913702 Y19.007614213197968 I-0.06345177664974619 J0.10913705583756345
G3 X28.093908629441625 Y19.03299492385787 I-0.08883248730964467 J0.08883248730964467
G3 X28.106598984771573 Y19.063451776649746 I-0.10913705583756345 J0.06345177664974619
G3 X28.109137055837564 Y19.093908629441625 I-0.1218274111675127 J0.03299492385786802
G1 X28.109137055837564 Y19.093908629441625
G1 X28.109137055837564 Y19.093908629441625
G3 X28.106598984771573 Y19.126903553299492 I-0.12436548223350254 J0
G3 X28.093908629441625 Y19.15736040609137 I-0.1218274111675127 J-0.03299492385786802
G3 X28.073604060913702 Y19.18274111675127 I-0.10913705583756345 J-0.06345177664974619
G3 X28.04822335025381 Y19.203045685279186 I-0.08883248730964467 J-0.08883248730964467
G3 X28.01776649746193 Y19.215736040609137 I-0.06345177664974619 J-0.10913705583756345
G3 X27.98477157360406 Y19.220812182741117 I-0.03299492385786802 J-0.1218274111675127
G3 X27.951776649746193 Y19.215736040609137 I0 J-0.12436548223350254
G3 X27.921319796954315 Y19.203045685279186 I0.03299492385786802 J-0.1218274111675127
G3 X27.895939086294415 Y19.18274111675127 I0.06345177664974619 J-0.10913705583756345
G3 X27.8756345177665 Y19.15736040609137 I0.08883248730964467 J-0.08883248730964467
G3 X27.86294416243655 Y19.126903553299492 I0.10913705583756345 J-0.06345177664974619
G3 X27.860406091370557 Y19.093908629441625 I0.1218274111675127 J-0.03299492385786802
G1 X27.860406091370557 Y19.093908629441625
G1 X27.860406091370557 Y19.093908629441625
G3 X27.86294416243655 Y19.063451776649746 I0.12436548223350254 J0
G3 X27.8756345177665 Y19.03299492385787 I0.1218274111675127 J0.03299492385786802
G3 X27.895939086294415 Y19.007614213197968 I0.10913705583756345 J0.06345177664974619
G3 X27.921319796954315 Y18.987309644670052 I0.08883248730964467 J0.08883248730964467
G3 X27.951776649746193 Y18.9746192893401 I0.06345177664974619 J0.10913705583756345
G3 X27.98477157360406 Y18.96954314720812 I0.03299492385786802 J0.1218274111675127
G3 X28.01776649746193 Y18.9746192893401 I0 J0.12436548223350254
G0 Z8
G0 X10.530964467005075 Y9.446446700507614
G1 Z2.9 F800
G1 X55.91624365482233 Y9.446700507614214 F1500
G3 X55.96700507614213 Y9.49746192893401 I0 J0.050761421319796954
G1 X55.96700507614213 Y31.751269035532992
G3 X55.91624365482233 Y31.80203045685279 I-0.050761421319796954 J0
G1 X10.530456852791879 Y31.80203045685279
G3 X10.482233502538072 Y31.751269035532992 I0 J-0.050761421319796954
G1 X10.482233502538072 Y9.49746192893401
G3 X10.530456852791879 Y9.446700507614214 I0.050761421319796954 J0
G0 Z8
M5
M30
