(Generated by PartKam Version 0.05)

G21 G90 G40

(profile 1)
G0 Z8
T0 M6
G17
M3 S900
G0 X2.8885786802030458 Y11.979441624365482
G1 Z1.5 F800
G3 X2.908629441624365 Y12.081218274111675 I-0.24873096446700507 J0.10406091370558375 F1500
G3 X2.8883248730964466 Y12.18527918781726 I-0.2690355329949239 J0
G3 X2.82994923857868 Y12.271573604060915 I-0.24873096446700507 J-0.10406091370558375
G3 X2.7436548223350252 Y12.329949238578681 I-0.1903553299492386 J-0.1903553299492386
G3 X2.6395939086294415 Y12.350253807106599 I-0.10406091370558375 J-0.24873096446700507
G3 X2.5380710659898478 Y12.329949238578681 I0 J-0.2690355329949239
G3 X2.449238578680203 Y12.271573604060915 I0.10406091370558375 J-0.24873096446700507
G3 X2.3908629441624365 Y12.18527918781726 I0.1903553299492386 J-0.1903553299492386
G3 X2.3705583756345177 Y12.081218274111675 I0.24873096446700507 J-0.10406091370558375
G3 X2.3908629441624365 Y11.97969543147208 I0.2690355329949239 J0
G3 X2.449238578680203 Y11.893401015228427 I0.24873096446700507 J0.10406091370558375
G3 X2.5380710659898478 Y11.83502538071066 I0.1903553299492386 J0.1903553299492386
G3 X2.6395939086294415 Y11.814720812182742 I0.10406091370558375 J0.24873096446700507
G3 X2.7436548223350252 Y11.83502538071066 I0 J0.2690355329949239
G3 X2.82994923857868 Y11.893401015228427 I-0.10406091370558375 J0.24873096446700507
G3 X2.8883248730964466 Y11.97969543147208 I-0.1903553299492386 J0.1903553299492386
G1 Z1 F800
G3 X2.908629441624365 Y12.081218274111675 I-0.24873096446700507 J0.10406091370558375 F1500
G3 X2.8883248730964466 Y12.18527918781726 I-0.2690355329949239 J0
G3 X2.82994923857868 Y12.271573604060915 I-0.24873096446700507 J-0.10406091370558375
G3 X2.7436548223350252 Y12.329949238578681 I-0.1903553299492386 J-0.1903553299492386
G3 X2.6395939086294415 Y12.350253807106599 I-0.10406091370558375 J-0.24873096446700507
G3 X2.5380710659898478 Y12.329949238578681 I0 J-0.2690355329949239
G3 X2.449238578680203 Y12.271573604060915 I0.10406091370558375 J-0.24873096446700507
G3 X2.3908629441624365 Y12.18527918781726 I0.1903553299492386 J-0.1903553299492386
G3 X2.3705583756345177 Y12.081218274111675 I0.24873096446700507 J-0.10406091370558375
G3 X2.3908629441624365 Y11.97969543147208 I0.2690355329949239 J0
G3 X2.449238578680203 Y11.893401015228427 I0.24873096446700507 J0.10406091370558375
G3 X2.5380710659898478 Y11.83502538071066 I0.1903553299492386 J0.1903553299492386
G3 X2.6395939086294415 Y11.814720812182742 I0.10406091370558375 J0.24873096446700507
G3 X2.7436548223350252 Y11.83502538071066 I0 J0.2690355329949239
G3 X2.82994923857868 Y11.893401015228427 I-0.10406091370558375 J0.24873096446700507
G3 X2.8883248730964466 Y11.97969543147208 I-0.1903553299492386 J0.1903553299492386
G0 Z8
G0 X4.088832487309645 Y10.633756345177664
G1 Z1.5 F800
G1 X4.088832487309645 Y13.532994923857869 F1500
G1 X1.1878172588832487 Y13.532994923857869
G1 X1.1878172588832487 Y10.634517766497462
G1 X4.088832487309645 Y10.634517766497462
G1 Z1 F800
G1 X4.088832487309645 Y13.532994923857869 F1500
G1 X1.1878172588832487 Y13.532994923857869
G1 X1.1878172588832487 Y10.634517766497462
G1 X4.088832487309645 Y10.634517766497462
G0 Z8
G0 X2.8885786802030458 Y21.504314720812182
G1 Z1.5 F800
G3 X2.908629441624365 Y21.606598984771573 I-0.24873096446700507 J0.10406091370558375 F1500
G3 X2.8883248730964466 Y21.710659898477157 I-0.2690355329949239 J0
G3 X2.82994923857868 Y21.796954314720814 I-0.24873096446700507 J-0.10406091370558375
G3 X2.7436548223350252 Y21.855329949238577 I-0.1903553299492386 J-0.1903553299492386
G3 X2.6395939086294415 Y21.8756345177665 I-0.10406091370558375 J-0.24873096446700507
G3 X2.5380710659898478 Y21.855329949238577 I0 J-0.2690355329949239
G3 X2.449238578680203 Y21.796954314720814 I0.10406091370558375 J-0.24873096446700507
G3 X2.3908629441624365 Y21.710659898477157 I0.1903553299492386 J-0.1903553299492386
G3 X2.3705583756345177 Y21.606598984771573 I0.24873096446700507 J-0.10406091370558375
G3 X2.3908629441624365 Y21.505076142131976 I0.2690355329949239 J0
G3 X2.449238578680203 Y21.416243654822335 I0.24873096446700507 J0.10406091370558375
G3 X2.5380710659898478 Y21.357868020304565 I0.1903553299492386 J0.1903553299492386
G3 X2.6395939086294415 Y21.337563451776653 I0.10406091370558375 J0.24873096446700507
G3 X2.7436548223350252 Y21.357868020304565 I0 J0.2690355329949239
G3 X2.82994923857868 Y21.416243654822335 I-0.10406091370558375 J0.24873096446700507
G3 X2.8883248730964466 Y21.505076142131976 I-0.1903553299492386 J0.1903553299492386
G1 Z1 F800
G3 X2.908629441624365 Y21.606598984771573 I-0.24873096446700507 J0.10406091370558375 F1500
G3 X2.8883248730964466 Y21.710659898477157 I-0.2690355329949239 J0
G3 X2.82994923857868 Y21.796954314720814 I-0.24873096446700507 J-0.10406091370558375
G3 X2.7436548223350252 Y21.855329949238577 I-0.1903553299492386 J-0.1903553299492386
G3 X2.6395939086294415 Y21.8756345177665 I-0.10406091370558375 J-0.24873096446700507
G3 X2.5380710659898478 Y21.855329949238577 I0 J-0.2690355329949239
G3 X2.449238578680203 Y21.796954314720814 I0.10406091370558375 J-0.24873096446700507
G3 X2.3908629441624365 Y21.710659898477157 I0.1903553299492386 J-0.1903553299492386
G3 X2.3705583756345177 Y21.606598984771573 I0.24873096446700507 J-0.10406091370558375
G3 X2.3908629441624365 Y21.505076142131976 I0.2690355329949239 J0
G3 X2.449238578680203 Y21.416243654822335 I0.24873096446700507 J0.10406091370558375
G3 X2.5380710659898478 Y21.357868020304565 I0.1903553299492386 J0.1903553299492386
G3 X2.6395939086294415 Y21.337563451776653 I0.10406091370558375 J0.24873096446700507
G3 X2.7436548223350252 Y21.357868020304565 I0 J0.2690355329949239
G3 X2.82994923857868 Y21.416243654822335 I-0.10406091370558375 J0.24873096446700507
G3 X2.8883248730964466 Y21.505076142131976 I-0.1903553299492386 J0.1903553299492386
G0 Z8
G0 X4.088832487309645 Y20.158629441624367
G1 Z1.5 F800
G1 X4.088832487309645 Y23.058375634517766 F1500
G1 X1.1878172588832487 Y23.058375634517766
G1 X1.1878172588832487 Y20.159898477157363
G1 X4.088832487309645 Y20.159898477157363
G1 Z1 F800
G1 X4.088832487309645 Y23.058375634517766 F1500
G1 X1.1878172588832487 Y23.058375634517766
G1 X1.1878172588832487 Y20.159898477157363
G1 X4.088832487309645 Y20.159898477157363
G0 Z8
G0 X53.63020304568528 Y24.59213197969543
G1 Z1.5 F800
G3 X53.68781725888325 Y24.68020304568528 I-0.1903553299492386 J0.1903553299492386 F1500
G3 X53.70812182741116 Y24.781725888324875 I-0.24873096446700507 J0.10406091370558375
G3 X53.68781725888325 Y24.88578680203046 I-0.2690355329949239 J0
G3 X53.629441624365484 Y24.972081218274113 I-0.24873096446700507 J-0.10406091370558375
G3 X53.54314720812183 Y25.03045685279188 I-0.1903553299492386 J-0.1903553299492386
G3 X53.43908629441624 Y25.050761421319798 I-0.10406091370558375 J-0.24873096446700507
G3 X53.33756345177665 Y25.03045685279188 I0 J-0.2690355329949239
G3 X53.251269035533 Y24.972081218274113 I0.10406091370558375 J-0.24873096446700507
G3 X53.192893401015226 Y24.88578680203046 I0.1903553299492386 J-0.1903553299492386
G3 X53.17258883248731 Y24.781725888324875 I0.24873096446700507 J-0.10406091370558375
G3 X53.192893401015226 Y24.68020304568528 I0.2690355329949239 J0
G3 X53.251269035533 Y24.591370558375637 I0.24873096446700507 J0.10406091370558375
G3 X53.33756345177665 Y24.532994923857867 I0.1903553299492386 J0.1903553299492386
G3 X53.43908629441624 Y24.51269035532995 I0.10406091370558375 J0.24873096446700507
G3 X53.54314720812183 Y24.532994923857867 I0 J0.2690355329949239
G3 X53.629441624365484 Y24.591370558375637 I-0.10406091370558375 J0.24873096446700507
G1 Z1 F800
G3 X53.68781725888325 Y24.68020304568528 I-0.1903553299492386 J0.1903553299492386 F1500
G3 X53.70812182741116 Y24.781725888324875 I-0.24873096446700507 J0.10406091370558375
G3 X53.68781725888325 Y24.88578680203046 I-0.2690355329949239 J0
G3 X53.629441624365484 Y24.972081218274113 I-0.24873096446700507 J-0.10406091370558375
G3 X53.54314720812183 Y25.03045685279188 I-0.1903553299492386 J-0.1903553299492386
G3 X53.43908629441624 Y25.050761421319798 I-0.10406091370558375 J-0.24873096446700507
G3 X53.33756345177665 Y25.03045685279188 I0 J-0.2690355329949239
G3 X53.251269035533 Y24.972081218274113 I0.10406091370558375 J-0.24873096446700507
G3 X53.192893401015226 Y24.88578680203046 I0.1903553299492386 J-0.1903553299492386
G3 X53.17258883248731 Y24.781725888324875 I0.24873096446700507 J-0.10406091370558375
G3 X53.192893401015226 Y24.68020304568528 I0.2690355329949239 J0
G3 X53.251269035533 Y24.591370558375637 I0.24873096446700507 J0.10406091370558375
G3 X53.33756345177665 Y24.532994923857867 I0.1903553299492386 J0.1903553299492386
G3 X53.43908629441624 Y24.51269035532995 I0.10406091370558375 J0.24873096446700507
G3 X53.54314720812183 Y24.532994923857867 I0 J0.2690355329949239
G3 X53.629441624365484 Y24.591370558375637 I-0.10406091370558375 J0.24873096446700507
G0 Z8
G0 X54.88883248730964 Y23.333756345177665
G1 Z1.5 F800
G1 X54.888324873096444 Y26.23350253807107 F1500
G1 X51.98730964467005 Y26.23350253807107
G1 X51.98730964467005 Y23.33248730964467
G1 X54.888324873096444 Y23.33248730964467
G1 Z1 F800
G1 X54.888324873096444 Y26.23350253807107 F1500
G1 X51.98730964467005 Y26.23350253807107
G1 X51.98730964467005 Y23.33248730964467
G1 X54.888324873096444 Y23.33248730964467
G0 Z8
G0 X35.848477157360406 Y11.021065989847715
G1 Z1.5 F800
G1 X35.84771573604061 Y11.555837563451776 F1500
G1 X34.52030456852792 Y11.555837563451776
G1 X34.52030456852792 Y11.02030456852792
G1 X35.84771573604061 Y11.02030456852792
G1 Z1 F800
G1 X35.84771573604061 Y11.555837563451776 F1500
G1 X34.52030456852792 Y11.555837563451776
G1 X34.52030456852792 Y11.02030456852792
G1 X35.84771573604061 Y11.02030456852792
G0 Z8
G0 X35.848477157360406 Y9.433502538071066
G1 Z1.5 F800
G1 X35.84771573604061 Y9.969543147208121 F1500
G1 X34.52030456852792 Y9.969543147208121
G1 X34.52030456852792 Y9.434010152284264
G1 X35.84771573604061 Y9.434010152284264
G1 Z1 F800
G1 X35.84771573604061 Y9.969543147208121 F1500
G1 X34.52030456852792 Y9.969543147208121
G1 X34.52030456852792 Y9.434010152284264
G1 X35.84771573604061 Y9.434010152284264
G0 Z8
G0 X35.848477157360406 Y7.8459390862944165
G1 Z1.5 F800
G1 X35.84771573604061 Y8.380710659898478 F1500
G1 X34.52030456852792 Y8.380710659898478
G1 X34.52030456852792 Y7.84517766497462
G1 X35.84771573604061 Y7.84517766497462
G1 Z1 F800
G1 X35.84771573604061 Y8.380710659898478 F1500
G1 X34.52030456852792 Y8.380710659898478
G1 X34.52030456852792 Y7.84517766497462
G1 X35.84771573604061 Y7.84517766497462
G0 Z8
G0 X35.848477157360406 Y6.2586294416243655
G1 Z1.5 F800
G1 X35.84771573604061 Y6.7944162436548226 F1500
G1 X34.52030456852792 Y6.7944162436548226
G1 X34.52030456852792 Y6.258883248730964
G1 X35.84771573604061 Y6.258883248730964
G1 Z1 F800
G1 X35.84771573604061 Y6.7944162436548226 F1500
G1 X34.52030456852792 Y6.7944162436548226
G1 X34.52030456852792 Y6.258883248730964
G1 X35.84771573604061 Y6.258883248730964
G0 Z8
G0 X35.848477157360406 Y22.133502538071067
G1 Z1.5 F800
G1 X35.84771573604061 Y22.66751269035533 F1500
G1 X34.52030456852792 Y22.66751269035533
G1 X34.52030456852792 Y22.134517766497463
G1 X35.84771573604061 Y22.134517766497463
G1 Z1 F800
G1 X35.84771573604061 Y22.66751269035533 F1500
G1 X34.52030456852792 Y22.66751269035533
G1 X34.52030456852792 Y22.134517766497463
G1 X35.84771573604061 Y22.134517766497463
G0 Z8
G0 X35.848477157360406 Y20.545939086294418
G1 Z1.5 F800
G1 X35.84771573604061 Y21.081218274111677 F1500
G1 X34.52030456852792 Y21.081218274111677
G1 X34.52030456852792 Y20.54568527918782
G1 X35.84771573604061 Y20.54568527918782
G1 Z1 F800
G1 X35.84771573604061 Y21.081218274111677 F1500
G1 X34.52030456852792 Y21.081218274111677
G1 X34.52030456852792 Y20.54568527918782
G1 X35.84771573604061 Y20.54568527918782
G0 Z8
G0 X35.848477157360406 Y18.958629441624364
G1 Z1.5 F800
G1 X35.84771573604061 Y19.492385786802032 F1500
G1 X34.52030456852792 Y19.492385786802032
G1 X34.52030456852792 Y18.95939086294416
G1 X35.84771573604061 Y18.95939086294416
G1 Z1 F800
G1 X35.84771573604061 Y19.492385786802032 F1500
G1 X34.52030456852792 Y19.492385786802032
G1 X34.52030456852792 Y18.95939086294416
G1 X35.84771573604061 Y18.95939086294416
G0 Z8
G0 X35.848477157360406 Y17.371065989847715
G1 Z1.5 F800
G1 X35.84771573604061 Y17.906091370558375 F1500
G1 X34.52030456852792 Y17.906091370558375
G1 X34.52030456852792 Y17.370558375634516
G1 X35.84771573604061 Y17.370558375634516
G1 Z1 F800
G1 X35.84771573604061 Y17.906091370558375 F1500
G1 X34.52030456852792 Y17.906091370558375
G1 X34.52030456852792 Y17.370558375634516
G1 X35.84771573604061 Y17.370558375634516
G0 Z8
G0 X27.910913705583756 Y6.2586294416243655
G1 Z1.5 F800
G1 X27.911167512690355 Y6.7944162436548226 F1500
G1 X26.581218274111677 Y6.7944162436548226
G1 X26.581218274111677 Y6.258883248730964
G1 X27.911167512690355 Y6.258883248730964
G1 Z1 F800
G1 X27.911167512690355 Y6.7944162436548226 F1500
G1 X26.581218274111677 Y6.7944162436548226
G1 X26.581218274111677 Y6.258883248730964
G1 X27.911167512690355 Y6.258883248730964
G0 Z8
G0 X27.910913705583756 Y7.8459390862944165
G1 Z1.5 F800
G1 X27.911167512690355 Y8.380710659898478 F1500
G1 X26.581218274111677 Y8.380710659898478
G1 X26.581218274111677 Y7.84517766497462
G1 X27.911167512690355 Y7.84517766497462
G1 Z1 F800
G1 X27.911167512690355 Y8.380710659898478 F1500
G1 X26.581218274111677 Y8.380710659898478
G1 X26.581218274111677 Y7.84517766497462
G1 X27.911167512690355 Y7.84517766497462
G0 Z8
G0 X27.910913705583756 Y9.433502538071066
G1 Z1.5 F800
G1 X27.911167512690355 Y9.969543147208121 F1500
G1 X26.581218274111677 Y9.969543147208121
G1 X26.581218274111677 Y9.434010152284264
G1 X27.911167512690355 Y9.434010152284264
G1 Z1 F800
G1 X27.911167512690355 Y9.969543147208121 F1500
G1 X26.581218274111677 Y9.969543147208121
G1 X26.581218274111677 Y9.434010152284264
G1 X27.911167512690355 Y9.434010152284264
G0 Z8
G0 X27.910913705583756 Y11.021065989847715
G1 Z1.5 F800
G1 X27.911167512690355 Y11.555837563451776 F1500
G1 X26.581218274111677 Y11.555837563451776
G1 X26.581218274111677 Y11.02030456852792
G1 X27.911167512690355 Y11.02030456852792
G1 Z1 F800
G1 X27.911167512690355 Y11.555837563451776 F1500
G1 X26.581218274111677 Y11.555837563451776
G1 X26.581218274111677 Y11.02030456852792
G1 X27.911167512690355 Y11.02030456852792
G0 Z8
G0 X27.910913705583756 Y17.371065989847715
G1 Z1.5 F800
G1 X27.911167512690355 Y17.906091370558375 F1500
G1 X26.581218274111677 Y17.906091370558375
G1 X26.581218274111677 Y17.370558375634516
G1 X27.911167512690355 Y17.370558375634516
G1 Z1 F800
G1 X27.911167512690355 Y17.906091370558375 F1500
G1 X26.581218274111677 Y17.906091370558375
G1 X26.581218274111677 Y17.370558375634516
G1 X27.911167512690355 Y17.370558375634516
G0 Z8
G0 X27.910913705583756 Y18.958629441624364
G1 Z1.5 F800
G1 X27.911167512690355 Y19.492385786802032 F1500
G1 X26.581218274111677 Y19.492385786802032
G1 X26.581218274111677 Y18.95939086294416
G1 X27.911167512690355 Y18.95939086294416
G1 Z1 F800
G1 X27.911167512690355 Y19.492385786802032 F1500
G1 X26.581218274111677 Y19.492385786802032
G1 X26.581218274111677 Y18.95939086294416
G1 X27.911167512690355 Y18.95939086294416
G0 Z8
G0 X27.910913705583756 Y20.545939086294418
G1 Z1.5 F800
G1 X27.911167512690355 Y21.081218274111677 F1500
G1 X26.581218274111677 Y21.081218274111677
G1 X26.581218274111677 Y20.54568527918782
G1 X27.911167512690355 Y20.54568527918782
G1 Z1 F800
G1 X27.911167512690355 Y21.081218274111677 F1500
G1 X26.581218274111677 Y21.081218274111677
G1 X26.581218274111677 Y20.54568527918782
G1 X27.911167512690355 Y20.54568527918782
G0 Z8
G0 X27.910913705583756 Y22.133502538071067
G1 Z1.5 F800
G1 X27.911167512690355 Y22.66751269035533 F1500
G1 X26.581218274111677 Y22.66751269035533
G1 X26.581218274111677 Y22.134517766497463
G1 X27.911167512690355 Y22.134517766497463
G1 Z1 F800
G1 X27.911167512690355 Y22.66751269035533 F1500
G1 X26.581218274111677 Y22.66751269035533
G1 X26.581218274111677 Y22.134517766497463
G1 X27.911167512690355 Y22.134517766497463
G0 Z8
G0 X2.484263959390863 Y17.29670050761421
G1 Z1.5 F800
G3 X2.472081218274112 Y17.230964467005077 I0.15482233502538073 J-0.06345177664974619 F1500
G3 X2.484771573604061 Y17.16751269035533 I0.16751269035532995 J0
G3 X2.5203045685279184 Y17.111675126903553 I0.15482233502538073 J0.06345177664974619
G3 X2.5761421319796955 Y17.076142131979694 I0.11928934010152284 J0.11928934010152284
G3 X2.6395939086294415 Y17.063451776649746 I0.06345177664974619 J0.15482233502538073
G3 X2.705583756345178 Y17.076142131979694 I0 J0.16751269035532995
G3 X2.7588832487309647 Y17.111675126903553 I-0.06345177664974619 J0.15482233502538073
G3 X2.796954314720812 Y17.16751269035533 I-0.11928934010152284 J0.11928934010152284
G3 X2.8096446700507616 Y17.230964467005077 I-0.15482233502538073 J0.06345177664974619
G3 X2.796954314720812 Y17.29695431472081 I-0.16751269035532995 J0
G3 X2.7588832487309647 Y17.3502538071066 I-0.15482233502538073 J-0.06345177664974619
G3 X2.705583756345178 Y17.388324873096444 I-0.11928934010152284 J-0.11928934010152284
G3 X2.6395939086294415 Y17.401015228426395 I-0.06345177664974619 J-0.15482233502538073
G3 X2.5761421319796955 Y17.388324873096444 I0 J-0.16751269035532995
G3 X2.5203045685279184 Y17.3502538071066 I0.06345177664974619 J-0.15482233502538073
G3 X2.484771573604061 Y17.29695431472081 I0.11928934010152284 J-0.11928934010152284
G1 Z1 F800
G3 X2.472081218274112 Y17.230964467005077 I0.15482233502538073 J-0.06345177664974619 F1500
G3 X2.484771573604061 Y17.16751269035533 I0.16751269035532995 J0
G3 X2.5203045685279184 Y17.111675126903553 I0.15482233502538073 J0.06345177664974619
G3 X2.5761421319796955 Y17.076142131979694 I0.11928934010152284 J0.11928934010152284
G3 X2.6395939086294415 Y17.063451776649746 I0.06345177664974619 J0.15482233502538073
G3 X2.705583756345178 Y17.076142131979694 I0 J0.16751269035532995
G3 X2.7588832487309647 Y17.111675126903553 I-0.06345177664974619 J0.15482233502538073
G3 X2.796954314720812 Y17.16751269035533 I-0.11928934010152284 J0.11928934010152284
G3 X2.8096446700507616 Y17.230964467005077 I-0.15482233502538073 J0.06345177664974619
G3 X2.796954314720812 Y17.29695431472081 I-0.16751269035532995 J0
G3 X2.7588832487309647 Y17.3502538071066 I-0.15482233502538073 J-0.06345177664974619
G3 X2.705583756345178 Y17.388324873096444 I-0.11928934010152284 J-0.11928934010152284
G3 X2.6395939086294415 Y17.401015228426395 I-0.06345177664974619 J-0.15482233502538073
G3 X2.5761421319796955 Y17.388324873096444 I0 J-0.16751269035532995
G3 X2.5203045685279184 Y17.3502538071066 I0.06345177664974619 J-0.15482233502538073
G3 X2.484771573604061 Y17.29695431472081 I0.11928934010152284 J-0.11928934010152284
G0 Z8
G0 X4.090355329949238 Y17.232233502538072
G1 Z1.5 F800
G3 X3.979695431472081 Y17.78680203045685 I-1.4492385786802031 J0 F1500
G3 X3.66497461928934 Y18.256345177664976 I-1.3401015228426396 J-0.5558375634517766
G3 X3.1954314720812182 Y18.571065989847714 I-1.0253807106598984 J-1.0253807106598984
G3 X2.6395939086294415 Y18.68274111675127 I-0.5558375634517766 J-1.3401015228426396
G3 X2.0862944162436547 Y18.571065989847714 I0 J-1.4492385786802031
G3 X1.614213197969543 Y18.256345177664976 I0.5558375634517766 J-1.3401015228426396
G3 X1.2994923857868022 Y17.78680203045685 I1.0253807106598984 J-1.0253807106598984
G3 X1.1903553299492384 Y17.230964467005077 I1.3401015228426396 J-0.5558375634517766
G3 X1.2994923857868022 Y16.67766497461929 I1.4492385786802031 J0
G3 X1.614213197969543 Y16.205583756345177 I1.3401015228426396 J0.5558375634517766
G3 X2.0862944162436547 Y15.893401015228426 I1.0253807106598984 J1.0253807106598984
G3 X2.6395939086294415 Y15.781725888324873 I0.5558375634517766 J1.3401015228426396
G3 X3.1954314720812182 Y15.893401015228426 I0 J1.4492385786802031
G3 X3.66497461928934 Y16.205583756345177 I-0.5558375634517766 J1.3401015228426396
G3 X3.979695431472081 Y16.67766497461929 I-1.0253807106598984 J1.0253807106598984
G3 X4.091370558375634 Y17.230964467005077 I-1.3401015228426396 J0.5558375634517766
G1 Z1 F800
G3 X3.979695431472081 Y17.78680203045685 I-1.4492385786802031 J0 F1500
G3 X3.66497461928934 Y18.256345177664976 I-1.3401015228426396 J-0.5558375634517766
G3 X3.1954314720812182 Y18.571065989847714 I-1.0253807106598984 J-1.0253807106598984
G3 X2.6395939086294415 Y18.68274111675127 I-0.5558375634517766 J-1.3401015228426396
G3 X2.0862944162436547 Y18.571065989847714 I0 J-1.4492385786802031
G3 X1.614213197969543 Y18.256345177664976 I0.5558375634517766 J-1.3401015228426396
G3 X1.2994923857868022 Y17.78680203045685 I1.0253807106598984 J-1.0253807106598984
G3 X1.1903553299492384 Y17.230964467005077 I1.3401015228426396 J-0.5558375634517766
G3 X1.2994923857868022 Y16.67766497461929 I1.4492385786802031 J0
G3 X1.614213197969543 Y16.205583756345177 I1.3401015228426396 J0.5558375634517766
G3 X2.0862944162436547 Y15.893401015228426 I1.0253807106598984 J1.0253807106598984
G3 X2.6395939086294415 Y15.781725888324873 I0.5558375634517766 J1.3401015228426396
G3 X3.1954314720812182 Y15.893401015228426 I0 J1.4492385786802031
G3 X3.66497461928934 Y16.205583756345177 I-0.5558375634517766 J1.3401015228426396
G3 X3.979695431472081 Y16.67766497461929 I-1.0253807106598984 J1.0253807106598984
G3 X4.091370558375634 Y17.230964467005077 I-1.3401015228426396 J0.5558375634517766
G0 Z8
G0 X2.7961928934010154 Y7.64263959390863
G1 Z1.5 F800
G3 X2.8096446700507616 Y7.708121827411167 I-0.15482233502538073 J0.06345177664974619 F1500
G3 X2.796954314720812 Y7.771573604060914 I-0.16751269035532995 J0
G3 X2.7588832487309647 Y7.82741116751269 I-0.15482233502538073 J-0.06345177664974619
G3 X2.705583756345178 Y7.862944162436548 I-0.11928934010152284 J-0.11928934010152284
G3 X2.6395939086294415 Y7.875634517766498 I-0.06345177664974619 J-0.15482233502538073
G3 X2.5761421319796955 Y7.862944162436548 I0 J-0.16751269035532995
G3 X2.5203045685279184 Y7.82741116751269 I0.06345177664974619 J-0.15482233502538073
G3 X2.484771573604061 Y7.771573604060914 I0.11928934010152284 J-0.11928934010152284
G3 X2.472081218274112 Y7.708121827411167 I0.15482233502538073 J-0.06345177664974619
G3 X2.484771573604061 Y7.6421319796954315 I0.16751269035532995 J0
G3 X2.5203045685279184 Y7.588832487309645 I0.15482233502538073 J0.06345177664974619
G3 X2.5761421319796955 Y7.550761421319797 I0.11928934010152284 J0.11928934010152284
G3 X2.6395939086294415 Y7.538071065989848 I0.06345177664974619 J0.15482233502538073
G3 X2.705583756345178 Y7.550761421319797 I0 J0.16751269035532995
G3 X2.7588832487309647 Y7.588832487309645 I-0.06345177664974619 J0.15482233502538073
G3 X2.796954314720812 Y7.6421319796954315 I-0.11928934010152284 J0.11928934010152284
G1 Z1 F800
G3 X2.8096446700507616 Y7.708121827411167 I-0.15482233502538073 J0.06345177664974619 F1500
G3 X2.796954314720812 Y7.771573604060914 I-0.16751269035532995 J0
G3 X2.7588832487309647 Y7.82741116751269 I-0.15482233502538073 J-0.06345177664974619
G3 X2.705583756345178 Y7.862944162436548 I-0.11928934010152284 J-0.11928934010152284
G3 X2.6395939086294415 Y7.875634517766498 I-0.06345177664974619 J-0.15482233502538073
G3 X2.5761421319796955 Y7.862944162436548 I0 J-0.16751269035532995
G3 X2.5203045685279184 Y7.82741116751269 I0.06345177664974619 J-0.15482233502538073
G3 X2.484771573604061 Y7.771573604060914 I0.11928934010152284 J-0.11928934010152284
G3 X2.472081218274112 Y7.708121827411167 I0.15482233502538073 J-0.06345177664974619
G3 X2.484771573604061 Y7.6421319796954315 I0.16751269035532995 J0
G3 X2.5203045685279184 Y7.588832487309645 I0.15482233502538073 J0.06345177664974619
G3 X2.5761421319796955 Y7.550761421319797 I0.11928934010152284 J0.11928934010152284
G3 X2.6395939086294415 Y7.538071065989848 I0.06345177664974619 J0.15482233502538073
G3 X2.705583756345178 Y7.550761421319797 I0 J0.16751269035532995
G3 X2.7588832487309647 Y7.588832487309645 I-0.06345177664974619 J0.15482233502538073
G3 X2.796954314720812 Y7.6421319796954315 I-0.11928934010152284 J0.11928934010152284
G0 Z8
G0 X3.9799492385786803 Y7.152284263959391
G1 Z1.5 F800
G3 X4.091370558375634 Y7.708121827411167 I-1.3401015228426396 J0.5558375634517766 F1500
G3 X3.979695431472081 Y8.261421319796954 I-1.4492385786802031 J0
G3 X3.66497461928934 Y8.733502538071066 I-1.3401015228426396 J-0.5558375634517766
G3 X3.1954314720812182 Y9.045685279187817 I-1.0253807106598984 J-1.0253807106598984
G3 X2.6395939086294415 Y9.157360406091371 I-0.5558375634517766 J-1.3401015228426396
G3 X2.0862944162436547 Y9.045685279187817 I0 J-1.4492385786802031
G3 X1.614213197969543 Y8.733502538071066 I0.5558375634517766 J-1.3401015228426396
G3 X1.2994923857868022 Y8.261421319796954 I1.0253807106598984 J-1.0253807106598984
G3 X1.1903553299492384 Y7.708121827411167 I1.3401015228426396 J-0.5558375634517766
G3 X1.2994923857868022 Y7.152284263959391 I1.4492385786802031 J0
G3 X1.614213197969543 Y6.68274111675127 I1.3401015228426396 J0.5558375634517766
G3 X2.0862944162436547 Y6.368020304568528 I1.0253807106598984 J1.0253807106598984
G3 X2.6395939086294415 Y6.256345177664975 I0.5558375634517766 J1.3401015228426396
G3 X3.1954314720812182 Y6.368020304568528 I0 J1.4492385786802031
G3 X3.66497461928934 Y6.68274111675127 I-0.5558375634517766 J1.3401015228426396
G3 X3.979695431472081 Y7.152284263959391 I-1.0253807106598984 J1.0253807106598984
G1 Z1 F800
G3 X4.091370558375634 Y7.708121827411167 I-1.3401015228426396 J0.5558375634517766 F1500
G3 X3.979695431472081 Y8.261421319796954 I-1.4492385786802031 J0
G3 X3.66497461928934 Y8.733502538071066 I-1.3401015228426396 J-0.5558375634517766
G3 X3.1954314720812182 Y9.045685279187817 I-1.0253807106598984 J-1.0253807106598984
G3 X2.6395939086294415 Y9.157360406091371 I-0.5558375634517766 J-1.3401015228426396
G3 X2.0862944162436547 Y9.045685279187817 I0 J-1.4492385786802031
G3 X1.614213197969543 Y8.733502538071066 I0.5558375634517766 J-1.3401015228426396
G3 X1.2994923857868022 Y8.261421319796954 I1.0253807106598984 J-1.0253807106598984
G3 X1.1903553299492384 Y7.708121827411167 I1.3401015228426396 J-0.5558375634517766
G3 X1.2994923857868022 Y7.152284263959391 I1.4492385786802031 J0
G3 X1.614213197969543 Y6.68274111675127 I1.3401015228426396 J0.5558375634517766
G3 X2.0862944162436547 Y6.368020304568528 I1.0253807106598984 J1.0253807106598984
G3 X2.6395939086294415 Y6.256345177664975 I0.5558375634517766 J1.3401015228426396
G3 X3.1954314720812182 Y6.368020304568528 I0 J1.4492385786802031
G3 X3.66497461928934 Y6.68274111675127 I-0.5558375634517766 J1.3401015228426396
G3 X3.979695431472081 Y7.152284263959391 I-1.0253807106598984 J1.0253807106598984
G0 Z8
G0 X53.50482233502538 Y3.062944162436548
G1 Z1.5 F800
G3 X53.43908629441624 Y3.0761421319796955 I-0.06345177664974619 J-0.15482233502538073 F1500
G3 X53.3756345177665 Y3.063451776649746 I0 J-0.16751269035532995
G3 X53.31979695431472 Y3.025380710659898 I0.06345177664974619 J-0.15482233502538073
G3 X53.28426395939086 Y2.972081218274112 I0.11928934010152284 J-0.11928934010152284
G3 X53.27157360406091 Y2.906091370558376 I0.15482233502538073 J-0.06345177664974619
G3 X53.28426395939086 Y2.8426395939086295 I0.16751269035532995 J0
G3 X53.31979695431472 Y2.786802030456853 I0.15482233502538073 J0.06345177664974619
G3 X53.3756345177665 Y2.751269035532995 I0.11928934010152284 J0.11928934010152284
G3 X53.43908629441624 Y2.738578680203046 I0.06345177664974619 J0.15482233502538073
G3 X53.50507614213198 Y2.751269035532995 I0 J0.16751269035532995
G3 X53.55837563451777 Y2.786802030456853 I-0.06345177664974619 J0.15482233502538073
G3 X53.59644670050762 Y2.8426395939086295 I-0.11928934010152284 J0.11928934010152284
G3 X53.60913705583756 Y2.906091370558376 I-0.15482233502538073 J0.06345177664974619
G3 X53.59644670050762 Y2.972081218274112 I-0.16751269035532995 J0
G3 X53.55837563451777 Y3.025380710659898 I-0.15482233502538073 J-0.06345177664974619
G3 X53.50507614213198 Y3.063451776649746 I-0.11928934010152284 J-0.11928934010152284
G1 Z1 F800
G3 X53.43908629441624 Y3.0761421319796955 I-0.06345177664974619 J-0.15482233502538073 F1500
G3 X53.3756345177665 Y3.063451776649746 I0 J-0.16751269035532995
G3 X53.31979695431472 Y3.025380710659898 I0.06345177664974619 J-0.15482233502538073
G3 X53.28426395939086 Y2.972081218274112 I0.11928934010152284 J-0.11928934010152284
G3 X53.27157360406091 Y2.906091370558376 I0.15482233502538073 J-0.06345177664974619
G3 X53.28426395939086 Y2.8426395939086295 I0.16751269035532995 J0
G3 X53.31979695431472 Y2.786802030456853 I0.15482233502538073 J0.06345177664974619
G3 X53.3756345177665 Y2.751269035532995 I0.11928934010152284 J0.11928934010152284
G3 X53.43908629441624 Y2.738578680203046 I0.06345177664974619 J0.15482233502538073
G3 X53.50507614213198 Y2.751269035532995 I0 J0.16751269035532995
G3 X53.55837563451777 Y2.786802030456853 I-0.06345177664974619 J0.15482233502538073
G3 X53.59644670050762 Y2.8426395939086295 I-0.11928934010152284 J0.11928934010152284
G3 X53.60913705583756 Y2.906091370558376 I-0.15482233502538073 J0.06345177664974619
G3 X53.59644670050762 Y2.972081218274112 I-0.16751269035532995 J0
G3 X53.55837563451777 Y3.025380710659898 I-0.15482233502538073 J-0.06345177664974619
G3 X53.50507614213198 Y3.063451776649746 I-0.11928934010152284 J-0.11928934010152284
G0 Z8
G0 X51.99010152284264 Y2.9071065989847718
G1 Z1.5 F800
G3 X52.101522842639596 Y2.3527918781725887 I1.4492385786802031 J0 F1500
G3 X52.41370558375635 Y1.880710659898477 I1.3401015228426396 J0.5558375634517766
G3 X52.88578680203046 Y1.5685279187817258 I1.0253807106598984 J1.0253807106598984
G3 X53.43908629441624 Y1.4568527918781726 I0.5558375634517766 J1.3401015228426396
G3 X53.99492385786802 Y1.5685279187817258 I0 J1.4492385786802031
G3 X54.464467005076145 Y1.880710659898477 I-0.5558375634517766 J1.3401015228426396
G3 X54.77918781725889 Y2.3527918781725887 I-1.0253807106598984 J1.0253807106598984
G3 X54.890862944162436 Y2.906091370558376 I-1.3401015228426396 J0.5558375634517766
G3 X54.77918781725889 Y3.4619289340101522 I-1.4492385786802031 J0
G3 X54.464467005076145 Y3.931472081218274 I-1.3401015228426396 J-0.5558375634517766
G3 X53.99492385786802 Y4.246192893401015 I-1.0253807106598984 J-1.0253807106598984
G3 X53.43908629441624 Y4.3578680203045685 I-0.5558375634517766 J-1.3401015228426396
G3 X52.88578680203046 Y4.246192893401015 I0 J-1.4492385786802031
G3 X52.41370558375635 Y3.931472081218274 I0.5558375634517766 J-1.3401015228426396
G3 X52.101522842639596 Y3.4619289340101522 I1.0253807106598984 J-1.0253807106598984
G3 X51.98984771573605 Y2.906091370558376 I1.3401015228426396 J-0.5558375634517766
G1 Z1 F800
G3 X52.101522842639596 Y2.3527918781725887 I1.4492385786802031 J0 F1500
G3 X52.41370558375635 Y1.880710659898477 I1.3401015228426396 J0.5558375634517766
G3 X52.88578680203046 Y1.5685279187817258 I1.0253807106598984 J1.0253807106598984
G3 X53.43908629441624 Y1.4568527918781726 I0.5558375634517766 J1.3401015228426396
G3 X53.99492385786802 Y1.5685279187817258 I0 J1.4492385786802031
G3 X54.464467005076145 Y1.880710659898477 I-0.5558375634517766 J1.3401015228426396
G3 X54.77918781725889 Y2.3527918781725887 I-1.0253807106598984 J1.0253807106598984
G3 X54.890862944162436 Y2.906091370558376 I-1.3401015228426396 J0.5558375634517766
G3 X54.77918781725889 Y3.4619289340101522 I-1.4492385786802031 J0
G3 X54.464467005076145 Y3.931472081218274 I-1.3401015228426396 J-0.5558375634517766
G3 X53.99492385786802 Y4.246192893401015 I-1.0253807106598984 J-1.0253807106598984
G3 X53.43908629441624 Y4.3578680203045685 I-0.5558375634517766 J-1.3401015228426396
G3 X52.88578680203046 Y4.246192893401015 I0 J-1.4492385786802031
G3 X52.41370558375635 Y3.931472081218274 I0.5558375634517766 J-1.3401015228426396
G3 X52.101522842639596 Y3.4619289340101522 I1.0253807106598984 J-1.0253807106598984
G3 X51.98984771573605 Y2.906091370558376 I1.3401015228426396 J-0.5558375634517766
G0 Z8
G0 X53.28426395939086 Y7.346954314720812
G1 Z1.5 F800
G3 X53.27157360406091 Y7.281725888324873 I0.15482233502538073 J-0.06345177664974619 F1500
G3 X53.28426395939086 Y7.218274111675127 I0.16751269035532995 J0
G3 X53.31979695431472 Y7.16243654822335 I0.15482233502538073 J0.06345177664974619
G3 X53.3756345177665 Y7.126903553299493 I0.11928934010152284 J0.11928934010152284
G3 X53.43908629441624 Y7.114213197969543 I0.06345177664974619 J0.15482233502538073
G3 X53.50507614213198 Y7.126903553299493 I0 J0.16751269035532995
G3 X53.55837563451777 Y7.16243654822335 I-0.06345177664974619 J0.15482233502538073
G3 X53.59644670050762 Y7.218274111675127 I-0.11928934010152284 J0.11928934010152284
G3 X53.60913705583756 Y7.281725888324873 I-0.15482233502538073 J0.06345177664974619
G3 X53.59644670050762 Y7.347715736040609 I-0.16751269035532995 J0
G3 X53.55837563451777 Y7.401015228426396 I-0.15482233502538073 J-0.06345177664974619
G3 X53.50507614213198 Y7.439086294416244 I-0.11928934010152284 J-0.11928934010152284
G3 X53.43908629441624 Y7.451776649746193 I-0.06345177664974619 J-0.15482233502538073
G3 X53.3756345177665 Y7.439086294416244 I0 J-0.16751269035532995
G3 X53.31979695431472 Y7.401015228426396 I0.06345177664974619 J-0.15482233502538073
G3 X53.28426395939086 Y7.347715736040609 I0.11928934010152284 J-0.11928934010152284
G1 Z1 F800
G3 X53.27157360406091 Y7.281725888324873 I0.15482233502538073 J-0.06345177664974619 F1500
G3 X53.28426395939086 Y7.218274111675127 I0.16751269035532995 J0
G3 X53.31979695431472 Y7.16243654822335 I0.15482233502538073 J0.06345177664974619
G3 X53.3756345177665 Y7.126903553299493 I0.11928934010152284 J0.11928934010152284
G3 X53.43908629441624 Y7.114213197969543 I0.06345177664974619 J0.15482233502538073
G3 X53.50507614213198 Y7.126903553299493 I0 J0.16751269035532995
G3 X53.55837563451777 Y7.16243654822335 I-0.06345177664974619 J0.15482233502538073
G3 X53.59644670050762 Y7.218274111675127 I-0.11928934010152284 J0.11928934010152284
G3 X53.60913705583756 Y7.281725888324873 I-0.15482233502538073 J0.06345177664974619
G3 X53.59644670050762 Y7.347715736040609 I-0.16751269035532995 J0
G3 X53.55837563451777 Y7.401015228426396 I-0.15482233502538073 J-0.06345177664974619
G3 X53.50507614213198 Y7.439086294416244 I-0.11928934010152284 J-0.11928934010152284
G3 X53.43908629441624 Y7.451776649746193 I-0.06345177664974619 J-0.15482233502538073
G3 X53.3756345177665 Y7.439086294416244 I0 J-0.16751269035532995
G3 X53.31979695431472 Y7.401015228426396 I0.06345177664974619 J-0.15482233502538073
G3 X53.28426395939086 Y7.347715736040609 I0.11928934010152284 J-0.11928934010152284
G0 Z8
G0 X51.99010152284264 Y7.282233502538071
G1 Z1.5 F800
G3 X52.101522842639596 Y6.728426395939087 I1.4492385786802031 J0 F1500
G3 X52.41370558375635 Y6.256345177664975 I1.3401015228426396 J0.5558375634517766
G3 X52.88578680203046 Y5.941624365482233 I1.0253807106598984 J1.0253807106598984
G3 X53.43908629441624 Y5.83248730964467 I0.5558375634517766 J1.3401015228426396
G3 X53.99492385786802 Y5.941624365482233 I0 J1.4492385786802031
G3 X54.464467005076145 Y6.256345177664975 I-0.5558375634517766 J1.3401015228426396
G3 X54.77918781725889 Y6.728426395939087 I-1.0253807106598984 J1.0253807106598984
G3 X54.890862944162436 Y7.281725888324873 I-1.3401015228426396 J0.5558375634517766
G3 X54.77918781725889 Y7.83756345177665 I-1.4492385786802031 J0
G3 X54.464467005076145 Y8.307106598984772 I-1.3401015228426396 J-0.5558375634517766
G3 X53.99492385786802 Y8.621827411167512 I-1.0253807106598984 J-1.0253807106598984
G3 X53.43908629441624 Y8.733502538071066 I-0.5558375634517766 J-1.3401015228426396
G3 X52.88578680203046 Y8.621827411167512 I0 J-1.4492385786802031
G3 X52.41370558375635 Y8.307106598984772 I0.5558375634517766 J-1.3401015228426396
G3 X52.101522842639596 Y7.83756345177665 I1.0253807106598984 J-1.0253807106598984
G3 X51.98984771573605 Y7.281725888324873 I1.3401015228426396 J-0.5558375634517766
G1 Z1 F800
G3 X52.101522842639596 Y6.728426395939087 I1.4492385786802031 J0 F1500
G3 X52.41370558375635 Y6.256345177664975 I1.3401015228426396 J0.5558375634517766
G3 X52.88578680203046 Y5.941624365482233 I1.0253807106598984 J1.0253807106598984
G3 X53.43908629441624 Y5.83248730964467 I0.5558375634517766 J1.3401015228426396
G3 X53.99492385786802 Y5.941624365482233 I0 J1.4492385786802031
G3 X54.464467005076145 Y6.256345177664975 I-0.5558375634517766 J1.3401015228426396
G3 X54.77918781725889 Y6.728426395939087 I-1.0253807106598984 J1.0253807106598984
G3 X54.890862944162436 Y7.281725888324873 I-1.3401015228426396 J0.5558375634517766
G3 X54.77918781725889 Y7.83756345177665 I-1.4492385786802031 J0
G3 X54.464467005076145 Y8.307106598984772 I-1.3401015228426396 J-0.5558375634517766
G3 X53.99492385786802 Y8.621827411167512 I-1.0253807106598984 J-1.0253807106598984
G3 X53.43908629441624 Y8.733502538071066 I-0.5558375634517766 J-1.3401015228426396
G3 X52.88578680203046 Y8.621827411167512 I0 J-1.4492385786802031
G3 X52.41370558375635 Y8.307106598984772 I0.5558375634517766 J-1.3401015228426396
G3 X52.101522842639596 Y7.83756345177665 I1.0253807106598984 J-1.0253807106598984
G3 X51.98984771573605 Y7.281725888324873 I1.3401015228426396 J-0.5558375634517766
G0 Z8
G0 X53.28426395939086 Y16.09695431472081
G1 Z1.5 F800
G3 X53.27157360406091 Y16.032994923857867 I0.15482233502538073 J-0.06345177664974619 F1500
G3 X53.28426395939086 Y15.967005076142131 I0.16751269035532995 J0
G3 X53.31979695431472 Y15.913705583756347 I0.15482233502538073 J0.06345177664974619
G3 X53.3756345177665 Y15.875634517766496 I0.11928934010152284 J0.11928934010152284
G3 X53.43908629441624 Y15.862944162436548 I0.06345177664974619 J0.15482233502538073
G3 X53.50507614213198 Y15.875634517766496 I0 J0.16751269035532995
G3 X53.55837563451777 Y15.913705583756347 I-0.06345177664974619 J0.15482233502538073
G3 X53.59644670050762 Y15.967005076142131 I-0.11928934010152284 J0.11928934010152284
G3 X53.60913705583756 Y16.032994923857867 I-0.15482233502538073 J0.06345177664974619
G3 X53.59644670050762 Y16.096446700507613 I-0.16751269035532995 J0
G3 X53.55837563451777 Y16.15228426395939 I-0.15482233502538073 J-0.06345177664974619
G3 X53.50507614213198 Y16.18781725888325 I-0.11928934010152284 J-0.11928934010152284
G3 X53.43908629441624 Y16.200507614213198 I-0.06345177664974619 J-0.15482233502538073
G3 X53.3756345177665 Y16.18781725888325 I0 J-0.16751269035532995
G3 X53.31979695431472 Y16.15228426395939 I0.06345177664974619 J-0.15482233502538073
G3 X53.28426395939086 Y16.096446700507613 I0.11928934010152284 J-0.11928934010152284
G1 Z1 F800
G3 X53.27157360406091 Y16.032994923857867 I0.15482233502538073 J-0.06345177664974619 F1500
G3 X53.28426395939086 Y15.967005076142131 I0.16751269035532995 J0
G3 X53.31979695431472 Y15.913705583756347 I0.15482233502538073 J0.06345177664974619
G3 X53.3756345177665 Y15.875634517766496 I0.11928934010152284 J0.11928934010152284
G3 X53.43908629441624 Y15.862944162436548 I0.06345177664974619 J0.15482233502538073
G3 X53.50507614213198 Y15.875634517766496 I0 J0.16751269035532995
G3 X53.55837563451777 Y15.913705583756347 I-0.06345177664974619 J0.15482233502538073
G3 X53.59644670050762 Y15.967005076142131 I-0.11928934010152284 J0.11928934010152284
G3 X53.60913705583756 Y16.032994923857867 I-0.15482233502538073 J0.06345177664974619
G3 X53.59644670050762 Y16.096446700507613 I-0.16751269035532995 J0
G3 X53.55837563451777 Y16.15228426395939 I-0.15482233502538073 J-0.06345177664974619
G3 X53.50507614213198 Y16.18781725888325 I-0.11928934010152284 J-0.11928934010152284
G3 X53.43908629441624 Y16.200507614213198 I-0.06345177664974619 J-0.15482233502538073
G3 X53.3756345177665 Y16.18781725888325 I0 J-0.16751269035532995
G3 X53.31979695431472 Y16.15228426395939 I0.06345177664974619 J-0.15482233502538073
G3 X53.28426395939086 Y16.096446700507613 I0.11928934010152284 J-0.11928934010152284
G0 Z8
G0 X51.99010152284264 Y16.03223350253807
G1 Z1.5 F800
G3 X52.101522842639596 Y15.47715736040609 I1.4492385786802031 J0 F1500
G3 X52.41370558375635 Y15.007614213197972 I1.3401015228426396 J0.5558375634517766
G3 X52.88578680203046 Y14.692893401015228 I1.0253807106598984 J1.0253807106598984
G3 X53.43908629441624 Y14.581218274111675 I0.5558375634517766 J1.3401015228426396
G3 X53.99492385786802 Y14.692893401015228 I0 J1.4492385786802031
G3 X54.464467005076145 Y15.007614213197972 I-0.5558375634517766 J1.3401015228426396
G3 X54.77918781725889 Y15.47715736040609 I-1.0253807106598984 J1.0253807106598984
G3 X54.890862944162436 Y16.032994923857867 I-1.3401015228426396 J0.5558375634517766
G3 X54.77918781725889 Y16.586294416243653 I-1.4492385786802031 J0
G3 X54.464467005076145 Y17.058375634517766 I-1.3401015228426396 J-0.5558375634517766
G3 X53.99492385786802 Y17.373096446700508 I-1.0253807106598984 J-1.0253807106598984
G3 X53.43908629441624 Y17.482233502538072 I-0.5558375634517766 J-1.3401015228426396
G3 X52.88578680203046 Y17.373096446700508 I0 J-1.4492385786802031
G3 X52.41370558375635 Y17.058375634517766 I0.5558375634517766 J-1.3401015228426396
G3 X52.101522842639596 Y16.586294416243653 I1.0253807106598984 J-1.0253807106598984
G3 X51.98984771573605 Y16.032994923857867 I1.3401015228426396 J-0.5558375634517766
G1 Z1 F800
G3 X52.101522842639596 Y15.47715736040609 I1.4492385786802031 J0 F1500
G3 X52.41370558375635 Y15.007614213197972 I1.3401015228426396 J0.5558375634517766
G3 X52.88578680203046 Y14.692893401015228 I1.0253807106598984 J1.0253807106598984
G3 X53.43908629441624 Y14.581218274111675 I0.5558375634517766 J1.3401015228426396
G3 X53.99492385786802 Y14.692893401015228 I0 J1.4492385786802031
G3 X54.464467005076145 Y15.007614213197972 I-0.5558375634517766 J1.3401015228426396
G3 X54.77918781725889 Y15.47715736040609 I-1.0253807106598984 J1.0253807106598984
G3 X54.890862944162436 Y16.032994923857867 I-1.3401015228426396 J0.5558375634517766
G3 X54.77918781725889 Y16.586294416243653 I-1.4492385786802031 J0
G3 X54.464467005076145 Y17.058375634517766 I-1.3401015228426396 J-0.5558375634517766
G3 X53.99492385786802 Y17.373096446700508 I-1.0253807106598984 J-1.0253807106598984
G3 X53.43908629441624 Y17.482233502538072 I-0.5558375634517766 J-1.3401015228426396
G3 X52.88578680203046 Y17.373096446700508 I0 J-1.4492385786802031
G3 X52.41370558375635 Y17.058375634517766 I0.5558375634517766 J-1.3401015228426396
G3 X52.101522842639596 Y16.586294416243653 I1.0253807106598984 J-1.0253807106598984
G3 X51.98984771573605 Y16.032994923857867 I1.3401015228426396 J-0.5558375634517766
G0 Z8
G0 X53.28426395939086 Y11.721827411167512
G1 Z1.5 F800
G3 X53.27157360406091 Y11.657360406091371 I0.15482233502538073 J-0.06345177664974619 F1500
G3 X53.28426395939086 Y11.591370558375635 I0.16751269035532995 J0
G3 X53.31979695431472 Y11.538071065989847 I0.15482233502538073 J0.06345177664974619
G3 X53.3756345177665 Y11.5 I0.11928934010152284 J0.11928934010152284
G3 X53.43908629441624 Y11.487309644670052 I0.06345177664974619 J0.15482233502538073
G3 X53.50507614213198 Y11.5 I0 J0.16751269035532995
G3 X53.55837563451777 Y11.538071065989847 I-0.06345177664974619 J0.15482233502538073
G3 X53.59644670050762 Y11.591370558375635 I-0.11928934010152284 J0.11928934010152284
G3 X53.60913705583756 Y11.657360406091371 I-0.15482233502538073 J0.06345177664974619
G3 X53.59644670050762 Y11.720812182741117 I-0.16751269035532995 J0
G3 X53.55837563451777 Y11.776649746192893 I-0.15482233502538073 J-0.06345177664974619
G3 X53.50507614213198 Y11.812182741116752 I-0.11928934010152284 J-0.11928934010152284
G3 X53.43908629441624 Y11.8248730964467 I-0.06345177664974619 J-0.15482233502538073
G3 X53.3756345177665 Y11.812182741116752 I0 J-0.16751269035532995
G3 X53.31979695431472 Y11.776649746192893 I0.06345177664974619 J-0.15482233502538073
G3 X53.28426395939086 Y11.720812182741117 I0.11928934010152284 J-0.11928934010152284
G1 Z1 F800
G3 X53.27157360406091 Y11.657360406091371 I0.15482233502538073 J-0.06345177664974619 F1500
G3 X53.28426395939086 Y11.591370558375635 I0.16751269035532995 J0
G3 X53.31979695431472 Y11.538071065989847 I0.15482233502538073 J0.06345177664974619
G3 X53.3756345177665 Y11.5 I0.11928934010152284 J0.11928934010152284
G3 X53.43908629441624 Y11.487309644670052 I0.06345177664974619 J0.15482233502538073
G3 X53.50507614213198 Y11.5 I0 J0.16751269035532995
G3 X53.55837563451777 Y11.538071065989847 I-0.06345177664974619 J0.15482233502538073
G3 X53.59644670050762 Y11.591370558375635 I-0.11928934010152284 J0.11928934010152284
G3 X53.60913705583756 Y11.657360406091371 I-0.15482233502538073 J0.06345177664974619
G3 X53.59644670050762 Y11.720812182741117 I-0.16751269035532995 J0
G3 X53.55837563451777 Y11.776649746192893 I-0.15482233502538073 J-0.06345177664974619
G3 X53.50507614213198 Y11.812182741116752 I-0.11928934010152284 J-0.11928934010152284
G3 X53.43908629441624 Y11.8248730964467 I-0.06345177664974619 J-0.15482233502538073
G3 X53.3756345177665 Y11.812182741116752 I0 J-0.16751269035532995
G3 X53.31979695431472 Y11.776649746192893 I0.06345177664974619 J-0.15482233502538073
G3 X53.28426395939086 Y11.720812182741117 I0.11928934010152284 J-0.11928934010152284
G0 Z8
G0 X51.99010152284264 Y11.657106598984772
G1 Z1.5 F800
G3 X52.101522842639596 Y11.101522842639593 I1.4492385786802031 J0 F1500
G3 X52.41370558375635 Y10.631979695431472 I1.3401015228426396 J0.5558375634517766
G3 X52.88578680203046 Y10.31725888324873 I1.0253807106598984 J1.0253807106598984
G3 X53.43908629441624 Y10.208121827411167 I0.5558375634517766 J1.3401015228426396
G3 X53.99492385786802 Y10.31725888324873 I0 J1.4492385786802031
G3 X54.464467005076145 Y10.631979695431472 I-0.5558375634517766 J1.3401015228426396
G3 X54.77918781725889 Y11.101522842639593 I-1.0253807106598984 J1.0253807106598984
G3 X54.890862944162436 Y11.657360406091371 I-1.3401015228426396 J0.5558375634517766
G3 X54.77918781725889 Y12.213197969543149 I-1.4492385786802031 J0
G3 X54.464467005076145 Y12.682741116751268 I-1.3401015228426396 J-0.5558375634517766
G3 X53.99492385786802 Y12.997461928934012 I-1.0253807106598984 J-1.0253807106598984
G3 X53.43908629441624 Y13.106598984771573 I-0.5558375634517766 J-1.3401015228426396
G3 X52.88578680203046 Y12.997461928934012 I0 J-1.4492385786802031
G3 X52.41370558375635 Y12.682741116751268 I0.5558375634517766 J-1.3401015228426396
G3 X52.101522842639596 Y12.213197969543149 I1.0253807106598984 J-1.0253807106598984
G3 X51.98984771573605 Y11.657360406091371 I1.3401015228426396 J-0.5558375634517766
G1 Z1 F800
G3 X52.101522842639596 Y11.101522842639593 I1.4492385786802031 J0 F1500
G3 X52.41370558375635 Y10.631979695431472 I1.3401015228426396 J0.5558375634517766
G3 X52.88578680203046 Y10.31725888324873 I1.0253807106598984 J1.0253807106598984
G3 X53.43908629441624 Y10.208121827411167 I0.5558375634517766 J1.3401015228426396
G3 X53.99492385786802 Y10.31725888324873 I0 J1.4492385786802031
G3 X54.464467005076145 Y10.631979695431472 I-0.5558375634517766 J1.3401015228426396
G3 X54.77918781725889 Y11.101522842639593 I-1.0253807106598984 J1.0253807106598984
G3 X54.890862944162436 Y11.657360406091371 I-1.3401015228426396 J0.5558375634517766
G3 X54.77918781725889 Y12.213197969543149 I-1.4492385786802031 J0
G3 X54.464467005076145 Y12.682741116751268 I-1.3401015228426396 J-0.5558375634517766
G3 X53.99492385786802 Y12.997461928934012 I-1.0253807106598984 J-1.0253807106598984
G3 X53.43908629441624 Y13.106598984771573 I-0.5558375634517766 J-1.3401015228426396
G3 X52.88578680203046 Y12.997461928934012 I0 J-1.4492385786802031
G3 X52.41370558375635 Y12.682741116751268 I0.5558375634517766 J-1.3401015228426396
G3 X52.101522842639596 Y12.213197969543149 I1.0253807106598984 J-1.0253807106598984
G3 X51.98984771573605 Y11.657360406091371 I1.3401015228426396 J-0.5558375634517766
G0 Z8
G0 X53.50482233502538 Y20.562944162436548
G1 Z1.5 F800
G3 X53.43908629441624 Y20.576142131979694 I-0.06345177664974619 J-0.15482233502538073 F1500
G3 X53.3756345177665 Y20.563451776649746 I0 J-0.16751269035532995
G3 X53.31979695431472 Y20.525380710659896 I0.06345177664974619 J-0.15482233502538073
G3 X53.28426395939086 Y20.472081218274113 I0.11928934010152284 J-0.11928934010152284
G3 X53.27157360406091 Y20.40609137055838 I0.15482233502538073 J-0.06345177664974619
G3 X53.28426395939086 Y20.34263959390863 I0.16751269035532995 J0
G3 X53.31979695431472 Y20.28680203045685 I0.15482233502538073 J0.06345177664974619
G3 X53.3756345177665 Y20.251269035532996 I0.11928934010152284 J0.11928934010152284
G3 X53.43908629441624 Y20.238578680203045 I0.06345177664974619 J0.15482233502538073
G3 X53.50507614213198 Y20.251269035532996 I0 J0.16751269035532995
G3 X53.55837563451777 Y20.28680203045685 I-0.06345177664974619 J0.15482233502538073
G3 X53.59644670050762 Y20.34263959390863 I-0.11928934010152284 J0.11928934010152284
G3 X53.60913705583756 Y20.40609137055838 I-0.15482233502538073 J0.06345177664974619
G3 X53.59644670050762 Y20.472081218274113 I-0.16751269035532995 J0
G3 X53.55837563451777 Y20.525380710659896 I-0.15482233502538073 J-0.06345177664974619
G3 X53.50507614213198 Y20.563451776649746 I-0.11928934010152284 J-0.11928934010152284
G1 Z1 F800
G3 X53.43908629441624 Y20.576142131979694 I-0.06345177664974619 J-0.15482233502538073 F1500
G3 X53.3756345177665 Y20.563451776649746 I0 J-0.16751269035532995
G3 X53.31979695431472 Y20.525380710659896 I0.06345177664974619 J-0.15482233502538073
G3 X53.28426395939086 Y20.472081218274113 I0.11928934010152284 J-0.11928934010152284
G3 X53.27157360406091 Y20.40609137055838 I0.15482233502538073 J-0.06345177664974619
G3 X53.28426395939086 Y20.34263959390863 I0.16751269035532995 J0
G3 X53.31979695431472 Y20.28680203045685 I0.15482233502538073 J0.06345177664974619
G3 X53.3756345177665 Y20.251269035532996 I0.11928934010152284 J0.11928934010152284
G3 X53.43908629441624 Y20.238578680203045 I0.06345177664974619 J0.15482233502538073
G3 X53.50507614213198 Y20.251269035532996 I0 J0.16751269035532995
G3 X53.55837563451777 Y20.28680203045685 I-0.06345177664974619 J0.15482233502538073
G3 X53.59644670050762 Y20.34263959390863 I-0.11928934010152284 J0.11928934010152284
G3 X53.60913705583756 Y20.40609137055838 I-0.15482233502538073 J0.06345177664974619
G3 X53.59644670050762 Y20.472081218274113 I-0.16751269035532995 J0
G3 X53.55837563451777 Y20.525380710659896 I-0.15482233502538073 J-0.06345177664974619
G3 X53.50507614213198 Y20.563451776649746 I-0.11928934010152284 J-0.11928934010152284
G0 Z8
G0 X51.99010152284264 Y20.40710659898477
G1 Z1.5 F800
G3 X52.101522842639596 Y19.85279187817259 I1.4492385786802031 J0 F1500
G3 X52.41370558375635 Y19.380710659898476 I1.3401015228426396 J0.5558375634517766
G3 X52.88578680203046 Y19.068527918781726 I1.0253807106598984 J1.0253807106598984
G3 X53.43908629441624 Y18.95685279187817 I0.5558375634517766 J1.3401015228426396
G3 X53.99492385786802 Y19.068527918781726 I0 J1.4492385786802031
G3 X54.464467005076145 Y19.380710659898476 I-0.5558375634517766 J1.3401015228426396
G3 X54.77918781725889 Y19.85279187817259 I-1.0253807106598984 J1.0253807106598984
G3 X54.890862944162436 Y20.40609137055838 I-1.3401015228426396 J0.5558375634517766
G3 X54.77918781725889 Y20.961928934010153 I-1.4492385786802031 J0
G3 X54.464467005076145 Y21.431472081218274 I-1.3401015228426396 J-0.5558375634517766
G3 X53.99492385786802 Y21.746192893401016 I-1.0253807106598984 J-1.0253807106598984
G3 X53.43908629441624 Y21.85786802030457 I-0.5558375634517766 J-1.3401015228426396
G3 X52.88578680203046 Y21.746192893401016 I0 J-1.4492385786802031
G3 X52.41370558375635 Y21.431472081218274 I0.5558375634517766 J-1.3401015228426396
G3 X52.101522842639596 Y20.961928934010153 I1.0253807106598984 J-1.0253807106598984
G3 X51.98984771573605 Y20.40609137055838 I1.3401015228426396 J-0.5558375634517766
G1 Z1 F800
G3 X52.101522842639596 Y19.85279187817259 I1.4492385786802031 J0 F1500
G3 X52.41370558375635 Y19.380710659898476 I1.3401015228426396 J0.5558375634517766
G3 X52.88578680203046 Y19.068527918781726 I1.0253807106598984 J1.0253807106598984
G3 X53.43908629441624 Y18.95685279187817 I0.5558375634517766 J1.3401015228426396
G3 X53.99492385786802 Y19.068527918781726 I0 J1.4492385786802031
G3 X54.464467005076145 Y19.380710659898476 I-0.5558375634517766 J1.3401015228426396
G3 X54.77918781725889 Y19.85279187817259 I-1.0253807106598984 J1.0253807106598984
G3 X54.890862944162436 Y20.40609137055838 I-1.3401015228426396 J0.5558375634517766
G3 X54.77918781725889 Y20.961928934010153 I-1.4492385786802031 J0
G3 X54.464467005076145 Y21.431472081218274 I-1.3401015228426396 J-0.5558375634517766
G3 X53.99492385786802 Y21.746192893401016 I-1.0253807106598984 J-1.0253807106598984
G3 X53.43908629441624 Y21.85786802030457 I-0.5558375634517766 J-1.3401015228426396
G3 X52.88578680203046 Y21.746192893401016 I0 J-1.4492385786802031
G3 X52.41370558375635 Y21.431472081218274 I0.5558375634517766 J-1.3401015228426396
G3 X52.101522842639596 Y20.961928934010153 I1.0253807106598984 J-1.0253807106598984
G3 X51.98984771573605 Y20.40609137055838 I1.3401015228426396 J-0.5558375634517766
G0 Z8
G0 X11.996446700507613 Y21.60736040609137
G1 Z1.5 F800
G3 X12.01015228426396 Y21.543147208121827 I0.16751269035532995 J0 F1500
G3 X12.045685279187817 Y21.48730964467005 I0.15482233502538073 J0.06345177664974619
G3 X12.101522842639593 Y21.451776649746193 I0.11928934010152284 J0.11928934010152284
G3 X12.164974619289339 Y21.439086294416242 I0.06345177664974619 J0.15482233502538073
G3 X12.230964467005077 Y21.451776649746193 I0 J0.16751269035532995
G3 X12.284263959390863 Y21.48730964467005 I-0.06345177664974619 J0.15482233502538073
G3 X12.32233502538071 Y21.543147208121827 I-0.11928934010152284 J0.11928934010152284
G3 X12.335025380710661 Y21.606598984771573 I-0.15482233502538073 J0.06345177664974619
G3 X12.32233502538071 Y21.67258883248731 I-0.16751269035532995 J0
G3 X12.284263959390863 Y21.725888324873097 I-0.15482233502538073 J-0.06345177664974619
G3 X12.230964467005077 Y21.763959390862944 I-0.11928934010152284 J-0.11928934010152284
G3 X12.164974619289339 Y21.776649746192895 I-0.06345177664974619 J-0.15482233502538073
G3 X12.101522842639593 Y21.763959390862944 I0 J-0.16751269035532995
G3 X12.045685279187817 Y21.725888324873097 I0.06345177664974619 J-0.15482233502538073
G3 X12.01015228426396 Y21.67258883248731 I0.11928934010152284 J-0.11928934010152284
G3 X11.99746192893401 Y21.606598984771573 I0.15482233502538073 J-0.06345177664974619
G1 Z1 F800
G3 X12.01015228426396 Y21.543147208121827 I0.16751269035532995 J0 F1500
G3 X12.045685279187817 Y21.48730964467005 I0.15482233502538073 J0.06345177664974619
G3 X12.101522842639593 Y21.451776649746193 I0.11928934010152284 J0.11928934010152284
G3 X12.164974619289339 Y21.439086294416242 I0.06345177664974619 J0.15482233502538073
G3 X12.230964467005077 Y21.451776649746193 I0 J0.16751269035532995
G3 X12.284263959390863 Y21.48730964467005 I-0.06345177664974619 J0.15482233502538073
G3 X12.32233502538071 Y21.543147208121827 I-0.11928934010152284 J0.11928934010152284
G3 X12.335025380710661 Y21.606598984771573 I-0.15482233502538073 J0.06345177664974619
G3 X12.32233502538071 Y21.67258883248731 I-0.16751269035532995 J0
G3 X12.284263959390863 Y21.725888324873097 I-0.15482233502538073 J-0.06345177664974619
G3 X12.230964467005077 Y21.763959390862944 I-0.11928934010152284 J-0.11928934010152284
G3 X12.164974619289339 Y21.776649746192895 I-0.06345177664974619 J-0.15482233502538073
G3 X12.101522842639593 Y21.763959390862944 I0 J-0.16751269035532995
G3 X12.045685279187817 Y21.725888324873097 I0.06345177664974619 J-0.15482233502538073
G3 X12.01015228426396 Y21.67258883248731 I0.11928934010152284 J-0.11928934010152284
G3 X11.99746192893401 Y21.606598984771573 I0.15482233502538073 J-0.06345177664974619
G0 Z8
G0 X11.215228426395939 Y21.60736040609137
G1 Z1.5 F800
G3 X11.286802030456853 Y21.243654822335024 I0.9492385786802031 J0 F1500
G3 X11.49238578680203 Y20.936548223350254 I0.8781725888324874 J0.3629441624365482
G3 X11.802030456852792 Y20.728426395939085 I0.6725888324873096 J0.6725888324873096
G3 X12.164974619289339 Y20.65736040609137 I0.3629441624365482 J0.8781725888324874
G3 X12.527918781725889 Y20.728426395939085 I0 J0.9492385786802031
G3 X12.83756345177665 Y20.936548223350254 I-0.3629441624365482 J0.8781725888324874
G3 X13.043147208121828 Y21.243654822335024 I-0.6725888324873096 J0.6725888324873096
G3 X13.114213197969544 Y21.606598984771573 I-0.8781725888324874 J0.3629441624365482
G3 X13.043147208121828 Y21.972081218274113 I-0.9492385786802031 J0
G3 X12.83756345177665 Y22.279187817258883 I-0.8781725888324874 J-0.3629441624365482
G3 X12.527918781725889 Y22.484771573604057 I-0.6725888324873096 J-0.6725888324873096
G3 X12.164974619289339 Y22.558375634517766 I-0.3629441624365482 J-0.8781725888324874
G3 X11.802030456852792 Y22.484771573604057 I0 J-0.9492385786802031
G3 X11.49238578680203 Y22.279187817258883 I0.3629441624365482 J-0.8781725888324874
G3 X11.286802030456853 Y21.972081218274113 I0.6725888324873096 J-0.6725888324873096
G3 X11.215736040609137 Y21.606598984771573 I0.8781725888324874 J-0.3629441624365482
G1 Z1 F800
G3 X11.286802030456853 Y21.243654822335024 I0.9492385786802031 J0 F1500
G3 X11.49238578680203 Y20.936548223350254 I0.8781725888324874 J0.3629441624365482
G3 X11.802030456852792 Y20.728426395939085 I0.6725888324873096 J0.6725888324873096
G3 X12.164974619289339 Y20.65736040609137 I0.3629441624365482 J0.8781725888324874
G3 X12.527918781725889 Y20.728426395939085 I0 J0.9492385786802031
G3 X12.83756345177665 Y20.936548223350254 I-0.3629441624365482 J0.8781725888324874
G3 X13.043147208121828 Y21.243654822335024 I-0.6725888324873096 J0.6725888324873096
G3 X13.114213197969544 Y21.606598984771573 I-0.8781725888324874 J0.3629441624365482
G3 X13.043147208121828 Y21.972081218274113 I-0.9492385786802031 J0
G3 X12.83756345177665 Y22.279187817258883 I-0.8781725888324874 J-0.3629441624365482
G3 X12.527918781725889 Y22.484771573604057 I-0.6725888324873096 J-0.6725888324873096
G3 X12.164974619289339 Y22.558375634517766 I-0.3629441624365482 J-0.8781725888324874
G3 X11.802030456852792 Y22.484771573604057 I0 J-0.9492385786802031
G3 X11.49238578680203 Y22.279187817258883 I0.3629441624365482 J-0.8781725888324874
G3 X11.286802030456853 Y21.972081218274113 I0.6725888324873096 J-0.6725888324873096
G3 X11.215736040609137 Y21.606598984771573 I0.8781725888324874 J-0.3629441624365482
G0 Z8
G0 X11.996446700507613 Y7.319796954314721
G1 Z1.5 F800
G3 X12.01015228426396 Y7.256345177664975 I0.16751269035532995 J0 F1500
G3 X12.045685279187817 Y7.2005076142131985 I0.15482233502538073 J0.06345177664974619
G3 X12.101522842639593 Y7.164974619289341 I0.11928934010152284 J0.11928934010152284
G3 X12.164974619289339 Y7.152284263959391 I0.06345177664974619 J0.15482233502538073
G3 X12.230964467005077 Y7.164974619289341 I0 J0.16751269035532995
G3 X12.284263959390863 Y7.2005076142131985 I-0.06345177664974619 J0.15482233502538073
G3 X12.32233502538071 Y7.256345177664975 I-0.11928934010152284 J0.11928934010152284
G3 X12.335025380710661 Y7.319796954314722 I-0.15482233502538073 J0.06345177664974619
G3 X12.32233502538071 Y7.383248730964467 I-0.16751269035532995 J0
G3 X12.284263959390863 Y7.439086294416244 I-0.15482233502538073 J-0.06345177664974619
G3 X12.230964467005077 Y7.474619289340102 I-0.11928934010152284 J-0.11928934010152284
G3 X12.164974619289339 Y7.4873096446700504 I-0.06345177664974619 J-0.15482233502538073
G3 X12.101522842639593 Y7.474619289340102 I0 J-0.16751269035532995
G3 X12.045685279187817 Y7.439086294416244 I0.06345177664974619 J-0.15482233502538073
G3 X12.01015228426396 Y7.383248730964467 I0.11928934010152284 J-0.11928934010152284
G3 X11.99746192893401 Y7.319796954314722 I0.15482233502538073 J-0.06345177664974619
G1 Z1 F800
G3 X12.01015228426396 Y7.256345177664975 I0.16751269035532995 J0 F1500
G3 X12.045685279187817 Y7.2005076142131985 I0.15482233502538073 J0.06345177664974619
G3 X12.101522842639593 Y7.164974619289341 I0.11928934010152284 J0.11928934010152284
G3 X12.164974619289339 Y7.152284263959391 I0.06345177664974619 J0.15482233502538073
G3 X12.230964467005077 Y7.164974619289341 I0 J0.16751269035532995
G3 X12.284263959390863 Y7.2005076142131985 I-0.06345177664974619 J0.15482233502538073
G3 X12.32233502538071 Y7.256345177664975 I-0.11928934010152284 J0.11928934010152284
G3 X12.335025380710661 Y7.319796954314722 I-0.15482233502538073 J0.06345177664974619
G3 X12.32233502538071 Y7.383248730964467 I-0.16751269035532995 J0
G3 X12.284263959390863 Y7.439086294416244 I-0.15482233502538073 J-0.06345177664974619
G3 X12.230964467005077 Y7.474619289340102 I-0.11928934010152284 J-0.11928934010152284
G3 X12.164974619289339 Y7.4873096446700504 I-0.06345177664974619 J-0.15482233502538073
G3 X12.101522842639593 Y7.474619289340102 I0 J-0.16751269035532995
G3 X12.045685279187817 Y7.439086294416244 I0.06345177664974619 J-0.15482233502538073
G3 X12.01015228426396 Y7.383248730964467 I0.11928934010152284 J-0.11928934010152284
G3 X11.99746192893401 Y7.319796954314722 I0.15482233502538073 J-0.06345177664974619
G0 Z8
G0 X11.215228426395939 Y7.319796954314721
G1 Z1.5 F800
G3 X11.286802030456853 Y6.956852791878173 I0.9492385786802031 J0 F1500
G3 X11.49238578680203 Y6.647208121827411 I0.8781725888324874 J0.3629441624365482
G3 X11.802030456852792 Y6.441624365482234 I0.6725888324873096 J0.6725888324873096
G3 X12.164974619289339 Y6.370558375634517 I0.3629441624365482 J0.8781725888324874
G3 X12.527918781725889 Y6.441624365482234 I0 J0.9492385786802031
G3 X12.83756345177665 Y6.647208121827411 I-0.3629441624365482 J0.8781725888324874
G3 X13.043147208121828 Y6.956852791878173 I-0.6725888324873096 J0.6725888324873096
G3 X13.114213197969544 Y7.319796954314722 I-0.8781725888324874 J0.3629441624365482
G3 X13.043147208121828 Y7.682741116751269 I-0.9492385786802031 J0
G3 X12.83756345177665 Y7.992385786802031 I-0.8781725888324874 J-0.3629441624365482
G3 X12.527918781725889 Y8.197969543147208 I-0.6725888324873096 J-0.6725888324873096
G3 X12.164974619289339 Y8.269035532994923 I-0.3629441624365482 J-0.8781725888324874
G3 X11.802030456852792 Y8.197969543147208 I0 J-0.9492385786802031
G3 X11.49238578680203 Y7.992385786802031 I0.3629441624365482 J-0.8781725888324874
G3 X11.286802030456853 Y7.682741116751269 I0.6725888324873096 J-0.6725888324873096
G3 X11.215736040609137 Y7.319796954314722 I0.8781725888324874 J-0.3629441624365482
G1 Z1 F800
G3 X11.286802030456853 Y6.956852791878173 I0.9492385786802031 J0 F1500
G3 X11.49238578680203 Y6.647208121827411 I0.8781725888324874 J0.3629441624365482
G3 X11.802030456852792 Y6.441624365482234 I0.6725888324873096 J0.6725888324873096
G3 X12.164974619289339 Y6.370558375634517 I0.3629441624365482 J0.8781725888324874
G3 X12.527918781725889 Y6.441624365482234 I0 J0.9492385786802031
G3 X12.83756345177665 Y6.647208121827411 I-0.3629441624365482 J0.8781725888324874
G3 X13.043147208121828 Y6.956852791878173 I-0.6725888324873096 J0.6725888324873096
G3 X13.114213197969544 Y7.319796954314722 I-0.8781725888324874 J0.3629441624365482
G3 X13.043147208121828 Y7.682741116751269 I-0.9492385786802031 J0
G3 X12.83756345177665 Y7.992385786802031 I-0.8781725888324874 J-0.3629441624365482
G3 X12.527918781725889 Y8.197969543147208 I-0.6725888324873096 J-0.6725888324873096
G3 X12.164974619289339 Y8.269035532994923 I-0.3629441624365482 J-0.8781725888324874
G3 X11.802030456852792 Y8.197969543147208 I0 J-0.9492385786802031
G3 X11.49238578680203 Y7.992385786802031 I0.3629441624365482 J-0.8781725888324874
G3 X11.286802030456853 Y7.682741116751269 I0.6725888324873096 J-0.6725888324873096
G3 X11.215736040609137 Y7.319796954314722 I0.8781725888324874 J-0.3629441624365482
G0 Z8
G0 X12.334010152284264 Y12.08223350253807
G1 Z1.5 F800
G3 X12.32233502538071 Y12.147208121827411 I-0.16751269035532995 J0 F1500
G3 X12.284263959390863 Y12.200507614213198 I-0.15482233502538073 J-0.06345177664974619
G3 X12.230964467005077 Y12.238578680203045 I-0.11928934010152284 J-0.11928934010152284
G3 X12.164974619289339 Y12.251269035532994 I-0.06345177664974619 J-0.15482233502538073
G3 X12.101522842639593 Y12.238578680203045 I0 J-0.16751269035532995
G3 X12.045685279187817 Y12.200507614213198 I0.06345177664974619 J-0.15482233502538073
G3 X12.01015228426396 Y12.147208121827411 I0.11928934010152284 J-0.11928934010152284
G3 X11.99746192893401 Y12.081218274111675 I0.15482233502538073 J-0.06345177664974619
G3 X12.01015228426396 Y12.017766497461928 I0.16751269035532995 J0
G3 X12.045685279187817 Y11.961928934010153 I0.15482233502538073 J0.06345177664974619
G3 X12.101522842639593 Y11.926395939086294 I0.11928934010152284 J0.11928934010152284
G3 X12.164974619289339 Y11.913705583756345 I0.06345177664974619 J0.15482233502538073
G3 X12.230964467005077 Y11.926395939086294 I0 J0.16751269035532995
G3 X12.284263959390863 Y11.961928934010153 I-0.06345177664974619 J0.15482233502538073
G3 X12.32233502538071 Y12.017766497461928 I-0.11928934010152284 J0.11928934010152284
G3 X12.335025380710661 Y12.081218274111675 I-0.15482233502538073 J0.06345177664974619
G1 Z1 F800
G3 X12.32233502538071 Y12.147208121827411 I-0.16751269035532995 J0 F1500
G3 X12.284263959390863 Y12.200507614213198 I-0.15482233502538073 J-0.06345177664974619
G3 X12.230964467005077 Y12.238578680203045 I-0.11928934010152284 J-0.11928934010152284
G3 X12.164974619289339 Y12.251269035532994 I-0.06345177664974619 J-0.15482233502538073
G3 X12.101522842639593 Y12.238578680203045 I0 J-0.16751269035532995
G3 X12.045685279187817 Y12.200507614213198 I0.06345177664974619 J-0.15482233502538073
G3 X12.01015228426396 Y12.147208121827411 I0.11928934010152284 J-0.11928934010152284
G3 X11.99746192893401 Y12.081218274111675 I0.15482233502538073 J-0.06345177664974619
G3 X12.01015228426396 Y12.017766497461928 I0.16751269035532995 J0
G3 X12.045685279187817 Y11.961928934010153 I0.15482233502538073 J0.06345177664974619
G3 X12.101522842639593 Y11.926395939086294 I0.11928934010152284 J0.11928934010152284
G3 X12.164974619289339 Y11.913705583756345 I0.06345177664974619 J0.15482233502538073
G3 X12.230964467005077 Y11.926395939086294 I0 J0.16751269035532995
G3 X12.284263959390863 Y11.961928934010153 I-0.06345177664974619 J0.15482233502538073
G3 X12.32233502538071 Y12.017766497461928 I-0.11928934010152284 J0.11928934010152284
G3 X12.335025380710661 Y12.081218274111675 I-0.15482233502538073 J0.06345177664974619
G0 Z8
G0 X11.215228426395939 Y12.08223350253807
G1 Z1.5 F800
G3 X11.286802030456853 Y11.718274111675127 I0.9492385786802031 J0 F1500
G3 X11.49238578680203 Y11.411167512690355 I0.8781725888324874 J0.3629441624365482
G3 X11.802030456852792 Y11.205583756345177 I0.6725888324873096 J0.6725888324873096
G3 X12.164974619289339 Y11.131979695431474 I0.3629441624365482 J0.8781725888324874
G3 X12.527918781725889 Y11.205583756345177 I0 J0.9492385786802031
G3 X12.83756345177665 Y11.411167512690355 I-0.3629441624365482 J0.8781725888324874
G3 X13.043147208121828 Y11.718274111675127 I-0.6725888324873096 J0.6725888324873096
G3 X13.114213197969544 Y12.081218274111675 I-0.8781725888324874 J0.3629441624365482
G3 X13.043147208121828 Y12.446700507614212 I-0.9492385786802031 J0
G3 X12.83756345177665 Y12.753807106598984 I-0.8781725888324874 J-0.3629441624365482
G3 X12.527918781725889 Y12.959390862944161 I-0.6725888324873096 J-0.6725888324873096
G3 X12.164974619289339 Y13.032994923857867 I-0.3629441624365482 J-0.8781725888324874
G3 X11.802030456852792 Y12.959390862944161 I0 J-0.9492385786802031
G3 X11.49238578680203 Y12.753807106598984 I0.3629441624365482 J-0.8781725888324874
G3 X11.286802030456853 Y12.446700507614212 I0.6725888324873096 J-0.6725888324873096
G3 X11.215736040609137 Y12.081218274111675 I0.8781725888324874 J-0.3629441624365482
G1 Z1 F800
G3 X11.286802030456853 Y11.718274111675127 I0.9492385786802031 J0 F1500
G3 X11.49238578680203 Y11.411167512690355 I0.8781725888324874 J0.3629441624365482
G3 X11.802030456852792 Y11.205583756345177 I0.6725888324873096 J0.6725888324873096
G3 X12.164974619289339 Y11.131979695431474 I0.3629441624365482 J0.8781725888324874
G3 X12.527918781725889 Y11.205583756345177 I0 J0.9492385786802031
G3 X12.83756345177665 Y11.411167512690355 I-0.3629441624365482 J0.8781725888324874
G3 X13.043147208121828 Y11.718274111675127 I-0.6725888324873096 J0.6725888324873096
G3 X13.114213197969544 Y12.081218274111675 I-0.8781725888324874 J0.3629441624365482
G3 X13.043147208121828 Y12.446700507614212 I-0.9492385786802031 J0
G3 X12.83756345177665 Y12.753807106598984 I-0.8781725888324874 J-0.3629441624365482
G3 X12.527918781725889 Y12.959390862944161 I-0.6725888324873096 J-0.6725888324873096
G3 X12.164974619289339 Y13.032994923857867 I-0.3629441624365482 J-0.8781725888324874
G3 X11.802030456852792 Y12.959390862944161 I0 J-0.9492385786802031
G3 X11.49238578680203 Y12.753807106598984 I0.3629441624365482 J-0.8781725888324874
G3 X11.286802030456853 Y12.446700507614212 I0.6725888324873096 J-0.6725888324873096
G3 X11.215736040609137 Y12.081218274111675 I0.8781725888324874 J-0.3629441624365482
G0 Z8
G0 X11.996446700507613 Y16.844670050761422
G1 Z1.5 F800
G3 X12.01015228426396 Y16.779187817258883 I0.16751269035532995 J0 F1500
G3 X12.045685279187817 Y16.725888324873097 I0.15482233502538073 J0.06345177664974619
G3 X12.101522842639593 Y16.68781725888325 I0.11928934010152284 J0.11928934010152284
G3 X12.164974619289339 Y16.6751269035533 I0.06345177664974619 J0.15482233502538073
G3 X12.230964467005077 Y16.68781725888325 I0 J0.16751269035532995
G3 X12.284263959390863 Y16.725888324873097 I-0.06345177664974619 J0.15482233502538073
G3 X12.32233502538071 Y16.779187817258883 I-0.11928934010152284 J0.11928934010152284
G3 X12.335025380710661 Y16.84517766497462 I-0.15482233502538073 J0.06345177664974619
G3 X12.32233502538071 Y16.908629441624367 I-0.16751269035532995 J0
G3 X12.284263959390863 Y16.96446700507614 I-0.15482233502538073 J-0.06345177664974619
G3 X12.230964467005077 Y17 I-0.11928934010152284 J-0.11928934010152284
G3 X12.164974619289339 Y17.012690355329948 I-0.06345177664974619 J-0.15482233502538073
G3 X12.101522842639593 Y17 I0 J-0.16751269035532995
G3 X12.045685279187817 Y16.96446700507614 I0.06345177664974619 J-0.15482233502538073
G3 X12.01015228426396 Y16.908629441624367 I0.11928934010152284 J-0.11928934010152284
G3 X11.99746192893401 Y16.84517766497462 I0.15482233502538073 J-0.06345177664974619
G1 Z1 F800
G3 X12.01015228426396 Y16.779187817258883 I0.16751269035532995 J0 F1500
G3 X12.045685279187817 Y16.725888324873097 I0.15482233502538073 J0.06345177664974619
G3 X12.101522842639593 Y16.68781725888325 I0.11928934010152284 J0.11928934010152284
G3 X12.164974619289339 Y16.6751269035533 I0.06345177664974619 J0.15482233502538073
G3 X12.230964467005077 Y16.68781725888325 I0 J0.16751269035532995
G3 X12.284263959390863 Y16.725888324873097 I-0.06345177664974619 J0.15482233502538073
G3 X12.32233502538071 Y16.779187817258883 I-0.11928934010152284 J0.11928934010152284
G3 X12.335025380710661 Y16.84517766497462 I-0.15482233502538073 J0.06345177664974619
G3 X12.32233502538071 Y16.908629441624367 I-0.16751269035532995 J0
G3 X12.284263959390863 Y16.96446700507614 I-0.15482233502538073 J-0.06345177664974619
G3 X12.230964467005077 Y17 I-0.11928934010152284 J-0.11928934010152284
G3 X12.164974619289339 Y17.012690355329948 I-0.06345177664974619 J-0.15482233502538073
G3 X12.101522842639593 Y17 I0 J-0.16751269035532995
G3 X12.045685279187817 Y16.96446700507614 I0.06345177664974619 J-0.15482233502538073
G3 X12.01015228426396 Y16.908629441624367 I0.11928934010152284 J-0.11928934010152284
G3 X11.99746192893401 Y16.84517766497462 I0.15482233502538073 J-0.06345177664974619
G0 Z8
G0 X11.215228426395939 Y16.844670050761422
G1 Z1.5 F800
G3 X11.286802030456853 Y16.482233502538072 I0.9492385786802031 J0 F1500
G3 X11.49238578680203 Y16.17258883248731 I0.8781725888324874 J0.3629441624365482
G3 X11.802030456852792 Y15.967005076142131 I0.6725888324873096 J0.6725888324873096
G3 X12.164974619289339 Y15.895939086294417 I0.3629441624365482 J0.8781725888324874
G3 X12.527918781725889 Y15.967005076142131 I0 J0.9492385786802031
G3 X12.83756345177665 Y16.17258883248731 I-0.3629441624365482 J0.8781725888324874
G3 X13.043147208121828 Y16.482233502538072 I-0.6725888324873096 J0.6725888324873096
G3 X13.114213197969544 Y16.84517766497462 I-0.8781725888324874 J0.3629441624365482
G3 X13.043147208121828 Y17.208121827411166 I-0.9492385786802031 J0
G3 X12.83756345177665 Y17.517766497461928 I-0.8781725888324874 J-0.3629441624365482
G3 X12.527918781725889 Y17.723350253807105 I-0.6725888324873096 J-0.6725888324873096
G3 X12.164974619289339 Y17.794416243654823 I-0.3629441624365482 J-0.8781725888324874
G3 X11.802030456852792 Y17.723350253807105 I0 J-0.9492385786802031
G3 X11.49238578680203 Y17.517766497461928 I0.3629441624365482 J-0.8781725888324874
G3 X11.286802030456853 Y17.208121827411166 I0.6725888324873096 J-0.6725888324873096
G3 X11.215736040609137 Y16.84517766497462 I0.8781725888324874 J-0.3629441624365482
G1 Z1 F800
G3 X11.286802030456853 Y16.482233502538072 I0.9492385786802031 J0 F1500
G3 X11.49238578680203 Y16.17258883248731 I0.8781725888324874 J0.3629441624365482
G3 X11.802030456852792 Y15.967005076142131 I0.6725888324873096 J0.6725888324873096
G3 X12.164974619289339 Y15.895939086294417 I0.3629441624365482 J0.8781725888324874
G3 X12.527918781725889 Y15.967005076142131 I0 J0.9492385786802031
G3 X12.83756345177665 Y16.17258883248731 I-0.3629441624365482 J0.8781725888324874
G3 X13.043147208121828 Y16.482233502538072 I-0.6725888324873096 J0.6725888324873096
G3 X13.114213197969544 Y16.84517766497462 I-0.8781725888324874 J0.3629441624365482
G3 X13.043147208121828 Y17.208121827411166 I-0.9492385786802031 J0
G3 X12.83756345177665 Y17.517766497461928 I-0.8781725888324874 J-0.3629441624365482
G3 X12.527918781725889 Y17.723350253807105 I-0.6725888324873096 J-0.6725888324873096
G3 X12.164974619289339 Y17.794416243654823 I-0.3629441624365482 J-0.8781725888324874
G3 X11.802030456852792 Y17.723350253807105 I0 J-0.9492385786802031
G3 X11.49238578680203 Y17.517766497461928 I0.3629441624365482 J-0.8781725888324874
G3 X11.286802030456853 Y17.208121827411166 I0.6725888324873096 J-0.6725888324873096
G3 X11.215736040609137 Y16.84517766497462 I0.8781725888324874 J-0.3629441624365482
G0 Z8
G0 X40.571573604060916 Y20.01979695431472
G1 Z1.5 F800
G3 X40.58375634517766 Y19.95431472081218 I0.16751269035532995 J0 F1500
G3 X40.62182741116751 Y19.901015228426395 I0.15482233502538073 J0.06345177664974619
G3 X40.6751269035533 Y19.86294416243655 I0.11928934010152284 J0.11928934010152284
G3 X40.74111675126904 Y19.8502538071066 I0.06345177664974619 J0.15482233502538073
G3 X40.804568527918775 Y19.86294416243655 I0 J0.16751269035532995
G3 X40.860406091370564 Y19.901015228426395 I-0.06345177664974619 J0.15482233502538073
G3 X40.89593908629442 Y19.95431472081218 I-0.11928934010152284 J0.11928934010152284
G3 X40.90862944162437 Y20.02030456852792 I-0.15482233502538073 J0.06345177664974619
G3 X40.89593908629442 Y20.08375634517766 I-0.16751269035532995 J0
G3 X40.860406091370564 Y20.13959390862944 I-0.15482233502538073 J-0.06345177664974619
G3 X40.804568527918775 Y20.1751269035533 I-0.11928934010152284 J-0.11928934010152284
G3 X40.74111675126904 Y20.187817258883246 I-0.06345177664974619 J-0.15482233502538073
G3 X40.6751269035533 Y20.1751269035533 I0 J-0.16751269035532995
G3 X40.62182741116751 Y20.13959390862944 I0.06345177664974619 J-0.15482233502538073
G3 X40.58375634517766 Y20.08375634517766 I0.11928934010152284 J-0.11928934010152284
G3 X40.57106598984771 Y20.02030456852792 I0.15482233502538073 J-0.06345177664974619
G1 Z1 F800
G3 X40.58375634517766 Y19.95431472081218 I0.16751269035532995 J0 F1500
G3 X40.62182741116751 Y19.901015228426395 I0.15482233502538073 J0.06345177664974619
G3 X40.6751269035533 Y19.86294416243655 I0.11928934010152284 J0.11928934010152284
G3 X40.74111675126904 Y19.8502538071066 I0.06345177664974619 J0.15482233502538073
G3 X40.804568527918775 Y19.86294416243655 I0 J0.16751269035532995
G3 X40.860406091370564 Y19.901015228426395 I-0.06345177664974619 J0.15482233502538073
G3 X40.89593908629442 Y19.95431472081218 I-0.11928934010152284 J0.11928934010152284
G3 X40.90862944162437 Y20.02030456852792 I-0.15482233502538073 J0.06345177664974619
G3 X40.89593908629442 Y20.08375634517766 I-0.16751269035532995 J0
G3 X40.860406091370564 Y20.13959390862944 I-0.15482233502538073 J-0.06345177664974619
G3 X40.804568527918775 Y20.1751269035533 I-0.11928934010152284 J-0.11928934010152284
G3 X40.74111675126904 Y20.187817258883246 I-0.06345177664974619 J-0.15482233502538073
G3 X40.6751269035533 Y20.1751269035533 I0 J-0.16751269035532995
G3 X40.62182741116751 Y20.13959390862944 I0.06345177664974619 J-0.15482233502538073
G3 X40.58375634517766 Y20.08375634517766 I0.11928934010152284 J-0.11928934010152284
G3 X40.57106598984771 Y20.02030456852792 I0.15482233502538073 J-0.06345177664974619
G0 Z8
G0 X41.3236040609137 Y19.436294416243655
G1 Z1.5 F800
G3 X41.502538071065985 Y19.70304568527919 I-0.583756345177665 J0.583756345177665 F1500
G3 X41.565989847715734 Y20.02030456852792 I-0.7614213197969544 J0.3147208121827411
G3 X41.502538071065985 Y20.335025380710658 I-0.8248730964467005 J0
G3 X41.32233502538071 Y20.60406091370558 I-0.7614213197969544 J-0.3147208121827411
G3 X41.055837563451774 Y20.78172588832487 I-0.583756345177665 J-0.583756345177665
G3 X40.74111675126904 Y20.84517766497462 I-0.3147208121827411 J-0.7614213197969544
G3 X40.4238578680203 Y20.78172588832487 I0 J-0.8248730964467005
G3 X40.15736040609137 Y20.60406091370558 I0.3147208121827411 J-0.7614213197969544
G3 X39.977157360406096 Y20.335025380710658 I0.583756345177665 J-0.583756345177665
G3 X39.91624365482234 Y20.02030456852792 I0.7614213197969544 J-0.3147208121827411
G3 X39.977157360406096 Y19.70304568527919 I0.8248730964467005 J0
G3 X40.15736040609137 Y19.436548223350254 I0.7614213197969544 J0.3147208121827411
G3 X40.4238578680203 Y19.256345177664976 I0.583756345177665 J0.583756345177665
G3 X40.74111675126904 Y19.195431472081218 I0.3147208121827411 J0.7614213197969544
G3 X41.055837563451774 Y19.256345177664976 I0 J0.8248730964467005
G3 X41.32233502538071 Y19.436548223350254 I-0.3147208121827411 J0.7614213197969544
G1 Z1 F800
G3 X41.502538071065985 Y19.70304568527919 I-0.583756345177665 J0.583756345177665 F1500
G3 X41.565989847715734 Y20.02030456852792 I-0.7614213197969544 J0.3147208121827411
G3 X41.502538071065985 Y20.335025380710658 I-0.8248730964467005 J0
G3 X41.32233502538071 Y20.60406091370558 I-0.7614213197969544 J-0.3147208121827411
G3 X41.055837563451774 Y20.78172588832487 I-0.583756345177665 J-0.583756345177665
G3 X40.74111675126904 Y20.84517766497462 I-0.3147208121827411 J-0.7614213197969544
G3 X40.4238578680203 Y20.78172588832487 I0 J-0.8248730964467005
G3 X40.15736040609137 Y20.60406091370558 I0.3147208121827411 J-0.7614213197969544
G3 X39.977157360406096 Y20.335025380710658 I0.583756345177665 J-0.583756345177665
G3 X39.91624365482234 Y20.02030456852792 I0.7614213197969544 J-0.3147208121827411
G3 X39.977157360406096 Y19.70304568527919 I0.8248730964467005 J0
G3 X40.15736040609137 Y19.436548223350254 I0.7614213197969544 J0.3147208121827411
G3 X40.4238578680203 Y19.256345177664976 I0.583756345177665 J0.583756345177665
G3 X40.74111675126904 Y19.195431472081218 I0.3147208121827411 J0.7614213197969544
G3 X41.055837563451774 Y19.256345177664976 I0 J0.8248730964467005
G3 X41.32233502538071 Y19.436548223350254 I-0.3147208121827411 J0.7614213197969544
G0 Z8
G0 X40.571573604060916 Y8.907360406091371
G1 Z1.5 F800
G3 X40.58375634517766 Y8.842639593908629 I0.16751269035532995 J0 F1500
G3 X40.62182741116751 Y8.786802030456853 I0.15482233502538073 J0.06345177664974619
G3 X40.6751269035533 Y8.751269035532994 I0.11928934010152284 J0.11928934010152284
G3 X40.74111675126904 Y8.738578680203045 I0.06345177664974619 J0.15482233502538073
G3 X40.804568527918775 Y8.751269035532994 I0 J0.16751269035532995
G3 X40.860406091370564 Y8.786802030456853 I-0.06345177664974619 J0.15482233502538073
G3 X40.89593908629442 Y8.842639593908629 I-0.11928934010152284 J0.11928934010152284
G3 X40.90862944162437 Y8.906091370558375 I-0.15482233502538073 J0.06345177664974619
G3 X40.89593908629442 Y8.972081218274111 I-0.16751269035532995 J0
G3 X40.860406091370564 Y9.025380710659899 I-0.15482233502538073 J-0.06345177664974619
G3 X40.804568527918775 Y9.063451776649746 I-0.11928934010152284 J-0.11928934010152284
G3 X40.74111675126904 Y9.076142131979696 I-0.06345177664974619 J-0.15482233502538073
G3 X40.6751269035533 Y9.063451776649746 I0 J-0.16751269035532995
G3 X40.62182741116751 Y9.025380710659899 I0.06345177664974619 J-0.15482233502538073
G3 X40.58375634517766 Y8.972081218274111 I0.11928934010152284 J-0.11928934010152284
G3 X40.57106598984771 Y8.906091370558375 I0.15482233502538073 J-0.06345177664974619
G1 Z1 F800
G3 X40.58375634517766 Y8.842639593908629 I0.16751269035532995 J0 F1500
G3 X40.62182741116751 Y8.786802030456853 I0.15482233502538073 J0.06345177664974619
G3 X40.6751269035533 Y8.751269035532994 I0.11928934010152284 J0.11928934010152284
G3 X40.74111675126904 Y8.738578680203045 I0.06345177664974619 J0.15482233502538073
G3 X40.804568527918775 Y8.751269035532994 I0 J0.16751269035532995
G3 X40.860406091370564 Y8.786802030456853 I-0.06345177664974619 J0.15482233502538073
G3 X40.89593908629442 Y8.842639593908629 I-0.11928934010152284 J0.11928934010152284
G3 X40.90862944162437 Y8.906091370558375 I-0.15482233502538073 J0.06345177664974619
G3 X40.89593908629442 Y8.972081218274111 I-0.16751269035532995 J0
G3 X40.860406091370564 Y9.025380710659899 I-0.15482233502538073 J-0.06345177664974619
G3 X40.804568527918775 Y9.063451776649746 I-0.11928934010152284 J-0.11928934010152284
G3 X40.74111675126904 Y9.076142131979696 I-0.06345177664974619 J-0.15482233502538073
G3 X40.6751269035533 Y9.063451776649746 I0 J-0.16751269035532995
G3 X40.62182741116751 Y9.025380710659899 I0.06345177664974619 J-0.15482233502538073
G3 X40.58375634517766 Y8.972081218274111 I0.11928934010152284 J-0.11928934010152284
G3 X40.57106598984771 Y8.906091370558375 I0.15482233502538073 J-0.06345177664974619
G0 Z8
G0 X40.4246192893401 Y9.669543147208122
G1 Z1.5 F800
G3 X40.15736040609137 Y9.48984771573604 I0.3147208121827411 J-0.7614213197969544 F1500
G3 X39.977157360406096 Y9.223350253807107 I0.583756345177665 J-0.583756345177665
G3 X39.91624365482234 Y8.906091370558375 I0.7614213197969544 J-0.3147208121827411
G3 X39.977157360406096 Y8.591370558375635 I0.8248730964467005 J0
G3 X40.15736040609137 Y8.324873096446701 I0.7614213197969544 J0.3147208121827411
G3 X40.4238578680203 Y8.144670050761421 I0.583756345177665 J0.583756345177665
G3 X40.74111675126904 Y8.081218274111675 I0.3147208121827411 J0.7614213197969544
G3 X41.055837563451774 Y8.144670050761421 I0 J0.8248730964467005
G3 X41.32233502538071 Y8.324873096446701 I-0.3147208121827411 J0.7614213197969544
G3 X41.502538071065985 Y8.591370558375635 I-0.583756345177665 J0.583756345177665
G3 X41.565989847715734 Y8.906091370558375 I-0.7614213197969544 J0.3147208121827411
G3 X41.502538071065985 Y9.223350253807107 I-0.8248730964467005 J0
G3 X41.32233502538071 Y9.48984771573604 I-0.7614213197969544 J-0.3147208121827411
G3 X41.055837563451774 Y9.670050761421319 I-0.583756345177665 J-0.583756345177665
G3 X40.74111675126904 Y9.733502538071066 I-0.3147208121827411 J-0.7614213197969544
G3 X40.4238578680203 Y9.670050761421319 I0 J-0.8248730964467005
G1 Z1 F800
G3 X40.15736040609137 Y9.48984771573604 I0.3147208121827411 J-0.7614213197969544 F1500
G3 X39.977157360406096 Y9.223350253807107 I0.583756345177665 J-0.583756345177665
G3 X39.91624365482234 Y8.906091370558375 I0.7614213197969544 J-0.3147208121827411
G3 X39.977157360406096 Y8.591370558375635 I0.8248730964467005 J0
G3 X40.15736040609137 Y8.324873096446701 I0.7614213197969544 J0.3147208121827411
G3 X40.4238578680203 Y8.144670050761421 I0.583756345177665 J0.583756345177665
G3 X40.74111675126904 Y8.081218274111675 I0.3147208121827411 J0.7614213197969544
G3 X41.055837563451774 Y8.144670050761421 I0 J0.8248730964467005
G3 X41.32233502538071 Y8.324873096446701 I-0.3147208121827411 J0.7614213197969544
G3 X41.502538071065985 Y8.591370558375635 I-0.583756345177665 J0.583756345177665
G3 X41.565989847715734 Y8.906091370558375 I-0.7614213197969544 J0.3147208121827411
G3 X41.502538071065985 Y9.223350253807107 I-0.8248730964467005 J0
G3 X41.32233502538071 Y9.48984771573604 I-0.7614213197969544 J-0.3147208121827411
G3 X41.055837563451774 Y9.670050761421319 I-0.583756345177665 J-0.583756345177665
G3 X40.74111675126904 Y9.733502538071066 I-0.3147208121827411 J-0.7614213197969544
G3 X40.4238578680203 Y9.670050761421319 I0 J-0.8248730964467005
G0 Z8
G0 X43.69670050761421 Y8.907360406091371
G1 Z1.5 F800
G3 X43.710659898477154 Y8.842639593908629 I0.16751269035532995 J0 F1500
G3 X43.746192893401016 Y8.786802030456853 I0.15482233502538073 J0.06345177664974619
G3 X43.80203045685279 Y8.751269035532994 I0.11928934010152284 J0.11928934010152284
G3 X43.86548223350254 Y8.738578680203045 I0.06345177664974619 J0.15482233502538073
G3 X43.92893401015228 Y8.751269035532994 I0 J0.16751269035532995
G3 X43.984771573604064 Y8.786802030456853 I-0.06345177664974619 J0.15482233502538073
G3 X44.02030456852792 Y8.842639593908629 I-0.11928934010152284 J0.11928934010152284
G3 X44.03299492385787 Y8.906091370558375 I-0.15482233502538073 J0.06345177664974619
G3 X44.02030456852792 Y8.972081218274111 I-0.16751269035532995 J0
G3 X43.984771573604064 Y9.025380710659899 I-0.15482233502538073 J-0.06345177664974619
G3 X43.92893401015228 Y9.063451776649746 I-0.11928934010152284 J-0.11928934010152284
G3 X43.86548223350254 Y9.076142131979696 I-0.06345177664974619 J-0.15482233502538073
G3 X43.80203045685279 Y9.063451776649746 I0 J-0.16751269035532995
G3 X43.746192893401016 Y9.025380710659899 I0.06345177664974619 J-0.15482233502538073
G3 X43.710659898477154 Y8.972081218274111 I0.11928934010152284 J-0.11928934010152284
G3 X43.69543147208121 Y8.906091370558375 I0.15482233502538073 J-0.06345177664974619
G1 Z1 F800
G3 X43.710659898477154 Y8.842639593908629 I0.16751269035532995 J0 F1500
G3 X43.746192893401016 Y8.786802030456853 I0.15482233502538073 J0.06345177664974619
G3 X43.80203045685279 Y8.751269035532994 I0.11928934010152284 J0.11928934010152284
G3 X43.86548223350254 Y8.738578680203045 I0.06345177664974619 J0.15482233502538073
G3 X43.92893401015228 Y8.751269035532994 I0 J0.16751269035532995
G3 X43.984771573604064 Y8.786802030456853 I-0.06345177664974619 J0.15482233502538073
G3 X44.02030456852792 Y8.842639593908629 I-0.11928934010152284 J0.11928934010152284
G3 X44.03299492385787 Y8.906091370558375 I-0.15482233502538073 J0.06345177664974619
G3 X44.02030456852792 Y8.972081218274111 I-0.16751269035532995 J0
G3 X43.984771573604064 Y9.025380710659899 I-0.15482233502538073 J-0.06345177664974619
G3 X43.92893401015228 Y9.063451776649746 I-0.11928934010152284 J-0.11928934010152284
G3 X43.86548223350254 Y9.076142131979696 I-0.06345177664974619 J-0.15482233502538073
G3 X43.80203045685279 Y9.063451776649746 I0 J-0.16751269035532995
G3 X43.746192893401016 Y9.025380710659899 I0.06345177664974619 J-0.15482233502538073
G3 X43.710659898477154 Y8.972081218274111 I0.11928934010152284 J-0.11928934010152284
G3 X43.69543147208121 Y8.906091370558375 I0.15482233502538073 J-0.06345177664974619
G0 Z8
G0 X43.5497461928934 Y9.669543147208122
G1 Z1.5 F800
G3 X43.28172588832487 Y9.48984771573604 I0.3147208121827411 J-0.7614213197969544 F1500
G3 X43.10406091370559 Y9.223350253807107 I0.583756345177665 J-0.583756345177665
G3 X43.04060913705584 Y8.906091370558375 I0.7614213197969544 J-0.3147208121827411
G3 X43.10406091370559 Y8.591370558375635 I0.8248730964467005 J0
G3 X43.28172588832487 Y8.324873096446701 I0.7614213197969544 J0.3147208121827411
G3 X43.55076142131979 Y8.144670050761421 I0.583756345177665 J0.583756345177665
G3 X43.86548223350254 Y8.081218274111675 I0.3147208121827411 J0.7614213197969544
G3 X44.18020304568528 Y8.144670050761421 I0 J0.8248730964467005
G3 X44.4492385786802 Y8.324873096446701 I-0.3147208121827411 J0.7614213197969544
G3 X44.626903553299485 Y8.591370558375635 I-0.583756345177665 J0.583756345177665
G3 X44.690355329949234 Y8.906091370558375 I-0.7614213197969544 J0.3147208121827411
G3 X44.626903553299485 Y9.223350253807107 I-0.8248730964467005 J0
G3 X44.4492385786802 Y9.48984771573604 I-0.7614213197969544 J-0.3147208121827411
G3 X44.18020304568528 Y9.670050761421319 I-0.583756345177665 J-0.583756345177665
G3 X43.86548223350254 Y9.733502538071066 I-0.3147208121827411 J-0.7614213197969544
G3 X43.55076142131979 Y9.670050761421319 I0 J-0.8248730964467005
G1 Z1 F800
G3 X43.28172588832487 Y9.48984771573604 I0.3147208121827411 J-0.7614213197969544 F1500
G3 X43.10406091370559 Y9.223350253807107 I0.583756345177665 J-0.583756345177665
G3 X43.04060913705584 Y8.906091370558375 I0.7614213197969544 J-0.3147208121827411
G3 X43.10406091370559 Y8.591370558375635 I0.8248730964467005 J0
G3 X43.28172588832487 Y8.324873096446701 I0.7614213197969544 J0.3147208121827411
G3 X43.55076142131979 Y8.144670050761421 I0.583756345177665 J0.583756345177665
G3 X43.86548223350254 Y8.081218274111675 I0.3147208121827411 J0.7614213197969544
G3 X44.18020304568528 Y8.144670050761421 I0 J0.8248730964467005
G3 X44.4492385786802 Y8.324873096446701 I-0.3147208121827411 J0.7614213197969544
G3 X44.626903553299485 Y8.591370558375635 I-0.583756345177665 J0.583756345177665
G3 X44.690355329949234 Y8.906091370558375 I-0.7614213197969544 J0.3147208121827411
G3 X44.626903553299485 Y9.223350253807107 I-0.8248730964467005 J0
G3 X44.4492385786802 Y9.48984771573604 I-0.7614213197969544 J-0.3147208121827411
G3 X44.18020304568528 Y9.670050761421319 I-0.583756345177665 J-0.583756345177665
G3 X43.86548223350254 Y9.733502538071066 I-0.3147208121827411 J-0.7614213197969544
G3 X43.55076142131979 Y9.670050761421319 I0 J-0.8248730964467005
G0 Z8
G0 X43.69670050761421 Y20.01979695431472
G1 Z1.5 F800
G3 X43.710659898477154 Y19.95431472081218 I0.16751269035532995 J0 F1500
G3 X43.746192893401016 Y19.901015228426395 I0.15482233502538073 J0.06345177664974619
G3 X43.80203045685279 Y19.86294416243655 I0.11928934010152284 J0.11928934010152284
G3 X43.86548223350254 Y19.8502538071066 I0.06345177664974619 J0.15482233502538073
G3 X43.92893401015228 Y19.86294416243655 I0 J0.16751269035532995
G3 X43.984771573604064 Y19.901015228426395 I-0.06345177664974619 J0.15482233502538073
G3 X44.02030456852792 Y19.95431472081218 I-0.11928934010152284 J0.11928934010152284
G3 X44.03299492385787 Y20.02030456852792 I-0.15482233502538073 J0.06345177664974619
G3 X44.02030456852792 Y20.08375634517766 I-0.16751269035532995 J0
G3 X43.984771573604064 Y20.13959390862944 I-0.15482233502538073 J-0.06345177664974619
G3 X43.92893401015228 Y20.1751269035533 I-0.11928934010152284 J-0.11928934010152284
G3 X43.86548223350254 Y20.187817258883246 I-0.06345177664974619 J-0.15482233502538073
G3 X43.80203045685279 Y20.1751269035533 I0 J-0.16751269035532995
G3 X43.746192893401016 Y20.13959390862944 I0.06345177664974619 J-0.15482233502538073
G3 X43.710659898477154 Y20.08375634517766 I0.11928934010152284 J-0.11928934010152284
G3 X43.69543147208121 Y20.02030456852792 I0.15482233502538073 J-0.06345177664974619
G1 Z1 F800
G3 X43.710659898477154 Y19.95431472081218 I0.16751269035532995 J0 F1500
G3 X43.746192893401016 Y19.901015228426395 I0.15482233502538073 J0.06345177664974619
G3 X43.80203045685279 Y19.86294416243655 I0.11928934010152284 J0.11928934010152284
G3 X43.86548223350254 Y19.8502538071066 I0.06345177664974619 J0.15482233502538073
G3 X43.92893401015228 Y19.86294416243655 I0 J0.16751269035532995
G3 X43.984771573604064 Y19.901015228426395 I-0.06345177664974619 J0.15482233502538073
G3 X44.02030456852792 Y19.95431472081218 I-0.11928934010152284 J0.11928934010152284
G3 X44.03299492385787 Y20.02030456852792 I-0.15482233502538073 J0.06345177664974619
G3 X44.02030456852792 Y20.08375634517766 I-0.16751269035532995 J0
G3 X43.984771573604064 Y20.13959390862944 I-0.15482233502538073 J-0.06345177664974619
G3 X43.92893401015228 Y20.1751269035533 I-0.11928934010152284 J-0.11928934010152284
G3 X43.86548223350254 Y20.187817258883246 I-0.06345177664974619 J-0.15482233502538073
G3 X43.80203045685279 Y20.1751269035533 I0 J-0.16751269035532995
G3 X43.746192893401016 Y20.13959390862944 I0.06345177664974619 J-0.15482233502538073
G3 X43.710659898477154 Y20.08375634517766 I0.11928934010152284 J-0.11928934010152284
G3 X43.69543147208121 Y20.02030456852792 I0.15482233502538073 J-0.06345177664974619
G0 Z8
G0 X43.86548223350254 Y20.844670050761422
G1 Z1.5 F800
G3 X43.55076142131979 Y20.78172588832487 I0 J-0.8248730964467005 F1500
G3 X43.28172588832487 Y20.60406091370558 I0.3147208121827411 J-0.7614213197969544
G3 X43.10406091370559 Y20.335025380710658 I0.583756345177665 J-0.583756345177665
G3 X43.04060913705584 Y20.02030456852792 I0.7614213197969544 J-0.3147208121827411
G3 X43.10406091370559 Y19.70304568527919 I0.8248730964467005 J0
G3 X43.28172588832487 Y19.436548223350254 I0.7614213197969544 J0.3147208121827411
G3 X43.55076142131979 Y19.256345177664976 I0.583756345177665 J0.583756345177665
G3 X43.86548223350254 Y19.195431472081218 I0.3147208121827411 J0.7614213197969544
G3 X44.18020304568528 Y19.256345177664976 I0 J0.8248730964467005
G3 X44.4492385786802 Y19.436548223350254 I-0.3147208121827411 J0.7614213197969544
G3 X44.626903553299485 Y19.70304568527919 I-0.583756345177665 J0.583756345177665
G3 X44.690355329949234 Y20.02030456852792 I-0.7614213197969544 J0.3147208121827411
G3 X44.626903553299485 Y20.335025380710658 I-0.8248730964467005 J0
G3 X44.4492385786802 Y20.60406091370558 I-0.7614213197969544 J-0.3147208121827411
G3 X44.18020304568528 Y20.78172588832487 I-0.583756345177665 J-0.583756345177665
G3 X43.86548223350254 Y20.84517766497462 I-0.3147208121827411 J-0.7614213197969544
G1 Z1 F800
G3 X43.55076142131979 Y20.78172588832487 I0 J-0.8248730964467005 F1500
G3 X43.28172588832487 Y20.60406091370558 I0.3147208121827411 J-0.7614213197969544
G3 X43.10406091370559 Y20.335025380710658 I0.583756345177665 J-0.583756345177665
G3 X43.04060913705584 Y20.02030456852792 I0.7614213197969544 J-0.3147208121827411
G3 X43.10406091370559 Y19.70304568527919 I0.8248730964467005 J0
G3 X43.28172588832487 Y19.436548223350254 I0.7614213197969544 J0.3147208121827411
G3 X43.55076142131979 Y19.256345177664976 I0.583756345177665 J0.583756345177665
G3 X43.86548223350254 Y19.195431472081218 I0.3147208121827411 J0.7614213197969544
G3 X44.18020304568528 Y19.256345177664976 I0 J0.8248730964467005
G3 X44.4492385786802 Y19.436548223350254 I-0.3147208121827411 J0.7614213197969544
G3 X44.626903553299485 Y19.70304568527919 I-0.583756345177665 J0.583756345177665
G3 X44.690355329949234 Y20.02030456852792 I-0.7614213197969544 J0.3147208121827411
G3 X44.626903553299485 Y20.335025380710658 I-0.8248730964467005 J0
G3 X44.4492385786802 Y20.60406091370558 I-0.7614213197969544 J-0.3147208121827411
G3 X44.18020304568528 Y20.78172588832487 I-0.583756345177665 J-0.583756345177665
G3 X43.86548223350254 Y20.84517766497462 I-0.3147208121827411 J-0.7614213197969544
G0 Z8
G0 X21.521573604060915 Y7.319796954314721
G1 Z1.5 F800
G3 X21.535532994923855 Y7.256345177664975 I0.16751269035532995 J0 F1500
G3 X21.571065989847718 Y7.2005076142131985 I0.15482233502538073 J0.06345177664974619
G3 X21.626903553299492 Y7.164974619289341 I0.11928934010152284 J0.11928934010152284
G3 X21.690355329949238 Y7.152284263959391 I0.06345177664974619 J0.15482233502538073
G3 X21.753807106598984 Y7.164974619289341 I0 J0.16751269035532995
G3 X21.809644670050762 Y7.2005076142131985 I-0.06345177664974619 J0.15482233502538073
G3 X21.84517766497462 Y7.256345177664975 I-0.11928934010152284 J0.11928934010152284
G3 X21.85786802030457 Y7.319796954314722 I-0.15482233502538073 J0.06345177664974619
G3 X21.84517766497462 Y7.383248730964467 I-0.16751269035532995 J0
G3 X21.809644670050762 Y7.439086294416244 I-0.15482233502538073 J-0.06345177664974619
G3 X21.753807106598984 Y7.474619289340102 I-0.11928934010152284 J-0.11928934010152284
G3 X21.690355329949238 Y7.4873096446700504 I-0.06345177664974619 J-0.15482233502538073
G3 X21.626903553299492 Y7.474619289340102 I0 J-0.16751269035532995
G3 X21.571065989847718 Y7.439086294416244 I0.06345177664974619 J-0.15482233502538073
G3 X21.535532994923855 Y7.383248730964467 I0.11928934010152284 J-0.11928934010152284
G3 X21.52030456852792 Y7.319796954314722 I0.15482233502538073 J-0.06345177664974619
G1 Z1 F800
G3 X21.535532994923855 Y7.256345177664975 I0.16751269035532995 J0 F1500
G3 X21.571065989847718 Y7.2005076142131985 I0.15482233502538073 J0.06345177664974619
G3 X21.626903553299492 Y7.164974619289341 I0.11928934010152284 J0.11928934010152284
G3 X21.690355329949238 Y7.152284263959391 I0.06345177664974619 J0.15482233502538073
G3 X21.753807106598984 Y7.164974619289341 I0 J0.16751269035532995
G3 X21.809644670050762 Y7.2005076142131985 I-0.06345177664974619 J0.15482233502538073
G3 X21.84517766497462 Y7.256345177664975 I-0.11928934010152284 J0.11928934010152284
G3 X21.85786802030457 Y7.319796954314722 I-0.15482233502538073 J0.06345177664974619
G3 X21.84517766497462 Y7.383248730964467 I-0.16751269035532995 J0
G3 X21.809644670050762 Y7.439086294416244 I-0.15482233502538073 J-0.06345177664974619
G3 X21.753807106598984 Y7.474619289340102 I-0.11928934010152284 J-0.11928934010152284
G3 X21.690355329949238 Y7.4873096446700504 I-0.06345177664974619 J-0.15482233502538073
G3 X21.626903553299492 Y7.474619289340102 I0 J-0.16751269035532995
G3 X21.571065989847718 Y7.439086294416244 I0.06345177664974619 J-0.15482233502538073
G3 X21.535532994923855 Y7.383248730964467 I0.11928934010152284 J-0.11928934010152284
G3 X21.52030456852792 Y7.319796954314722 I0.15482233502538073 J-0.06345177664974619
G0 Z8
G0 X21.521573604060915 Y21.60736040609137
G1 Z1.5 F800
G3 X21.535532994923855 Y21.543147208121827 I0.16751269035532995 J0 F1500
G3 X21.571065989847718 Y21.48730964467005 I0.15482233502538073 J0.06345177664974619
G3 X21.626903553299492 Y21.451776649746193 I0.11928934010152284 J0.11928934010152284
G3 X21.690355329949238 Y21.439086294416242 I0.06345177664974619 J0.15482233502538073
G3 X21.753807106598984 Y21.451776649746193 I0 J0.16751269035532995
G3 X21.809644670050762 Y21.48730964467005 I-0.06345177664974619 J0.15482233502538073
G3 X21.84517766497462 Y21.543147208121827 I-0.11928934010152284 J0.11928934010152284
G3 X21.85786802030457 Y21.606598984771573 I-0.15482233502538073 J0.06345177664974619
G3 X21.84517766497462 Y21.67258883248731 I-0.16751269035532995 J0
G3 X21.809644670050762 Y21.725888324873097 I-0.15482233502538073 J-0.06345177664974619
G3 X21.753807106598984 Y21.763959390862944 I-0.11928934010152284 J-0.11928934010152284
G3 X21.690355329949238 Y21.776649746192895 I-0.06345177664974619 J-0.15482233502538073
G3 X21.626903553299492 Y21.763959390862944 I0 J-0.16751269035532995
G3 X21.571065989847718 Y21.725888324873097 I0.06345177664974619 J-0.15482233502538073
G3 X21.535532994923855 Y21.67258883248731 I0.11928934010152284 J-0.11928934010152284
G3 X21.52030456852792 Y21.606598984771573 I0.15482233502538073 J-0.06345177664974619
G1 Z1 F800
G3 X21.535532994923855 Y21.543147208121827 I0.16751269035532995 J0 F1500
