(Generated by PartKam Version 0.05)

G21 G90 G40

(follow path 1)
G0 Z8
T0 M6
G17
M3
G0 X0.07360406091370558 Y30.533248730964466
G1 Z2.9 F800
G1 X53.41370558375634 Y30.532994923857867 F1500
G1 X53.41370558375634 Y0.053299492385786795
G1 X0.07360406091370558 Y0.053299492385786795
G1 X0.07360406091370558 Y30.532994923857867
G0 Z8
G0 X33.15710659898477 Y13.64238578680203
G1 Z2.9 F800
G1 X34.2994923857868 Y13.642131979695431 F1500
G1 X34.2994923857868 Y13.134517766497462
G1 X33.15736040609137 Y13.134517766497462
G1 X33.15736040609137 Y13.642131979695431
G0 Z8
G0 X33.15710659898477 Y12.37233502538071
G1 Z2.9 F800
G1 X34.2994923857868 Y12.373096446700506 F1500
G1 X34.2994923857868 Y11.865482233502538
G1 X33.15736040609137 Y11.865482233502538
G1 X33.15736040609137 Y12.373096446700506
G0 Z8
G0 X33.15710659898477 Y11.10228426395939
G1 Z2.9 F800
G1 X34.2994923857868 Y11.101522842639593 F1500
G1 X34.2994923857868 Y10.593908629441625
G1 X33.15736040609137 Y10.593908629441625
G1 X33.15736040609137 Y11.101522842639593
G0 Z8
G0 X33.15710659898477 Y9.83223350253807
G1 Z2.9 F800
G1 X34.2994923857868 Y9.83248730964467 F1500
G1 X34.2994923857868 Y9.324873096446701
G1 X33.15736040609137 Y9.324873096446701
G1 X33.15736040609137 Y9.83248730964467
G0 Z8
G0 X26.80710659898477 Y9.83223350253807
G1 Z2.9 F800
G1 X27.949238578680205 Y9.83248730964467 F1500
G1 X27.949238578680205 Y9.324873096446701
G1 X26.80710659898477 Y9.324873096446701
G1 X26.80710659898477 Y9.83248730964467
G0 Z8
G0 X26.80710659898477 Y11.10228426395939
G1 Z2.9 F800
G1 X27.949238578680205 Y11.101522842639593 F1500
G1 X27.949238578680205 Y10.593908629441625
G1 X26.80710659898477 Y10.593908629441625
G1 X26.80710659898477 Y11.101522842639593
G0 Z8
G0 X26.80710659898477 Y12.37233502538071
G1 Z2.9 F800
G1 X27.949238578680205 Y12.373096446700506 F1500
G1 X27.949238578680205 Y11.865482233502538
G1 X26.80710659898477 Y11.865482233502538
G1 X26.80710659898477 Y12.373096446700506
G0 Z8
G0 X26.80710659898477 Y13.64238578680203
G1 Z2.9 F800
G1 X27.949238578680205 Y13.642131979695431 F1500
G1 X27.949238578680205 Y13.134517766497462
G1 X26.80710659898477 Y13.134517766497462
G1 X26.80710659898477 Y13.642131979695431
G0 Z8
G0 X33.15710659898477 Y22.53223350253807
G1 Z2.9 F800
G1 X34.2994923857868 Y22.53299492385787 F1500
G1 X34.2994923857868 Y22.025380710659896
G1 X33.15736040609137 Y22.025380710659896
G1 X33.15736040609137 Y22.53299492385787
G0 Z8
G0 X33.15710659898477 Y21.26243654822335
G1 Z2.9 F800
G1 X34.2994923857868 Y21.261421319796952 F1500
G1 X34.2994923857868 Y20.753807106598984
G1 X33.15736040609137 Y20.753807106598984
G1 X33.15736040609137 Y21.261421319796952
G0 Z8
G0 X33.15710659898477 Y19.992385786802032
G1 Z2.9 F800
G1 X34.2994923857868 Y19.99238578680203 F1500
G1 X34.2994923857868 Y19.48477157360406
G1 X33.15736040609137 Y19.48477157360406
G1 X33.15736040609137 Y19.99238578680203
G0 Z8
G0 X33.15710659898477 Y18.722335025380712
G1 Z2.9 F800
G1 X34.2994923857868 Y18.72335025380711 F1500
G1 X34.2994923857868 Y18.213197969543145
G1 X33.15736040609137 Y18.213197969543145
G1 X33.15736040609137 Y18.72335025380711
G0 Z8
G0 X26.80710659898477 Y18.722335025380712
G1 Z2.9 F800
G1 X27.949238578680205 Y18.72335025380711 F1500
G1 X27.949238578680205 Y18.213197969543145
G1 X26.80710659898477 Y18.213197969543145
G1 X26.80710659898477 Y18.72335025380711
G0 Z8
G0 X26.80710659898477 Y19.992385786802032
G1 Z2.9 F800
G1 X27.949238578680205 Y19.99238578680203 F1500
G1 X27.949238578680205 Y19.48477157360406
G1 X26.80710659898477 Y19.48477157360406
G1 X26.80710659898477 Y19.99238578680203
G0 Z8
G0 X26.80710659898477 Y21.26243654822335
G1 Z2.9 F800
G1 X27.949238578680205 Y21.261421319796952 F1500
G1 X27.949238578680205 Y20.753807106598984
G1 X26.80710659898477 Y20.753807106598984
G1 X26.80710659898477 Y21.261421319796952
G0 Z8
G0 X26.80710659898477 Y22.53223350253807
G1 Z2.9 F800
G1 X27.949238578680205 Y22.53299492385787 F1500
G1 X27.949238578680205 Y22.025380710659896
G1 X26.80710659898477 Y22.025380710659896
G1 X26.80710659898477 Y22.53299492385787
G0 Z8
G0 X37.4748730964467 Y11.481979695431471
G1 Z2.9 F800
G3 X37.52791878172589 Y11.213197969543147 I0.7005076142131981 J0 F1500
G3 X37.68020304568528 Y10.987309644670052 I0.6472081218274112 J0.2690355329949239
G3 X37.90609137055838 Y10.83502538071066 I0.49492385786802034 J0.49492385786802034
G3 X38.1751269035533 Y10.781725888324873 I0.2690355329949239 J0.6472081218274112
G3 X38.441624365482234 Y10.83502538071066 I0 J0.7005076142131981
G3 X38.67005076142132 Y10.987309644670052 I-0.2690355329949239 J0.6472081218274112
G3 X38.82233502538071 Y11.213197969543147 I-0.49492385786802034 J0.49492385786802034
G3 X38.87563451776649 Y11.48223350253807 I-0.6472081218274112 J0.2690355329949239
G3 X38.82233502538071 Y11.748730964467004 I-0.7005076142131981 J0
G3 X38.67005076142132 Y11.977157360406093 I-0.6472081218274112 J-0.2690355329949239
G3 X38.441624365482234 Y12.129441624365482 I-0.49492385786802034 J-0.49492385786802034
G3 X38.1751269035533 Y12.18274111675127 I-0.2690355329949239 J-0.6472081218274112
G3 X37.90609137055838 Y12.129441624365482 I0 J-0.7005076142131981
G3 X37.68020304568528 Y11.977157360406093 I0.2690355329949239 J-0.6472081218274112
G3 X37.52791878172589 Y11.748730964467004 I0.49492385786802034 J-0.49492385786802034
G3 X37.4746192893401 Y11.48223350253807 I0.6472081218274112 J-0.2690355329949239
G0 Z8
G0 X39.9751269035533 Y11.481979695431471
G1 Z2.9 F800
G3 X40.02791878172589 Y11.213197969543147 I0.7005076142131981 J0 F1500
G3 X40.180203045685275 Y10.987309644670052 I0.6472081218274112 J0.2690355329949239
G3 X40.40609137055838 Y10.83502538071066 I0.49492385786802034 J0.49492385786802034
G3 X40.6751269035533 Y10.781725888324873 I0.2690355329949239 J0.6472081218274112
G3 X40.944162436548226 Y10.83502538071066 I0 J0.7005076142131981
G3 X41.17005076142132 Y10.987309644670052 I-0.2690355329949239 J0.6472081218274112
G3 X41.32233502538071 Y11.213197969543147 I-0.49492385786802034 J0.49492385786802034
G3 X41.3756345177665 Y11.48223350253807 I-0.6472081218274112 J0.2690355329949239
G3 X41.32233502538071 Y11.748730964467004 I-0.7005076142131981 J0
G3 X41.17005076142132 Y11.977157360406093 I-0.6472081218274112 J-0.2690355329949239
G3 X40.944162436548226 Y12.129441624365482 I-0.49492385786802034 J-0.49492385786802034
G3 X40.6751269035533 Y12.18274111675127 I-0.2690355329949239 J-0.6472081218274112
G3 X40.40609137055838 Y12.129441624365482 I0 J-0.7005076142131981
G3 X40.180203045685275 Y11.977157360406093 I0.2690355329949239 J-0.6472081218274112
G3 X40.02791878172589 Y11.748730964467004 I0.49492385786802034 J-0.49492385786802034
G3 X39.9746192893401 Y11.48223350253807 I0.6472081218274112 J-0.2690355329949239
G0 Z8
G0 X37.4748730964467 Y20.37208121827411
G1 Z2.9 F800
G3 X37.52791878172589 Y20.104060913705585 I0.7005076142131981 J0 F1500
G3 X37.68020304568528 Y19.878172588832488 I0.6472081218274112 J0.2690355329949239
G3 X37.90609137055838 Y19.725888324873097 I0.49492385786802034 J0.49492385786802034
G3 X38.1751269035533 Y19.67258883248731 I0.2690355329949239 J0.6472081218274112
G3 X38.441624365482234 Y19.725888324873097 I0 J0.7005076142131981
G3 X38.67005076142132 Y19.878172588832488 I-0.2690355329949239 J0.6472081218274112
G3 X38.82233502538071 Y20.104060913705585 I-0.49492385786802034 J0.49492385786802034
G3 X38.87563451776649 Y20.373096446700508 I-0.6472081218274112 J0.2690355329949239
G3 X38.82233502538071 Y20.639593908629443 I-0.7005076142131981 J0
G3 X38.67005076142132 Y20.868020304568525 I-0.6472081218274112 J-0.2690355329949239
G3 X38.441624365482234 Y21.017766497461928 I-0.49492385786802034 J-0.49492385786802034
G3 X38.1751269035533 Y21.071065989847714 I-0.2690355329949239 J-0.6472081218274112
G3 X37.90609137055838 Y21.017766497461928 I0 J-0.7005076142131981
G3 X37.68020304568528 Y20.868020304568525 I0.2690355329949239 J-0.6472081218274112
G3 X37.52791878172589 Y20.639593908629443 I0.49492385786802034 J-0.49492385786802034
G3 X37.4746192893401 Y20.373096446700508 I0.6472081218274112 J-0.2690355329949239
G0 Z8
G0 X39.9751269035533 Y20.37208121827411
G1 Z2.9 F800
G3 X40.02791878172589 Y20.104060913705585 I0.7005076142131981 J0 F1500
G3 X40.180203045685275 Y19.878172588832488 I0.6472081218274112 J0.2690355329949239
G3 X40.40609137055838 Y19.725888324873097 I0.49492385786802034 J0.49492385786802034
G3 X40.6751269035533 Y19.67258883248731 I0.2690355329949239 J0.6472081218274112
G3 X40.944162436548226 Y19.725888324873097 I0 J0.7005076142131981
G3 X41.17005076142132 Y19.878172588832488 I-0.2690355329949239 J0.6472081218274112
G3 X41.32233502538071 Y20.104060913705585 I-0.49492385786802034 J0.49492385786802034
G3 X41.3756345177665 Y20.373096446700508 I-0.6472081218274112 J0.2690355329949239
G3 X41.32233502538071 Y20.639593908629443 I-0.7005076142131981 J0
G3 X41.17005076142132 Y20.868020304568525 I-0.6472081218274112 J-0.2690355329949239
G3 X40.944162436548226 Y21.017766497461928 I-0.49492385786802034 J-0.49492385786802034
G3 X40.6751269035533 Y21.071065989847714 I-0.2690355329949239 J-0.6472081218274112
G3 X40.40609137055838 Y21.017766497461928 I0 J-0.7005076142131981
G3 X40.180203045685275 Y20.868020304568525 I0.2690355329949239 J-0.6472081218274112
G3 X40.02791878172589 Y20.639593908629443 I0.49492385786802034 J-0.49492385786802034
G3 X39.9746192893401 Y20.373096446700508 I0.6472081218274112 J-0.2690355329949239
G0 Z8
G0 X47.13502538071066 Y20.681979695431473
G1 Z2.9 F800
G3 X47.2258883248731 Y20.22335025380711 I1.2005076142131978 J0 F1500
G3 X47.48730964467005 Y19.83248730964467 I1.1091370558375635 J0.4593908629441624
G3 X47.87563451776649 Y19.573604060913706 I0.8477157360406091 J0.8477157360406091
G3 X48.33502538071066 Y19.482233502538072 I0.4593908629441624 J1.1091370558375635
G3 X48.79441624365482 Y19.573604060913706 I0 J1.2005076142131978
G3 X49.182741116751274 Y19.83248730964467 I-0.4593908629441624 J1.1091370558375635
G3 X49.44416243654822 Y20.22335025380711 I-0.8477157360406091 J0.8477157360406091
G3 X49.535532994923855 Y20.68274111675127 I-1.1091370558375635 J0.4593908629441624
G3 X49.44416243654822 Y21.142131979695435 I-1.2005076142131978 J0
G3 X49.182741116751274 Y21.53045685279188 I-1.1091370558375635 J-0.4593908629441624
G3 X48.79441624365482 Y21.791878172588834 I-0.8477157360406091 J-0.8477157360406091
G3 X48.33502538071066 Y21.883248730964468 I-0.4593908629441624 J-1.1091370558375635
G3 X47.87563451776649 Y21.791878172588834 I0 J-1.2005076142131978
G3 X47.48730964467005 Y21.53045685279188 I0.4593908629441624 J-1.1091370558375635
G3 X47.2258883248731 Y21.142131979695435 I0.8477157360406091 J-0.8477157360406091
G3 X47.13451776649747 Y20.68274111675127 I1.1091370558375635 J-0.4593908629441624
G0 Z8
G0 X47.13477157360406 Y25.38223350253807
G1 Z2.9 F800
G1 X49.53299492385787 Y25.383248730964464 F1500
G1 X49.53299492385787 Y22.98477157360406
G1 X47.13451776649747 Y22.98477157360406
G1 X47.13451776649747 Y25.383248730964464
G0 Z8
G0 X47.13502538071066 Y17.181979695431473
G1 Z2.9 F800
G3 X47.2258883248731 Y16.723350253807105 I1.2005076142131978 J0 F1500
G3 X47.48730964467005 Y16.33248730964467 I1.1091370558375635 J0.4593908629441624
G3 X47.87563451776649 Y16.073604060913706 I0.8477157360406091 J0.8477157360406091
G3 X48.33502538071066 Y15.98223350253807 I0.4593908629441624 J1.1091370558375635
G3 X48.79441624365482 Y16.073604060913706 I0 J1.2005076142131978
G3 X49.182741116751274 Y16.33248730964467 I-0.4593908629441624 J1.1091370558375635
G3 X49.44416243654822 Y16.723350253807105 I-0.8477157360406091 J0.8477157360406091
G3 X49.535532994923855 Y17.18274111675127 I-1.1091370558375635 J0.4593908629441624
G3 X49.44416243654822 Y17.64213197969543 I-1.2005076142131978 J0
G3 X49.182741116751274 Y18.03045685279188 I-1.1091370558375635 J-0.4593908629441624
G3 X48.79441624365482 Y18.291878172588834 I-0.8477157360406091 J-0.8477157360406091
G3 X48.33502538071066 Y18.383248730964468 I-0.4593908629441624 J-1.1091370558375635
G3 X47.87563451776649 Y18.291878172588834 I0 J-1.2005076142131978
G3 X47.48730964467005 Y18.03045685279188 I0.4593908629441624 J-1.1091370558375635
G3 X47.2258883248731 Y17.64213197969543 I0.8477157360406091 J-0.8477157360406091
G3 X47.13451776649747 Y17.18274111675127 I1.1091370558375635 J-0.4593908629441624
G0 Z8
G0 X47.13502538071066 Y13.681979695431473
G1 Z2.9 F800
G3 X47.2258883248731 Y13.223350253807107 I1.2005076142131978 J0 F1500
G3 X47.48730964467005 Y12.83248730964467 I1.1091370558375635 J0.4593908629441624
G3 X47.87563451776649 Y12.573604060913706 I0.8477157360406091 J0.8477157360406091
G3 X48.33502538071066 Y12.482233502538072 I0.4593908629441624 J1.1091370558375635
G3 X48.79441624365482 Y12.573604060913706 I0 J1.2005076142131978
G3 X49.182741116751274 Y12.83248730964467 I-0.4593908629441624 J1.1091370558375635
G3 X49.44416243654822 Y13.223350253807107 I-0.8477157360406091 J0.8477157360406091
G3 X49.535532994923855 Y13.68274111675127 I-1.1091370558375635 J0.4593908629441624
G3 X49.44416243654822 Y14.142131979695431 I-1.2005076142131978 J0
G3 X49.182741116751274 Y14.530456852791877 I-1.1091370558375635 J-0.4593908629441624
G3 X48.79441624365482 Y14.791878172588833 I-0.8477157360406091 J-0.8477157360406091
G3 X48.33502538071066 Y14.883248730964468 I-0.4593908629441624 J-1.1091370558375635
G3 X47.87563451776649 Y14.791878172588833 I0 J-1.2005076142131978
G3 X47.48730964467005 Y14.530456852791877 I0.4593908629441624 J-1.1091370558375635
G3 X47.2258883248731 Y14.142131979695431 I0.8477157360406091 J-0.8477157360406091
G3 X47.13451776649747 Y13.68274111675127 I1.1091370558375635 J-0.4593908629441624
G0 Z8
G0 X47.13502538071066 Y10.181979695431473
G1 Z2.9 F800
G3 X47.2258883248731 Y9.723350253807107 I1.2005076142131978 J0 F1500
G3 X47.48730964467005 Y9.33248730964467 I1.1091370558375635 J0.4593908629441624
G3 X47.87563451776649 Y9.073604060913706 I0.8477157360406091 J0.8477157360406091
G3 X48.33502538071066 Y8.98223350253807 I0.4593908629441624 J1.1091370558375635
G3 X48.79441624365482 Y9.073604060913706 I0 J1.2005076142131978
G3 X49.182741116751274 Y9.33248730964467 I-0.4593908629441624 J1.1091370558375635
G3 X49.44416243654822 Y9.723350253807107 I-0.8477157360406091 J0.8477157360406091
G3 X49.535532994923855 Y10.182741116751268 I-1.1091370558375635 J0.4593908629441624
G3 X49.44416243654822 Y10.642131979695431 I-1.2005076142131978 J0
G3 X49.182741116751274 Y11.030456852791879 I-1.1091370558375635 J-0.4593908629441624
G3 X48.79441624365482 Y11.29187817258883 I-0.8477157360406091 J-0.8477157360406091
G3 X48.33502538071066 Y11.383248730964468 I-0.4593908629441624 J-1.1091370558375635
G3 X47.87563451776649 Y11.29187817258883 I0 J-1.2005076142131978
G3 X47.48730964467005 Y11.030456852791879 I0.4593908629441624 J-1.1091370558375635
G3 X47.2258883248731 Y10.642131979695431 I0.8477157360406091 J-0.8477157360406091
G3 X47.13451776649747 Y10.182741116751268 I1.1091370558375635 J-0.4593908629441624
G0 Z8
G0 X47.13502538071066 Y6.6819796954314725
G1 Z2.9 F800
G3 X47.2258883248731 Y6.223350253807106 I1.2005076142131978 J0 F1500
G3 X47.48730964467005 Y5.83248730964467 I1.1091370558375635 J0.4593908629441624
G3 X47.87563451776649 Y5.573604060913706 I0.8477157360406091 J0.8477157360406091
G3 X48.33502538071066 Y5.482233502538071 I0.4593908629441624 J1.1091370558375635
G3 X48.79441624365482 Y5.573604060913706 I0 J1.2005076142131978
G3 X49.182741116751274 Y5.83248730964467 I-0.4593908629441624 J1.1091370558375635
G3 X49.44416243654822 Y6.223350253807106 I-0.8477157360406091 J0.8477157360406091
G3 X49.535532994923855 Y6.68274111675127 I-1.1091370558375635 J0.4593908629441624
G3 X49.44416243654822 Y7.1421319796954315 I-1.2005076142131978 J0
G3 X49.182741116751274 Y7.530456852791878 I-1.1091370558375635 J-0.4593908629441624
G3 X48.79441624365482 Y7.791878172588832 I-0.8477157360406091 J-0.8477157360406091
G3 X48.33502538071066 Y7.883248730964468 I-0.4593908629441624 J-1.1091370558375635
G3 X47.87563451776649 Y7.791878172588832 I0 J-1.2005076142131978
G3 X47.48730964467005 Y7.530456852791878 I0.4593908629441624 J-1.1091370558375635
G3 X47.2258883248731 Y7.1421319796954315 I0.8477157360406091 J-0.8477157360406091
G3 X47.13451776649747 Y6.68274111675127 I1.1091370558375635 J-0.4593908629441624
G0 Z8
G0 X14.51497461928934 Y10.211928934010153
G1 Z2.9 F800
G3 X14.576142131979694 Y9.906091370558375 I0.799492385786802 J0 F1500
G3 X14.748730964467004 Y9.647208121827411 I0.7385786802030457 J0.3071065989847716
G3 X15.007614213197972 Y9.472081218274113 I0.565989847715736 J0.565989847715736
G3 X15.31472081218274 Y9.411167512690355 I0.3071065989847716 J0.7385786802030457
G3 X15.621827411167512 Y9.472081218274113 I0 J0.799492385786802
G3 X15.880710659898478 Y9.647208121827411 I-0.3071065989847716 J0.7385786802030457
G3 X16.053299492385786 Y9.906091370558375 I-0.565989847715736 J0.565989847715736
G3 X16.11421319796954 Y10.213197969543145 I-0.7385786802030457 J0.3071065989847716
G3 X16.053299492385786 Y10.51776649746193 I-0.799492385786802 J0
G3 X15.880710659898478 Y10.776649746192895 I-0.7385786802030457 J-0.3071065989847716
G3 X15.621827411167512 Y10.951776649746192 I-0.565989847715736 J-0.565989847715736
G3 X15.31472081218274 Y11.012690355329948 I-0.3071065989847716 J-0.7385786802030457
G3 X15.007614213197972 Y10.951776649746192 I0 J-0.799492385786802
G3 X14.748730964467004 Y10.776649746192895 I0.3071065989847716 J-0.7385786802030457
G3 X14.576142131979694 Y10.51776649746193 I0.565989847715736 J-0.565989847715736
G3 X14.51522842639594 Y10.213197969543145 I0.7385786802030457 J-0.3071065989847716
G0 Z8
G0 X22.933756345177667 Y10.213451776649746
G1 Z2.9 F800
G1 X22.934010152284262 Y14.02284263959391 F1500
G1 X24.058375634517766 Y14.02284263959391
G1 X27.21827411167513 Y17.18274111675127
G1 X48.33248730964467 Y17.18274111675127
G0 Z8
G0 X14.51497461928934 Y14.022081218274112
G1 Z2.9 F800
G3 X14.576142131979694 Y13.715736040609137 I0.799492385786802 J0 F1500
G3 X14.748730964467004 Y13.456852791878173 I0.7385786802030457 J0.3071065989847716
G3 X15.007614213197972 Y13.281725888324873 I0.565989847715736 J0.565989847715736
G3 X15.31472081218274 Y13.220812182741117 I0.3071065989847716 J0.7385786802030457
G3 X15.621827411167512 Y13.281725888324873 I0 J0.799492385786802
G3 X15.880710659898478 Y13.456852791878173 I-0.3071065989847716 J0.7385786802030457
G3 X16.053299492385786 Y13.715736040609137 I-0.565989847715736 J0.565989847715736
G3 X16.11421319796954 Y14.02284263959391 I-0.7385786802030457 J0.3071065989847716
G3 X16.053299492385786 Y14.327411167512691 I-0.799492385786802 J0
G3 X15.880710659898478 Y14.588832487309645 I-0.7385786802030457 J-0.3071065989847716
G3 X15.621827411167512 Y14.761421319796955 I-0.565989847715736 J-0.565989847715736
G3 X15.31472081218274 Y14.82233502538071 I-0.3071065989847716 J-0.7385786802030457
G3 X15.007614213197972 Y14.761421319796955 I0 J-0.799492385786802
G3 X14.748730964467004 Y14.588832487309645 I0.3071065989847716 J-0.7385786802030457
G3 X14.576142131979694 Y14.327411167512691 I0.565989847715736 J-0.565989847715736
G3 X14.51522842639594 Y14.02284263959391 I0.7385786802030457 J-0.3071065989847716
G0 Z8
G0 X14.51497461928934 Y17.83197969543147
G1 Z2.9 F800
G3 X14.576142131979694 Y17.5253807106599 I0.799492385786802 J0 F1500
G3 X14.748730964467004 Y17.266497461928935 I0.7385786802030457 J0.3071065989847716
G3 X15.007614213197972 Y17.093908629441625 I0.565989847715736 J0.565989847715736
G3 X15.31472081218274 Y17.032994923857867 I0.3071065989847716 J0.7385786802030457
G3 X15.621827411167512 Y17.093908629441625 I0 J0.799492385786802
G3 X15.880710659898478 Y17.266497461928935 I-0.3071065989847716 J0.7385786802030457
G3 X16.053299492385786 Y17.5253807106599 I-0.565989847715736 J0.565989847715736
G3 X16.11421319796954 Y17.83248730964467 I-0.7385786802030457 J0.3071065989847716
G3 X16.053299492385786 Y18.13705583756345 I-0.799492385786802 J0
G3 X15.880710659898478 Y18.398477157360407 I-0.7385786802030457 J-0.3071065989847716
G3 X15.621827411167512 Y18.571065989847714 I-0.565989847715736 J-0.565989847715736
G3 X15.31472081218274 Y18.631979695431472 I-0.3071065989847716 J-0.7385786802030457
G3 X15.007614213197972 Y18.571065989847714 I0 J-0.799492385786802
G3 X14.748730964467004 Y18.398477157360407 I0.3071065989847716 J-0.7385786802030457
G3 X14.576142131979694 Y18.13705583756345 I0.565989847715736 J-0.565989847715736
G3 X14.51522842639594 Y17.83248730964467 I0.7385786802030457 J-0.3071065989847716
G0 Z8
G0 X22.933756345177667 Y17.833248730964467
G1 Z2.9 F800
G1 X22.934010152284262 Y18.95939086294416 F1500
G1 X22.934010152284262 Y20.373096446700508
G1 X22.934010152284262 Y21.64213197969543
G0 Z8
G0 X14.51497461928934 Y21.641878172588832
G1 Z2.9 F800
G3 X14.576142131979694 Y21.33502538071066 I0.799492385786802 J0 F1500
G3 X14.748730964467004 Y21.076142131979694 I0.7385786802030457 J0.3071065989847716
G3 X15.007614213197972 Y20.903553299492387 I0.565989847715736 J0.565989847715736
G3 X15.31472081218274 Y20.84263959390863 I0.3071065989847716 J0.7385786802030457
G3 X15.621827411167512 Y20.903553299492387 I0 J0.799492385786802
G3 X15.880710659898478 Y21.076142131979694 I-0.3071065989847716 J0.7385786802030457
G3 X16.053299492385786 Y21.33502538071066 I-0.565989847715736 J0.565989847715736
G3 X16.11421319796954 Y21.64213197969543 I-0.7385786802030457 J0.3071065989847716
G3 X16.053299492385786 Y21.949238578680202 I-0.799492385786802 J0
G3 X15.880710659898478 Y22.20812182741117 I-0.7385786802030457 J-0.3071065989847716
G3 X15.621827411167512 Y22.380710659898476 I-0.565989847715736 J-0.565989847715736
G3 X15.31472081218274 Y22.441624365482234 I-0.3071065989847716 J-0.7385786802030457
G3 X15.007614213197972 Y22.380710659898476 I0 J-0.799492385786802
G3 X14.748730964467004 Y22.20812182741117 I0.3071065989847716 J-0.7385786802030457
G3 X14.576142131979694 Y21.949238578680202 I0.565989847715736 J-0.565989847715736
G3 X14.51522842639594 Y21.64213197969543 I0.7385786802030457 J-0.3071065989847716
G0 Z8
G0 X6.49492385786802 Y10.522081218274112
G1 Z2.9 F800
G3 X6.586294416243654 Y10.063451776649746 I1.2005076142131978 J0 F1500
G3 X6.847715736040609 Y9.67258883248731 I1.1091370558375635 J0.4593908629441624
G3 X7.2360406091370555 Y9.413705583756345 I0.8477157360406091 J0.8477157360406091
G3 X7.695431472081218 Y9.32233502538071 I0.4593908629441624 J1.1091370558375635
G3 X8.154822335025381 Y9.413705583756345 I0 J1.2005076142131978
G3 X8.543147208121827 Y9.67258883248731 I-0.4593908629441624 J1.1091370558375635
G3 X8.804568527918782 Y10.063451776649746 I-0.8477157360406091 J0.8477157360406091
G3 X8.895939086294417 Y10.522842639593907 I-1.1091370558375635 J0.4593908629441624
G3 X8.804568527918782 Y10.98223350253807 I-1.2005076142131978 J0
G3 X8.543147208121827 Y11.370558375634518 I-1.1091370558375635 J-0.4593908629441624
G3 X8.154822335025381 Y11.629441624365482 I-0.8477157360406091 J-0.8477157360406091
G3 X7.695431472081218 Y11.720812182741117 I-0.4593908629441624 J-1.1091370558375635
G3 X7.2360406091370555 Y11.629441624365482 I0 J-1.2005076142131978
G3 X6.847715736040609 Y11.370558375634518 I0.4593908629441624 J-1.1091370558375635
G3 X6.586294416243654 Y10.98223350253807 I0.8477157360406091 J-0.8477157360406091
G3 X6.49492385786802 Y10.522842639593907 I1.1091370558375635 J-0.4593908629441624
G0 Z8
G0 X6.494670050761421 Y15.22233502538071
G1 Z2.9 F800
G1 X8.893401015228426 Y15.223350253807107 F1500
G1 X8.893401015228426 Y12.824873096446701
G1 X6.49492385786802 Y12.824873096446701
G1 X6.49492385786802 Y15.223350253807107
G0 Z8
G0 X6.49492385786802 Y18.141878172588832
G1 Z2.9 F800
G3 X6.586294416243654 Y17.682741116751266 I1.2005076142131978 J0 F1500
G3 X6.847715736040609 Y17.294416243654823 I1.1091370558375635 J0.4593908629441624
G3 X7.2360406091370555 Y17.032994923857867 I0.8477157360406091 J0.8477157360406091
G3 X7.695431472081218 Y16.941624365482234 I0.4593908629441624 J1.1091370558375635
G3 X8.154822335025381 Y17.032994923857867 I0 J1.2005076142131978
G3 X8.543147208121827 Y17.294416243654823 I-0.4593908629441624 J1.1091370558375635
G3 X8.804568527918782 Y17.682741116751266 I-0.8477157360406091 J0.8477157360406091
G3 X8.895939086294417 Y18.14213197969543 I-1.1091370558375635 J0.4593908629441624
G3 X8.804568527918782 Y18.601522842639593 I-1.2005076142131978 J0
G3 X8.543147208121827 Y18.98984771573604 I-1.1091370558375635 J-0.4593908629441624
G3 X8.154822335025381 Y19.251269035532992 I-0.8477157360406091 J-0.8477157360406091
G3 X7.695431472081218 Y19.34263959390863 I-0.4593908629441624 J-1.1091370558375635
G3 X7.2360406091370555 Y19.251269035532992 I0 J-1.2005076142131978
G3 X6.847715736040609 Y18.98984771573604 I0.4593908629441624 J-1.1091370558375635
G3 X6.586294416243654 Y18.601522842639593 I0.8477157360406091 J-0.8477157360406091
G3 X6.49492385786802 Y18.14213197969543 I1.1091370558375635 J-0.4593908629441624
G0 Z8
G0 X6.494670050761421 Y22.84213197969543
G1 Z2.9 F800
G1 X8.893401015228426 Y22.84263959390863 F1500
G1 X8.893401015228426 Y20.444162436548226
G1 X6.49492385786802 Y20.444162436548226
G1 X6.49492385786802 Y22.84263959390863
G0 Z8
G0 X33.728680203045684 Y13.388324873096447
G1 Z2.9 F800
G1 X34.6243654822335 Y13.388324873096447 F1500
G1 X35.13451776649746 Y13.893401015228426
G1 X46.46700507614213 Y13.893401015228426
G1 X46.46700507614213 Y13.337563451776651
G1 X48.03045685279188 Y11.774111675126903
G1 X48.90355329949238 Y11.774111675126903
G1 X49.89340101522843 Y10.781725888324873
G1 X49.89340101522843 Y8.241116751269036
G1 X48.33248730964467 Y6.68274111675127
G0 Z8
G0 X46.466751269035534 Y13.893908629441624
G1 Z2.9 F800
G1 X46.46700507614213 Y14.01015228426396 F1500
G1 X47.88578680203046 Y15.434010152284262
G1 X48.80710659898477 Y15.434010152284262
G1 X49.898477157360404 Y16.5253807106599
G1 X49.898477157360404 Y17.84771573604061
G1 X48.81472081218274 Y18.934010152284266
G1 X45.41624365482234 Y18.934010152284266
G1 X42.07106598984772 Y22.279187817258883
G1 X33.72842639593909 Y22.279187817258883
G0 Z8
G0 X48.33375634517766 Y10.182741116751268
G1 Z2.9 F800
G1 X45.07106598984771 Y13.444162436548224 F1500
G1 X36.65482233502538 Y13.444162436548224
G1 X35.32994923857868 Y12.119289340101522
G1 X33.72842639593909 Y12.119289340101522
G0 Z8
G0 X33.728680203045684 Y10.848223350253807
G1 Z2.9 F800
G1 X34.6243654822335 Y10.847715736040609 F1500
G1 X35.49746192893401 Y10.847715736040609
G1 X37.180203045685275 Y12.532994923857867
G1 X39.6243654822335 Y12.532994923857867
G1 X40.67258883248731 Y11.48223350253807
G0 Z8
G0 X7.693654822335025 Y18.143147208121828
G1 Z2.9 F800
G1 X8.903553299492387 Y16.934010152284266 F1500
G1 X7.5177664974619285 Y15.550761421319796
G1 X6.33756345177665 Y15.550761421319796
G1 X6.167512690355331 Y15.380710659898478
G1 X6.167512690355331 Y12.050761421319798
G1 X7.692893401015228 Y10.522842639593907
G1 X10.043147208121827 Y8.17258883248731
G1 X25.078680203045685 Y8.17258883248731
G1 X26.482233502538072 Y9.578680203045685
G1 X27.378172588832488 Y9.578680203045685
G1 X27.601522842639593 Y9.578680203045685
G1 X27.827411167512693 Y9.578680203045685
G1 X28.274111675126903 Y9.578680203045685
G1 X28.274111675126903 Y10.847715736040609
G1 X27.378172588832488 Y10.847715736040609
G0 Z8
G0 X38.1736040609137 Y11.483248730964467
G1 Z2.9 F800
G1 X36.26903553299493 Y9.578680203045685 F1500
G1 X33.72842639593909 Y9.578680203045685
G1 X28.274111675126903 Y9.578680203045685
G0 Z8
G0 X40.673096446700505 Y20.373350253807107
G1 Z2.9 F800
G1 X38.76903553299493 Y18.46954314720812 F1500
G1 X33.72842639593909 Y18.46954314720812
G1 X32.83248730964467 Y18.46954314720812
G1 X31.992385786802032 Y19.309644670050762
G1 X31.992385786802032 Y19.738578680203045
G1 X28.274111675126903 Y19.738578680203045
G1 X27.378172588832488 Y19.738578680203045
G1 X26.482233502538072 Y19.738578680203045
G1 X26.482233502538072 Y18.472081218274113
G1 X24.710659898477157 Y16.69796954314721
G1 X17.98984771573604 Y16.69796954314721
G1 X17.98984771573604 Y18.967005076142133
G1 X15.31472081218274 Y21.64213197969543
G0 Z8
G0 X8.90279187817259 Y16.93426395939086
G1 Z2.9 F800
G1 X11.814720812182742 Y14.02284263959391 F1500
G1 X15.31472081218274 Y14.02284263959391
G1 X17.98984771573604 Y16.69796954314721
G0 Z8
G0 X27.378680203045686 Y18.468274111675125
G1 Z2.9 F800
G1 X26.484771573604064 Y18.46954314720812 F1500
G0 Z8
G0 X48.33375634517766 Y24.18324873096447
G1 Z2.9 F800
G1 X34.34263959390863 Y24.182741116751266 F1500
G1 X31.992385786802032 Y21.83502538071066
G1 X31.992385786802032 Y19.738578680203045
G0 Z8
G0 X7.693654822335025 Y14.023350253807106
G1 Z2.9 F800
G1 X9.220812182741117 Y14.02284263959391 F1500
G1 X13.030456852791879 Y10.213197969543145
G1 X15.31472081218274 Y10.213197969543145
G1 X16.903553299492387 Y8.624365482233502
G1 X23.573604060913706 Y8.624365482233502
G1 X26.482233502538072 Y11.532994923857869
G1 X26.482233502538072 Y12.119289340101522
G1 X26.928934010152282 Y12.119289340101522
G1 X27.378172588832488 Y12.119289340101522
G0 Z8
G0 X26.92918781725888 Y12.118274111675127
G1 Z2.9 F800
G1 X27.378172588832488 Y12.568527918781726 F1500
G1 X27.378172588832488 Y13.388324873096447
G0 Z8
G0 X33.728680203045684 Y21.008375634517765
G1 Z2.9 F800
G1 X34.6243654822335 Y21.00761421319797 F1500
G1 X35.055837563451774 Y21.439086294416242
G1 X41.101522842639596 Y21.439086294416242
G1 X41.73350253807107 Y20.80710659898477
G1 X41.73350253807107 Y19.941624365482234
G1 X39.4263959390863 Y17.631979695431472
G1 X26.921319796954315 Y17.631979695431472
G1 X25.507614213197968 Y16.220812182741117
G1 X23.45939086294416 Y16.220812182741117
G1 X21.776649746192895 Y14.535532994923859
G1 X21.776649746192895 Y9.692893401015228
G1 X22.395939086294415 Y9.076142131979696
G1 X23.385786802030456 Y9.076142131979696
G1 X25.274111675126903 Y10.959390862944163
G1 X25.274111675126903 Y12.568527918781726
G1 X26.67258883248731 Y13.967005076142131
G1 X29.30203045685279 Y13.967005076142131
G1 X31.72842639593909 Y11.538071065989847
G1 X35.525380710659896 Y11.538071065989847
G1 X36.97969543147208 Y12.99492385786802
G1 X40.63705583756345 Y12.99492385786802
G1 X42.71827411167513 Y10.913705583756347
G1 X42.71827411167513 Y10.142131979695431
G1 X47.74873096446701 Y5.111675126903553
G1 X48.91878172588832 Y5.111675126903553
G1 X50.3502538071066 Y6.543147208121828
G1 X50.3502538071066 Y11.66497461928934
G1 X48.33248730964467 Y13.68274111675127
G0 Z8
G0 X38.1736040609137 Y20.373350253807107
G1 Z2.9 F800
G1 X35.26142131979695 Y20.373096446700508 F1500
G1 X34.6243654822335 Y19.738578680203045
G1 X33.72842639593909 Y19.738578680203045
G0 Z8
G0 X27.378680203045686 Y22.278426395939086
G1 Z2.9 F800
G1 X26.928934010152282 Y22.279187817258883 F1500
G1 X26.482233502538072 Y21.829949238578678
G1 X25.507614213197968 Y22.804568527918782
G1 X13.934010152284264 Y22.804568527918782
G1 X12.139593908629443 Y21.00761421319797
G1 X11.502538071065992 Y21.64213197969543
G1 X7.692893401015228 Y21.64213197969543
G0 Z8
G0 X26.481979695431473 Y21.008375634517765
G1 Z2.9 F800
G1 X26.482233502538072 Y21.00761421319797 F1500
G1 X26.482233502538072 Y21.00761421319797
G0 Z8
G0 X12.138578680203045 Y21.008375634517765
G1 Z2.9 F800
G1 X15.31472081218274 Y17.83248730964467 F1500
G0 Z8
G0 X22.933756345177667 Y20.373350253807107
G1 Z2.9 F800
G1 X28.071065989847718 Y20.373096446700508 F1500
G1 X33.40862944162437 Y25.710659898477157
G1 X49.682741116751274 Y25.710659898477157
G1 X49.86040609137056 Y25.532994923857867
G1 X49.86040609137056 Y22.210659898477157
G1 X48.33248730964467 Y20.68274111675127
G0 Z8
G0 X37.8248730964467 Y11.481979695431471
G1 Z2.9 F800
G3 X37.85279187817259 Y11.347715736040609 I0.35025380710659904 J0 F1500
G3 X37.92639593908629 Y11.233502538071065 I0.3223350253807106 J0.13451776649746194
G3 X38.04060913705584 Y11.159898477157359 I0.24873096446700507 J0.24873096446700507
G3 X38.1751269035533 Y11.131979695431474 I0.13451776649746194 J0.3223350253807106
G3 X38.30964467005076 Y11.159898477157359 I0 J0.35025380710659904
G3 X38.421319796954315 Y11.233502538071065 I-0.13451776649746194 J0.3223350253807106
G3 X38.49746192893401 Y11.347715736040609 I-0.24873096446700507 J0.24873096446700507
G3 X38.5253807106599 Y11.48223350253807 I-0.3223350253807106 J0.13451776649746194
G3 X38.49746192893401 Y11.616751269035532 I-0.35025380710659904 J0
G3 X38.421319796954315 Y11.728426395939087 I-0.3223350253807106 J-0.13451776649746194
G3 X38.30964467005076 Y11.804568527918782 I-0.24873096446700507 J-0.24873096446700507
G3 X38.1751269035533 Y11.83248730964467 I-0.13451776649746194 J-0.3223350253807106
G3 X38.04060913705584 Y11.804568527918782 I0 J-0.35025380710659904
G3 X37.92639593908629 Y11.728426395939087 I0.13451776649746194 J-0.3223350253807106
G3 X37.85279187817259 Y11.616751269035532 I0.24873096446700507 J-0.24873096446700507
G3 X37.8248730964467 Y11.48223350253807 I0.3223350253807106 J-0.13451776649746194
G0 Z8
G0 X40.3251269035533 Y11.481979695431471
G1 Z2.9 F800
G3 X40.35279187817259 Y11.347715736040609 I0.35025380710659904 J0 F1500
G3 X40.42639593908629 Y11.233502538071065 I0.3223350253807106 J0.13451776649746194
G3 X40.54060913705584 Y11.159898477157359 I0.24873096446700507 J0.24873096446700507
G3 X40.6751269035533 Y11.131979695431474 I0.13451776649746194 J0.3223350253807106
G3 X40.80964467005076 Y11.159898477157359 I0 J0.35025380710659904
G3 X40.921319796954315 Y11.233502538071065 I-0.13451776649746194 J0.3223350253807106
G3 X40.997461928934015 Y11.347715736040609 I-0.24873096446700507 J0.24873096446700507
G3 X41.025380710659896 Y11.48223350253807 I-0.3223350253807106 J0.13451776649746194
G3 X40.997461928934015 Y11.616751269035532 I-0.35025380710659904 J0
G3 X40.921319796954315 Y11.728426395939087 I-0.3223350253807106 J-0.13451776649746194
G3 X40.80964467005076 Y11.804568527918782 I-0.24873096446700507 J-0.24873096446700507
G3 X40.6751269035533 Y11.83248730964467 I-0.13451776649746194 J-0.3223350253807106
G3 X40.54060913705584 Y11.804568527918782 I0 J-0.35025380710659904
G3 X40.42639593908629 Y11.728426395939087 I0.13451776649746194 J-0.3223350253807106
G3 X40.35279187817259 Y11.616751269035532 I0.24873096446700507 J-0.24873096446700507
G3 X40.324873096446694 Y11.48223350253807 I0.3223350253807106 J-0.13451776649746194
G0 Z8
G0 X37.8248730964467 Y20.37208121827411
G1 Z2.9 F800
G3 X37.85279187817259 Y20.238578680203045 I0.35025380710659904 J0 F1500
G3 X37.92639593908629 Y20.124365482233504 I0.3223350253807106 J0.13451776649746194
G3 X38.04060913705584 Y20.048223350253807 I0.24873096446700507 J0.24873096446700507
G3 X38.1751269035533 Y20.022842639593907 I0.13451776649746194 J0.3223350253807106
G3 X38.30964467005076 Y20.048223350253807 I0 J0.35025380710659904
G3 X38.421319796954315 Y20.124365482233504 I-0.13451776649746194 J0.3223350253807106
G3 X38.49746192893401 Y20.238578680203045 I-0.24873096446700507 J0.24873096446700507
G3 X38.5253807106599 Y20.373096446700508 I-0.3223350253807106 J0.13451776649746194
G3 X38.49746192893401 Y20.505076142131983 I-0.35025380710659904 J0
G3 X38.421319796954315 Y20.619289340101524 I-0.3223350253807106 J-0.13451776649746194
G3 X38.30964467005076 Y20.69543147208122 I-0.24873096446700507 J-0.24873096446700507
G3 X38.1751269035533 Y20.720812182741113 I-0.13451776649746194 J-0.3223350253807106
G3 X38.04060913705584 Y20.69543147208122 I0 J-0.35025380710659904
G3 X37.92639593908629 Y20.619289340101524 I0.13451776649746194 J-0.3223350253807106
G3 X37.85279187817259 Y20.505076142131983 I0.24873096446700507 J-0.24873096446700507
G3 X37.8248730964467 Y20.373096446700508 I0.3223350253807106 J-0.13451776649746194
G0 Z8
G0 X40.3251269035533 Y20.37208121827411
G1 Z2.9 F800
G3 X40.35279187817259 Y20.238578680203045 I0.35025380710659904 J0 F1500
G3 X40.42639593908629 Y20.124365482233504 I0.3223350253807106 J0.13451776649746194
G3 X40.54060913705584 Y20.048223350253807 I0.24873096446700507 J0.24873096446700507
G3 X40.6751269035533 Y20.022842639593907 I0.13451776649746194 J0.3223350253807106
G3 X40.80964467005076 Y20.048223350253807 I0 J0.35025380710659904
G3 X40.921319796954315 Y20.124365482233504 I-0.13451776649746194 J0.3223350253807106
G3 X40.997461928934015 Y20.238578680203045 I-0.24873096446700507 J0.24873096446700507
G3 X41.025380710659896 Y20.373096446700508 I-0.3223350253807106 J0.13451776649746194
G3 X40.997461928934015 Y20.505076142131983 I-0.35025380710659904 J0
G3 X40.921319796954315 Y20.619289340101524 I-0.3223350253807106 J-0.13451776649746194
G3 X40.80964467005076 Y20.69543147208122 I-0.24873096446700507 J-0.24873096446700507
G3 X40.6751269035533 Y20.720812182741113 I-0.13451776649746194 J-0.3223350253807106
G3 X40.54060913705584 Y20.69543147208122 I0 J-0.35025380710659904
G3 X40.42639593908629 Y20.619289340101524 I0.13451776649746194 J-0.3223350253807106
G3 X40.35279187817259 Y20.505076142131983 I0.24873096446700507 J-0.24873096446700507
G3 X40.324873096446694 Y20.373096446700508 I0.3223350253807106 J-0.13451776649746194
G0 Z8
G0 X47.73502538071066 Y20.681979695431473
G1 Z2.9 F800
G3 X47.78172588832487 Y20.451776649746193 I0.5989847715736041 J0 F1500
G3 X47.911167512690355 Y20.258883248730967 I0.5532994923857868 J0.22842639593908629
G3 X48.10406091370559 Y20.126903553299492 I0.42385786802030456 J0.42385786802030456
G3 X48.33502538071066 Y20.081218274111677 I0.22842639593908629 J0.5532994923857868
G3 X48.56345177664974 Y20.126903553299492 I0 J0.5989847715736041
G3 X48.75888324873096 Y20.258883248730967 I-0.22842639593908629 J0.5532994923857868
G3 X48.88832487309645 Y20.451776649746193 I-0.42385786802030456 J0.42385786802030456
G3 X48.934010152284266 Y20.68274111675127 I-0.5532994923857868 J0.22842639593908629
G3 X48.88832487309645 Y20.911167512690355 I-0.5989847715736041 J0
G3 X48.75888324873096 Y21.106598984771573 I-0.5532994923857868 J-0.22842639593908629
G3 X48.56345177664974 Y21.236040609137056 I-0.42385786802030456 J-0.42385786802030456
G3 X48.33502538071066 Y21.281725888324875 I-0.22842639593908629 J-0.5532994923857868
G3 X48.10406091370559 Y21.236040609137056 I0 J-0.5989847715736041
G3 X47.911167512690355 Y21.106598984771573 I0.22842639593908629 J-0.5532994923857868
G3 X47.78172588832487 Y20.911167512690355 I0.42385786802030456 J-0.42385786802030456
G3 X47.736040609137056 Y20.68274111675127 I0.5532994923857868 J-0.22842639593908629
G0 Z8
G0 X47.73502538071066 Y24.181979695431473
G1 Z2.9 F800
G3 X47.78172588832487 Y23.951776649746193 I0.5989847715736041 J0 F1500
G3 X47.911167512690355 Y23.758883248730967 I0.5532994923857868 J0.22842639593908629
G3 X48.10406091370559 Y23.626903553299492 I0.42385786802030456 J0.42385786802030456
G3 X48.33502538071066 Y23.581218274111677 I0.22842639593908629 J0.5532994923857868
G3 X48.56345177664974 Y23.626903553299492 I0 J0.5989847715736041
G3 X48.75888324873096 Y23.758883248730967 I-0.22842639593908629 J0.5532994923857868
G3 X48.88832487309645 Y23.951776649746193 I-0.42385786802030456 J0.42385786802030456
G3 X48.934010152284266 Y24.182741116751266 I-0.5532994923857868 J0.22842639593908629
G3 X48.88832487309645 Y24.411167512690355 I-0.5989847715736041 J0
G3 X48.75888324873096 Y24.606598984771573 I-0.5532994923857868 J-0.22842639593908629
G3 X48.56345177664974 Y24.736040609137056 I-0.42385786802030456 J-0.42385786802030456
G3 X48.33502538071066 Y24.781725888324875 I-0.22842639593908629 J-0.5532994923857868
G3 X48.10406091370559 Y24.736040609137056 I0 J-0.5989847715736041
G3 X47.911167512690355 Y24.606598984771573 I0.22842639593908629 J-0.5532994923857868
G3 X47.78172588832487 Y24.411167512690355 I0.42385786802030456 J-0.42385786802030456
G3 X47.736040609137056 Y24.182741116751266 I0.5532994923857868 J-0.22842639593908629
G0 Z8
G0 X47.73502538071066 Y17.181979695431473
G1 Z2.9 F800
G3 X47.78172588832487 Y16.951776649746193 I0.5989847715736041 J0 F1500
G3 X47.911167512690355 Y16.758883248730964 I0.5532994923857868 J0.22842639593908629
G3 X48.10406091370559 Y16.626903553299492 I0.42385786802030456 J0.42385786802030456
G3 X48.33502538071066 Y16.581218274111677 I0.22842639593908629 J0.5532994923857868
G3 X48.56345177664974 Y16.626903553299492 I0 J0.5989847715736041
G3 X48.75888324873096 Y16.758883248730964 I-0.22842639593908629 J0.5532994923857868
G3 X48.88832487309645 Y16.951776649746193 I-0.42385786802030456 J0.42385786802030456
G3 X48.934010152284266 Y17.18274111675127 I-0.5532994923857868 J0.22842639593908629
G3 X48.88832487309645 Y17.411167512690355 I-0.5989847715736041 J0
G3 X48.75888324873096 Y17.606598984771573 I-0.5532994923857868 J-0.22842639593908629
G3 X48.56345177664974 Y17.736040609137056 I-0.42385786802030456 J-0.42385786802030456
G3 X48.33502538071066 Y17.78172588832487 I-0.22842639593908629 J-0.5532994923857868
G3 X48.10406091370559 Y17.736040609137056 I0 J-0.5989847715736041
G3 X47.911167512690355 Y17.606598984771573 I0.22842639593908629 J-0.5532994923857868
G3 X47.78172588832487 Y17.411167512690355 I0.42385786802030456 J-0.42385786802030456
G3 X47.736040609137056 Y17.18274111675127 I0.5532994923857868 J-0.22842639593908629
G0 Z8
G0 X47.73502538071066 Y13.681979695431473
G1 Z2.9 F800
G3 X47.78172588832487 Y13.451776649746192 I0.5989847715736041 J0 F1500
G3 X47.911167512690355 Y13.258883248730964 I0.5532994923857868 J0.22842639593908629
G3 X48.10406091370559 Y13.126903553299492 I0.42385786802030456 J0.42385786802030456
G3 X48.33502538071066 Y13.081218274111674 I0.22842639593908629 J0.5532994923857868
G3 X48.56345177664974 Y13.126903553299492 I0 J0.5989847715736041
G3 X48.75888324873096 Y13.258883248730964 I-0.22842639593908629 J0.5532994923857868
G3 X48.88832487309645 Y13.451776649746192 I-0.42385786802030456 J0.42385786802030456
G3 X48.934010152284266 Y13.68274111675127 I-0.5532994923857868 J0.22842639593908629
G3 X48.88832487309645 Y13.911167512690355 I-0.5989847715736041 J0
G3 X48.75888324873096 Y14.106598984771574 I-0.5532994923857868 J-0.22842639593908629
G3 X48.56345177664974 Y14.236040609137055 I-0.42385786802030456 J-0.42385786802030456
G3 X48.33502538071066 Y14.281725888324871 I-0.22842639593908629 J-0.5532994923857868
G3 X48.10406091370559 Y14.236040609137055 I0 J-0.5989847715736041
G3 X47.911167512690355 Y14.106598984771574 I0.22842639593908629 J-0.5532994923857868
G3 X47.78172588832487 Y13.911167512690355 I0.42385786802030456 J-0.42385786802030456
G3 X47.736040609137056 Y13.68274111675127 I0.5532994923857868 J-0.22842639593908629
G0 Z8
G0 X47.73502538071066 Y10.181979695431473
G1 Z2.9 F800
G3 X47.78172588832487 Y9.951776649746192 I0.5989847715736041 J0 F1500
G3 X47.911167512690355 Y9.758883248730964 I0.5532994923857868 J0.22842639593908629
G3 X48.10406091370559 Y9.626903553299492 I0.42385786802030456 J0.42385786802030456
G3 X48.33502538071066 Y9.581218274111675 I0.22842639593908629 J0.5532994923857868
G3 X48.56345177664974 Y9.626903553299492 I0 J0.5989847715736041
G3 X48.75888324873096 Y9.758883248730964 I-0.22842639593908629 J0.5532994923857868
G3 X48.88832487309645 Y9.951776649746192 I-0.42385786802030456 J0.42385786802030456
G3 X48.934010152284266 Y10.182741116751268 I-0.5532994923857868 J0.22842639593908629
G3 X48.88832487309645 Y10.411167512690355 I-0.5989847715736041 J0
G3 X48.75888324873096 Y10.606598984771573 I-0.5532994923857868 J-0.22842639593908629
G3 X48.56345177664974 Y10.736040609137056 I-0.42385786802030456 J-0.42385786802030456
G3 X48.33502538071066 Y10.781725888324873 I-0.22842639593908629 J-0.5532994923857868
G3 X48.10406091370559 Y10.736040609137056 I0 J-0.5989847715736041
G3 X47.911167512690355 Y10.606598984771573 I0.22842639593908629 J-0.5532994923857868
G3 X47.78172588832487 Y10.411167512690355 I0.42385786802030456 J-0.42385786802030456
G3 X47.736040609137056 Y10.182741116751268 I0.5532994923857868 J-0.22842639593908629
G0 Z8
G0 X47.73502538071066 Y6.6819796954314725
G1 Z2.9 F800
G3 X47.78172588832487 Y6.451776649746193 I0.5989847715736041 J0 F1500
G3 X47.911167512690355 Y6.258883248730964 I0.5532994923857868 J0.22842639593908629
G3 X48.10406091370559 Y6.126903553299492 I0.42385786802030456 J0.42385786802030456
G3 X48.33502538071066 Y6.081218274111675 I0.22842639593908629 J0.5532994923857868
G3 X48.56345177664974 Y6.126903553299492 I0 J0.5989847715736041
G3 X48.75888324873096 Y6.258883248730964 I-0.22842639593908629 J0.5532994923857868
G3 X48.88832487309645 Y6.451776649746193 I-0.42385786802030456 J0.42385786802030456
G3 X48.934010152284266 Y6.68274111675127 I-0.5532994923857868 J0.22842639593908629
G3 X48.88832487309645 Y6.911167512690355 I-0.5989847715736041 J0
G3 X48.75888324873096 Y7.106598984771574 I-0.5532994923857868 J-0.22842639593908629
G3 X48.56345177664974 Y7.2360406091370555 I-0.42385786802030456 J-0.42385786802030456
G3 X48.33502538071066 Y7.281725888324873 I-0.22842639593908629 J-0.5532994923857868
G3 X48.10406091370559 Y7.2360406091370555 I0 J-0.5989847715736041
G3 X47.911167512690355 Y7.106598984771574 I0.22842639593908629 J-0.5532994923857868
G3 X47.78172588832487 Y6.911167512690355 I0.42385786802030456 J-0.42385786802030456
G3 X47.736040609137056 Y6.68274111675127 I0.5532994923857868 J-0.22842639593908629
G0 Z8
G0 X14.91497461928934 Y10.211928934010153
G1 Z2.9 F800
G3 X14.946700507614212 Y10.058375634517766 I0.4010152284263959 J0 F1500
G3 X15.032994923857867 Y9.928934010152284 I0.37055837563451777 J0.15228426395939088
G3 X15.16243654822335 Y9.842639593908629 I0.2817258883248731 J0.2817258883248731
G3 X15.31472081218274 Y9.812182741116752 I0.15228426395939088 J0.37055837563451777
G3 X15.467005076142133 Y9.842639593908629 I0 J0.4010152284263959
G3 X15.598984771573603 Y9.928934010152284 I-0.15228426395939088 J0.37055837563451777
G3 X15.685279187817258 Y10.058375634517766 I-0.2817258883248731 J0.2817258883248731
G3 X15.715736040609137 Y10.213197969543145 I-0.37055837563451777 J0.15228426395939088
G3 X15.685279187817258 Y10.365482233502538 I-0.4010152284263959 J0
G3 X15.598984771573603 Y10.49492385786802 I-0.37055837563451777 J-0.15228426395939088
G3 X15.467005076142133 Y10.581218274111674 I-0.2817258883248731 J-0.2817258883248731
G3 X15.31472081218274 Y10.611675126903553 I-0.15228426395939088 J-0.37055837563451777
G3 X15.16243654822335 Y10.581218274111674 I0 J-0.4010152284263959
G3 X15.032994923857867 Y10.49492385786802 I0.15228426395939088 J-0.37055837563451777
G3 X14.946700507614212 Y10.365482233502538 I0.2817258883248731 J-0.2817258883248731
G3 X14.916243654822335 Y10.213197969543145 I0.37055837563451777 J-0.15228426395939088
G0 Z8
G0 X22.53502538071066 Y10.211928934010153
G1 Z2.9 F800
G3 X22.565989847715734 Y10.058375634517766 I0.4010152284263959 J0 F1500
G3 X22.65228426395939 Y9.928934010152284 I0.37055837563451777 J0.15228426395939088
G3 X22.78172588832487 Y9.842639593908629 I0.2817258883248731 J0.2817258883248731
G3 X22.934010152284262 Y9.812182741116752 I0.15228426395939088 J0.37055837563451777
G3 X23.088832487309645 Y9.842639593908629 I0 J0.4010152284263959
G3 X23.21827411167513 Y9.928934010152284 I-0.15228426395939088 J0.37055837563451777
G3 X23.304568527918782 Y10.058375634517766 I-0.2817258883248731 J0.2817258883248731
G3 X23.33502538071066 Y10.213197969543145 I-0.37055837563451777 J0.15228426395939088
G3 X23.304568527918782 Y10.365482233502538 I-0.4010152284263959 J0
G3 X23.21827411167513 Y10.49492385786802 I-0.37055837563451777 J-0.15228426395939088
G3 X23.088832487309645 Y10.581218274111674 I-0.2817258883248731 J-0.2817258883248731
G3 X22.934010152284262 Y10.611675126903553 I-0.15228426395939088 J-0.37055837563451777
G3 X22.78172588832487 Y10.581218274111674 I0 J-0.4010152284263959
G3 X22.65228426395939 Y10.49492385786802 I0.15228426395939088 J-0.37055837563451777
G3 X22.565989847715734 Y10.365482233502538 I0.2817258883248731 J-0.2817258883248731
G3 X22.535532994923855 Y10.213197969543145 I0.37055837563451777 J-0.15228426395939088
G0 Z8
G0 X14.91497461928934 Y14.022081218274112
G1 Z2.9 F800
G3 X14.946700507614212 Y13.868020304568526 I0.4010152284263959 J0 F1500
G3 X15.032994923857867 Y13.738578680203046 I0.37055837563451777 J0.15228426395939088
G3 X15.16243654822335 Y13.652284263959391 I0.2817258883248731 J0.2817258883248731
G3 X15.31472081218274 Y13.621827411167512 I0.15228426395939088 J0.37055837563451777
G3 X15.467005076142133 Y13.652284263959391 I0 J0.4010152284263959
G3 X15.598984771573603 Y13.738578680203046 I-0.15228426395939088 J0.37055837563451777
G3 X15.685279187817258 Y13.868020304568526 I-0.2817258883248731 J0.2817258883248731
G3 X15.715736040609137 Y14.02284263959391 I-0.37055837563451777 J0.15228426395939088
G3 X15.685279187817258 Y14.175126903553299 I-0.4010152284263959 J0
G3 X15.598984771573603 Y14.304568527918782 I-0.37055837563451777 J-0.15228426395939088
G3 X15.467005076142133 Y14.390862944162437 I-0.2817258883248731 J-0.2817258883248731
G3 X15.31472081218274 Y14.421319796954315 I-0.15228426395939088 J-0.37055837563451777
G3 X15.16243654822335 Y14.390862944162437 I0 J-0.4010152284263959
G3 X15.032994923857867 Y14.304568527918782 I0.15228426395939088 J-0.37055837563451777
G3 X14.946700507614212 Y14.175126903553299 I0.2817258883248731 J-0.2817258883248731
G3 X14.916243654822335 Y14.02284263959391 I0.37055837563451777 J-0.15228426395939088
G0 Z8
G0 X22.53502538071066 Y14.022081218274112
G1 Z2.9 F800
G3 X22.565989847715734 Y13.868020304568526 I0.4010152284263959 J0 F1500
G3 X22.65228426395939 Y13.738578680203046 I0.37055837563451777 J0.15228426395939088
G3 X22.78172588832487 Y13.652284263959391 I0.2817258883248731 J0.2817258883248731
G3 X22.934010152284262 Y13.621827411167512 I0.15228426395939088 J0.37055837563451777
G3 X23.088832487309645 Y13.652284263959391 I0 J0.4010152284263959
G3 X23.21827411167513 Y13.738578680203046 I-0.15228426395939088 J0.37055837563451777
G3 X23.304568527918782 Y13.868020304568526 I-0.2817258883248731 J0.2817258883248731
G3 X23.33502538071066 Y14.02284263959391 I-0.37055837563451777 J0.15228426395939088
G3 X23.304568527918782 Y14.175126903553299 I-0.4010152284263959 J0
G3 X23.21827411167513 Y14.304568527918782 I-0.37055837563451777 J-0.15228426395939088
G3 X23.088832487309645 Y14.390862944162437 I-0.2817258883248731 J-0.2817258883248731
G3 X22.934010152284262 Y14.421319796954315 I-0.15228426395939088 J-0.37055837563451777
G3 X22.78172588832487 Y14.390862944162437 I0 J-0.4010152284263959
G3 X22.65228426395939 Y14.304568527918782 I0.15228426395939088 J-0.37055837563451777
G3 X22.565989847715734 Y14.175126903553299 I0.2817258883248731 J-0.2817258883248731
G3 X22.535532994923855 Y14.02284263959391 I0.37055837563451777 J-0.15228426395939088
G0 Z8
G0 X14.91497461928934 Y17.83197969543147
G1 Z2.9 F800
G3 X14.946700507614212 Y17.67766497461929 I0.4010152284263959 J0 F1500
G3 X15.032994923857867 Y17.548223350253807 I0.37055837563451777 J0.15228426395939088
G3 X15.16243654822335 Y17.461928934010153 I0.2817258883248731 J0.2817258883248731
G3 X15.31472081218274 Y17.431472081218274 I0.15228426395939088 J0.37055837563451777
G3 X15.467005076142133 Y17.461928934010153 I0 J0.4010152284263959
G3 X15.598984771573603 Y17.548223350253807 I-0.15228426395939088 J0.37055837563451777
G3 X15.685279187817258 Y17.67766497461929 I-0.2817258883248731 J0.2817258883248731
G3 X15.715736040609137 Y17.83248730964467 I-0.37055837563451777 J0.15228426395939088
G3 X15.685279187817258 Y17.98477157360406 I-0.4010152284263959 J0
G3 X15.598984771573603 Y18.114213197969544 I-0.37055837563451777 J-0.15228426395939088
G3 X15.467005076142133 Y18.200507614213198 I-0.2817258883248731 J-0.2817258883248731
G3 X15.31472081218274 Y18.230964467005077 I-0.15228426395939088 J-0.37055837563451777
G3 X15.16243654822335 Y18.200507614213198 I0 J-0.4010152284263959
G3 X15.032994923857867 Y18.114213197969544 I0.15228426395939088 J-0.37055837563451777
G3 X14.946700507614212 Y17.98477157360406 I0.2817258883248731 J-0.2817258883248731
G3 X14.916243654822335 Y17.83248730964467 I0.37055837563451777 J-0.15228426395939088
G0 Z8
G0 X22.53502538071066 Y17.83197969543147
G1 Z2.9 F800
G3 X22.565989847715734 Y17.67766497461929 I0.4010152284263959 J0 F1500
G3 X22.65228426395939 Y17.548223350253807 I0.37055837563451777 J0.15228426395939088
G3 X22.78172588832487 Y17.461928934010153 I0.2817258883248731 J0.2817258883248731
G3 X22.934010152284262 Y17.431472081218274 I0.15228426395939088 J0.37055837563451777
G3 X23.088832487309645 Y17.461928934010153 I0 J0.4010152284263959
G3 X23.21827411167513 Y17.548223350253807 I-0.15228426395939088 J0.37055837563451777
G3 X23.304568527918782 Y17.67766497461929 I-0.2817258883248731 J0.2817258883248731
G3 X23.33502538071066 Y17.83248730964467 I-0.37055837563451777 J0.15228426395939088
G3 X23.304568527918782 Y17.98477157360406 I-0.4010152284263959 J0
G3 X23.21827411167513 Y18.114213197969544 I-0.37055837563451777 J-0.15228426395939088
G3 X23.088832487309645 Y18.200507614213198 I-0.2817258883248731 J-0.2817258883248731
G3 X22.934010152284262 Y18.230964467005077 I-0.15228426395939088 J-0.37055837563451777
G3 X22.78172588832487 Y18.200507614213198 I0 J-0.4010152284263959
G3 X22.65228426395939 Y18.114213197969544 I0.15228426395939088 J-0.37055837563451777
G3 X22.565989847715734 Y17.98477157360406 I0.2817258883248731 J-0.2817258883248731
G3 X22.535532994923855 Y17.83248730964467 I0.37055837563451777 J-0.15228426395939088
G0 Z8
G0 X14.91497461928934 Y21.641878172588832
G1 Z2.9 F800
G3 X14.946700507614212 Y21.48984771573604 I0.4010152284263959 J0 F1500
G3 X15.032994923857867 Y21.360406091370557 I0.37055837563451777 J0.15228426395939088
G3 X15.16243654822335 Y21.27157360406091 I0.2817258883248731 J0.2817258883248731
G3 X15.31472081218274 Y21.241116751269033 I0.15228426395939088 J0.37055837563451777
G3 X15.467005076142133 Y21.27157360406091 I0 J0.4010152284263959
G3 X15.598984771573603 Y21.360406091370557 I-0.15228426395939088 J0.37055837563451777
G3 X15.685279187817258 Y21.48984771573604 I-0.2817258883248731 J0.2817258883248731
G3 X15.715736040609137 Y21.64213197969543 I-0.37055837563451777 J0.15228426395939088
G3 X15.685279187817258 Y21.794416243654823 I-0.4010152284263959 J0
G3 X15.598984771573603 Y21.923857868020306 I-0.37055837563451777 J-0.15228426395939088
G3 X15.467005076142133 Y22.01269035532995 I-0.2817258883248731 J-0.2817258883248731
G3 X15.31472081218274 Y22.04314720812183 I-0.15228426395939088 J-0.37055837563451777
G3 X15.16243654822335 Y22.01269035532995 I0 J-0.4010152284263959
G3 X15.032994923857867 Y21.923857868020306 I0.15228426395939088 J-0.37055837563451777
G3 X14.946700507614212 Y21.794416243654823 I0.2817258883248731 J-0.2817258883248731
G3 X14.916243654822335 Y21.64213197969543 I0.37055837563451777 J-0.15228426395939088
G0 Z8
G0 X22.53502538071066 Y21.641878172588832
G1 Z2.9 F800
G3 X22.565989847715734 Y21.48984771573604 I0.4010152284263959 J0 F1500
G3 X22.65228426395939 Y21.360406091370557 I0.37055837563451777 J0.15228426395939088
G3 X22.78172588832487 Y21.27157360406091 I0.2817258883248731 J0.2817258883248731
G3 X22.934010152284262 Y21.241116751269033 I0.15228426395939088 J0.37055837563451777
G3 X23.088832487309645 Y21.27157360406091 I0 J0.4010152284263959
G3 X23.21827411167513 Y21.360406091370557 I-0.15228426395939088 J0.37055837563451777
G3 X23.304568527918782 Y21.48984771573604 I-0.2817258883248731 J0.2817258883248731
G3 X23.33502538071066 Y21.64213197969543 I-0.37055837563451777 J0.15228426395939088
G3 X23.304568527918782 Y21.794416243654823 I-0.4010152284263959 J0
G3 X23.21827411167513 Y21.923857868020306 I-0.37055837563451777 J-0.15228426395939088
G3 X23.088832487309645 Y22.01269035532995 I-0.2817258883248731 J-0.2817258883248731
G3 X22.934010152284262 Y22.04314720812183 I-0.15228426395939088 J-0.37055837563451777
G3 X22.78172588832487 Y22.01269035532995 I0 J-0.4010152284263959
G3 X22.65228426395939 Y21.923857868020306 I0.15228426395939088 J-0.37055837563451777
G3 X22.565989847715734 Y21.794416243654823 I0.2817258883248731 J-0.2817258883248731
G3 X22.535532994923855 Y21.64213197969543 I0.37055837563451777 J-0.15228426395939088
G0 Z8
G0 X7.094923857868021 Y10.522081218274112
G1 Z2.9 F800
G3 X7.1395939086294415 Y10.291878172588833 I0.5989847715736041 J0 F1500
G3 X7.271573604060913 Y10.098984771573605 I0.5532994923857868 J0.22842639593908629
G3 X7.464467005076142 Y9.967005076142133 I0.42385786802030456 J0.42385786802030456
G3 X7.695431472081218 Y9.921319796954315 I0.22842639593908629 J0.5532994923857868
G3 X7.9238578680203045 Y9.967005076142133 I0 J0.5989847715736041
G3 X8.119289340101524 Y10.098984771573605 I-0.22842639593908629 J0.5532994923857868
G3 X8.248730964467004 Y10.291878172588833 I-0.42385786802030456 J0.42385786802030456
G3 X8.294416243654823 Y10.522842639593907 I-0.5532994923857868 J0.22842639593908629
G3 X8.248730964467004 Y10.751269035532996 I-0.5989847715736041 J0
G3 X8.119289340101524 Y10.946700507614214 I-0.5532994923857868 J-0.22842639593908629
G3 X7.9238578680203045 Y11.076142131979696 I-0.42385786802030456 J-0.42385786802030456
G3 X7.695431472081218 Y11.121827411167512 I-0.22842639593908629 J-0.5532994923857868
G3 X7.464467005076142 Y11.076142131979696 I0 J-0.5989847715736041
G3 X7.271573604060913 Y10.946700507614214 I0.22842639593908629 J-0.5532994923857868
G3 X7.1395939086294415 Y10.751269035532996 I0.42385786802030456 J-0.42385786802030456
G3 X7.093908629441624 Y10.522842639593907 I0.5532994923857868 J-0.22842639593908629
G0 Z8
G0 X7.094923857868021 Y14.022081218274112
G1 Z2.9 F800
G3 X7.1395939086294415 Y13.79187817258883 I0.5989847715736041 J0 F1500
G3 X7.271573604060913 Y13.598984771573603 I0.5532994923857868 J0.22842639593908629
G3 X7.464467005076142 Y13.467005076142131 I0.42385786802030456 J0.42385786802030456
G3 X7.695431472081218 Y13.421319796954315 I0.22842639593908629 J0.5532994923857868
G3 X7.9238578680203045 Y13.467005076142131 I0 J0.5989847715736041
G3 X8.119289340101524 Y13.598984771573603 I-0.22842639593908629 J0.5532994923857868
G3 X8.248730964467004 Y13.79187817258883 I-0.42385786802030456 J0.42385786802030456
G3 X8.294416243654823 Y14.02284263959391 I-0.5532994923857868 J0.22842639593908629
G3 X8.248730964467004 Y14.251269035532994 I-0.5989847715736041 J0
G3 X8.119289340101524 Y14.446700507614214 I-0.5532994923857868 J-0.22842639593908629
G3 X7.9238578680203045 Y14.576142131979694 I-0.42385786802030456 J-0.42385786802030456
G3 X7.695431472081218 Y14.621827411167512 I-0.22842639593908629 J-0.5532994923857868
G3 X7.464467005076142 Y14.576142131979694 I0 J-0.5989847715736041
G3 X7.271573604060913 Y14.446700507614214 I0.22842639593908629 J-0.5532994923857868
G3 X7.1395939086294415 Y14.251269035532994 I0.42385786802030456 J-0.42385786802030456
G3 X7.093908629441624 Y14.02284263959391 I0.5532994923857868 J-0.22842639593908629
G0 Z8
G0 X7.094923857868021 Y18.141878172588832
G1 Z2.9 F800
G3 X7.1395939086294415 Y17.911167512690355 I0.5989847715736041 J0 F1500
G3 X7.271573604060913 Y17.71827411167513 I0.5532994923857868 J0.22842639593908629
G3 X7.464467005076142 Y17.588832487309645 I0.42385786802030456 J0.42385786802030456
G3 X7.695431472081218 Y17.543147208121827 I0.22842639593908629 J0.5532994923857868
G3 X7.9238578680203045 Y17.588832487309645 I0 J0.5989847715736041
G3 X8.119289340101524 Y17.71827411167513 I-0.22842639593908629 J0.5532994923857868
G3 X8.248730964467004 Y17.911167512690355 I-0.42385786802030456 J0.42385786802030456
G3 X8.294416243654823 Y18.14213197969543 I-0.5532994923857868 J0.22842639593908629
G3 X8.248730964467004 Y18.370558375634516 I-0.5989847715736041 J0
G3 X8.119289340101524 Y18.565989847715734 I-0.5532994923857868 J-0.22842639593908629
G3 X7.9238578680203045 Y18.695431472081218 I-0.42385786802030456 J-0.42385786802030456
G3 X7.695431472081218 Y18.741116751269036 I-0.22842639593908629 J-0.5532994923857868
G3 X7.464467005076142 Y18.695431472081218 I0 J-0.5989847715736041
G3 X7.271573604060913 Y18.565989847715734 I0.22842639593908629 J-0.5532994923857868
G3 X7.1395939086294415 Y18.370558375634516 I0.42385786802030456 J-0.42385786802030456
G3 X7.093908629441624 Y18.14213197969543 I0.5532994923857868 J-0.22842639593908629
G0 Z8
G0 X7.094923857868021 Y21.641878172588832
G1 Z2.9 F800
G3 X7.1395939086294415 Y21.411167512690355 I0.5989847715736041 J0 F1500
G3 X7.271573604060913 Y21.218274111675125 I0.5532994923857868 J0.22842639593908629
G3 X7.464467005076142 Y21.088832487309645 I0.42385786802030456 J0.42385786802030456
G3 X7.695431472081218 Y21.04314720812183 I0.22842639593908629 J0.5532994923857868
G3 X7.9238578680203045 Y21.088832487309645 I0 J0.5989847715736041
G3 X8.119289340101524 Y21.218274111675125 I-0.22842639593908629 J0.5532994923857868
G3 X8.248730964467004 Y21.411167512690355 I-0.42385786802030456 J0.42385786802030456
G3 X8.294416243654823 Y21.64213197969543 I-0.5532994923857868 J0.22842639593908629
G3 X8.248730964467004 Y21.87055837563452 I-0.5989847715736041 J0
G3 X8.119289340101524 Y22.065989847715738 I-0.5532994923857868 J-0.22842639593908629
G3 X7.9238578680203045 Y22.195431472081218 I-0.42385786802030456 J-0.42385786802030456
G3 X7.695431472081218 Y22.241116751269033 I-0.22842639593908629 J-0.5532994923857868
G3 X7.464467005076142 Y22.195431472081218 I0 J-0.5989847715736041
G3 X7.271573604060913 Y22.065989847715738 I0.22842639593908629 J-0.5532994923857868
G3 X7.1395939086294415 Y21.87055837563452 I0.42385786802030456 J-0.42385786802030456
G3 X7.093908629441624 Y21.64213197969543 I0.5532994923857868 J-0.22842639593908629
G0 Z8
M5
M30
