(Generated by PartKam Version 0.05)

G21 G90 G40

(follow path 1)
G0 Z5
T0 M6
G17
M3
G0 X10.530964467005075 Y31.751522842639595
G1 Z0.5 F800
G1 X55.91624365482233 Y31.751269035532992 F1500
G1 X55.91624365482233 Y9.49746192893401
G1 X10.530456852791879 Y9.49746192893401
G1 X10.530456852791879 Y31.751269035532992
G0 Z5
G0 X10.530964467005075 Y31.751522842639595
G1 Z-0.25 F800
G1 X55.91624365482233 Y31.751269035532992 F1500
G1 X55.91624365482233 Y9.49746192893401
G1 X10.530456852791879 Y9.49746192893401
G1 X10.530456852791879 Y31.751269035532992
G0 Z5
G0 X38.208375634517765 Y18.714213197969542
G1 Z0.5 F800
G1 X39.3502538071066 Y18.713197969543145 F1500
G1 X39.3502538071066 Y18.205583756345177
G1 X38.20812182741116 Y18.205583756345177
G1 X38.20812182741116 Y18.713197969543145
G0 Z5
G0 X38.208375634517765 Y18.714213197969542
G1 Z-0.25 F800
G1 X39.3502538071066 Y18.713197969543145 F1500
G1 X39.3502538071066 Y18.205583756345177
G1 X38.20812182741116 Y18.205583756345177
G1 X38.20812182741116 Y18.713197969543145
G0 Z5
G0 X38.208375634517765 Y17.444162436548222
G1 Z0.5 F800
G1 X39.3502538071066 Y17.444162436548222 F1500
G1 X39.3502538071066 Y16.936548223350254
G1 X38.20812182741116 Y16.936548223350254
G1 X38.20812182741116 Y17.444162436548222
G0 Z5
G0 X38.208375634517765 Y17.444162436548222
G1 Z-0.25 F800
G1 X39.3502538071066 Y17.444162436548222 F1500
G1 X39.3502538071066 Y16.936548223350254
G1 X38.20812182741116 Y16.936548223350254
G1 X38.20812182741116 Y17.444162436548222
G0 Z5
G0 X38.208375634517765 Y16.174111675126902
G1 Z0.5 F800
G1 X39.3502538071066 Y16.1751269035533 F1500
G1 X39.3502538071066 Y15.66497461928934
G1 X38.20812182741116 Y15.66497461928934
G1 X38.20812182741116 Y16.1751269035533
G0 Z5
G0 X38.208375634517765 Y16.174111675126902
G1 Z-0.25 F800
G1 X39.3502538071066 Y16.1751269035533 F1500
G1 X39.3502538071066 Y15.66497461928934
G1 X38.20812182741116 Y15.66497461928934
G1 X38.20812182741116 Y16.1751269035533
G0 Z5
G0 X38.208375634517765 Y14.904060913705584
G1 Z0.5 F800
G1 X39.3502538071066 Y14.903553299492385 F1500
G1 X39.3502538071066 Y14.395939086294415
G1 X38.20812182741116 Y14.395939086294415
G1 X38.20812182741116 Y14.903553299492385
G0 Z5
G0 X38.208375634517765 Y14.904060913705584
G1 Z-0.25 F800
G1 X39.3502538071066 Y14.903553299492385 F1500
G1 X39.3502538071066 Y14.395939086294415
G1 X38.20812182741116 Y14.395939086294415
G1 X38.20812182741116 Y14.903553299492385
G0 Z5
G0 X31.858375634517767 Y14.904060913705584
G1 Z0.5 F800
G1 X33.00253807106599 Y14.903553299492385 F1500
G1 X33.00253807106599 Y14.395939086294415
G1 X31.85786802030457 Y14.395939086294415
G1 X31.85786802030457 Y14.903553299492385
G0 Z5
G0 X31.858375634517767 Y14.904060913705584
G1 Z-0.25 F800
G1 X33.00253807106599 Y14.903553299492385 F1500
G1 X33.00253807106599 Y14.395939086294415
G1 X31.85786802030457 Y14.395939086294415
G1 X31.85786802030457 Y14.903553299492385
G0 Z5
G0 X31.858375634517767 Y16.174111675126902
G1 Z0.5 F800
G1 X33.00253807106599 Y16.1751269035533 F1500
G1 X33.00253807106599 Y15.66497461928934
G1 X31.85786802030457 Y15.66497461928934
G1 X31.85786802030457 Y16.1751269035533
G0 Z5
G0 X31.858375634517767 Y16.174111675126902
G1 Z-0.25 F800
G1 X33.00253807106599 Y16.1751269035533 F1500
G1 X33.00253807106599 Y15.66497461928934
G1 X31.85786802030457 Y15.66497461928934
G1 X31.85786802030457 Y16.1751269035533
G0 Z5
G0 X31.858375634517767 Y17.444162436548222
G1 Z0.5 F800
G1 X33.00253807106599 Y17.444162436548222 F1500
G1 X33.00253807106599 Y16.936548223350254
G1 X31.85786802030457 Y16.936548223350254
G1 X31.85786802030457 Y17.444162436548222
G0 Z5
G0 X31.858375634517767 Y17.444162436548222
G1 Z-0.25 F800
G1 X33.00253807106599 Y17.444162436548222 F1500
G1 X33.00253807106599 Y16.936548223350254
G1 X31.85786802030457 Y16.936548223350254
G1 X31.85786802030457 Y17.444162436548222
G0 Z5
G0 X31.858375634517767 Y18.714213197969542
G1 Z0.5 F800
G1 X33.00253807106599 Y18.713197969543145 F1500
G1 X33.00253807106599 Y18.205583756345177
G1 X31.85786802030457 Y18.205583756345177
G1 X31.85786802030457 Y18.713197969543145
G0 Z5
G0 X31.858375634517767 Y18.714213197969542
G1 Z-0.25 F800
G1 X33.00253807106599 Y18.713197969543145 F1500
G1 X33.00253807106599 Y18.205583756345177
G1 X31.85786802030457 Y18.205583756345177
G1 X31.85786802030457 Y18.713197969543145
G0 Z5
G0 X38.208375634517765 Y27.604060913705585
G1 Z0.5 F800
G1 X39.3502538071066 Y27.604060913705585 F1500
G1 X39.3502538071066 Y27.096446700507613
G1 X38.20812182741116 Y27.096446700507613
G1 X38.20812182741116 Y27.604060913705585
G0 Z5
G0 X38.208375634517765 Y27.604060913705585
G1 Z-0.25 F800
G1 X39.3502538071066 Y27.604060913705585 F1500
G1 X39.3502538071066 Y27.096446700507613
G1 X38.20812182741116 Y27.096446700507613
G1 X38.20812182741116 Y27.604060913705585
G0 Z5
G0 X38.208375634517765 Y26.334263959390864
G1 Z0.5 F800
G1 X39.3502538071066 Y26.33502538071066 F1500
G1 X39.3502538071066 Y25.82741116751269
G1 X38.20812182741116 Y25.82741116751269
G1 X38.20812182741116 Y26.33502538071066
G0 Z5
G0 X38.208375634517765 Y26.334263959390864
G1 Z-0.25 F800
G1 X39.3502538071066 Y26.33502538071066 F1500
G1 X39.3502538071066 Y25.82741116751269
G1 X38.20812182741116 Y25.82741116751269
G1 X38.20812182741116 Y26.33502538071066
G0 Z5
G0 X38.208375634517765 Y25.064213197969544
G1 Z0.5 F800
G1 X39.3502538071066 Y25.06345177664975 F1500
G1 X39.3502538071066 Y24.555837563451774
G1 X38.20812182741116 Y24.555837563451774
G1 X38.20812182741116 Y25.06345177664975
G0 Z5
G0 X38.208375634517765 Y25.064213197969544
G1 Z-0.25 F800
G1 X39.3502538071066 Y25.06345177664975 F1500
G1 X39.3502538071066 Y24.555837563451774
G1 X38.20812182741116 Y24.555837563451774
G1 X38.20812182741116 Y25.06345177664975
G0 Z5
G0 X38.208375634517765 Y23.794162436548223
G1 Z0.5 F800
G1 X39.3502538071066 Y23.794416243654823 F1500
G1 X39.3502538071066 Y23.286802030456855
G1 X38.20812182741116 Y23.286802030456855
G1 X38.20812182741116 Y23.794416243654823
G0 Z5
G0 X38.208375634517765 Y23.794162436548223
G1 Z-0.25 F800
G1 X39.3502538071066 Y23.794416243654823 F1500
G1 X39.3502538071066 Y23.286802030456855
G1 X38.20812182741116 Y23.286802030456855
G1 X38.20812182741116 Y23.794416243654823
G0 Z5
G0 X31.858375634517767 Y23.794162436548223
G1 Z0.5 F800
G1 X33.00253807106599 Y23.794416243654823 F1500
G1 X33.00253807106599 Y23.286802030456855
G1 X31.85786802030457 Y23.286802030456855
G1 X31.85786802030457 Y23.794416243654823
G0 Z5
G0 X31.858375634517767 Y23.794162436548223
G1 Z-0.25 F800
G1 X33.00253807106599 Y23.794416243654823 F1500
G1 X33.00253807106599 Y23.286802030456855
G1 X31.85786802030457 Y23.286802030456855
G1 X31.85786802030457 Y23.794416243654823
G0 Z5
G0 X31.858375634517767 Y25.064213197969544
G1 Z0.5 F800
G1 X33.00253807106599 Y25.06345177664975 F1500
G1 X33.00253807106599 Y24.555837563451774
G1 X31.85786802030457 Y24.555837563451774
G1 X31.85786802030457 Y25.06345177664975
G0 Z5
G0 X31.858375634517767 Y25.064213197969544
G1 Z-0.25 F800
G1 X33.00253807106599 Y25.06345177664975 F1500
G1 X33.00253807106599 Y24.555837563451774
G1 X31.85786802030457 Y24.555837563451774
G1 X31.85786802030457 Y25.06345177664975
G0 Z5
G0 X31.858375634517767 Y26.334263959390864
G1 Z0.5 F800
G1 X33.00253807106599 Y26.33502538071066 F1500
G1 X33.00253807106599 Y25.82741116751269
G1 X31.85786802030457 Y25.82741116751269
G1 X31.85786802030457 Y26.33502538071066
G0 Z5
G0 X31.858375634517767 Y26.334263959390864
G1 Z-0.25 F800
G1 X33.00253807106599 Y26.33502538071066 F1500
G1 X33.00253807106599 Y25.82741116751269
G1 X31.85786802030457 Y25.82741116751269
G1 X31.85786802030457 Y26.33502538071066
G0 Z5
G0 X31.858375634517767 Y27.604060913705585
G1 Z0.5 F800
G1 X33.00253807106599 Y27.604060913705585 F1500
G1 X33.00253807106599 Y27.096446700507613
G1 X31.85786802030457 Y27.096446700507613
G1 X31.85786802030457 Y27.604060913705585
G0 Z5
G0 X31.858375634517767 Y27.604060913705585
G1 Z-0.25 F800
G1 X33.00253807106599 Y27.604060913705585 F1500
G1 X33.00253807106599 Y27.096446700507613
G1 X31.85786802030457 Y27.096446700507613
G1 X31.85786802030457 Y27.604060913705585
G0 Z5
G0 X43.9248730964467 Y16.55507614213198
G1 Z0.5 F800
G2 X43.9010152284264 Y16.373096446700508 I-0.7005076142131981 J0 F1500
G2 X43.82994923857868 Y16.205583756345177 I-0.6751269035532994 J0.1802030456852792
G2 X43.72081218274111 Y16.060913705583758 I-0.6065989847715736 J0.35025380710659904
G2 X43.5736040609137 Y15.949238578680202 I-0.49492385786802034 J0.49492385786802034
G2 X43.40609137055837 Y15.878172588832486 I-0.35025380710659904 J0.6065989847715736
G2 X43.2258883248731 Y15.855329949238579 I-0.1802030456852792 J0.6751269035532994
G2 X43.04314720812183 Y15.878172588832486 I0 J0.7005076142131981
G2 X42.87563451776649 Y15.949238578680202 I0.1802030456852792 J0.6751269035532994
G2 X42.73096446700507 Y16.060913705583758 I0.35025380710659904 J0.6065989847715736
G2 X42.61928934010152 Y16.205583756345177 I0.49492385786802034 J0.49492385786802034
G2 X42.54822335025381 Y16.373096446700508 I0.6065989847715736 J0.35025380710659904
G2 X42.5253807106599 Y16.555837563451774 I0.6751269035532994 J0.1802030456852792
G2 X42.57868020304569 Y16.82233502538071 I0.7005076142131981 J0
G2 X42.73096446700507 Y17.050761421319798 I0.6472081218274112 J-0.2690355329949239
G2 X42.95685279187818 Y17.20304568527919 I0.49492385786802034 J-0.49492385786802034
G2 X43.2258883248731 Y17.256345177664976 I0.2690355329949239 J-0.6472081218274112
G2 X43.49238578680203 Y17.20304568527919 I0 J-0.7005076142131981
G2 X43.72081218274111 Y17.050761421319798 I-0.2690355329949239 J-0.6472081218274112
G2 X43.870558375634516 Y16.82233502538071 I-0.49492385786802034 J-0.49492385786802034
G2 X43.923857868020306 Y16.555837563451774 I-0.6472081218274112 J-0.2690355329949239
G0 Z5
G0 X43.9248730964467 Y16.55507614213198
G1 Z-0.25 F800
G2 X43.9010152284264 Y16.373096446700508 I-0.7005076142131981 J0 F1500
G2 X43.82994923857868 Y16.205583756345177 I-0.6751269035532994 J0.1802030456852792
G2 X43.72081218274111 Y16.060913705583758 I-0.6065989847715736 J0.35025380710659904
G2 X43.5736040609137 Y15.949238578680202 I-0.49492385786802034 J0.49492385786802034
G2 X43.40609137055837 Y15.878172588832486 I-0.35025380710659904 J0.6065989847715736
G2 X43.2258883248731 Y15.855329949238579 I-0.1802030456852792 J0.6751269035532994
G2 X43.04314720812183 Y15.878172588832486 I0 J0.7005076142131981
G2 X42.87563451776649 Y15.949238578680202 I0.1802030456852792 J0.6751269035532994
G2 X42.73096446700507 Y16.060913705583758 I0.35025380710659904 J0.6065989847715736
G2 X42.61928934010152 Y16.205583756345177 I0.49492385786802034 J0.49492385786802034
G2 X42.54822335025381 Y16.373096446700508 I0.6065989847715736 J0.35025380710659904
G2 X42.5253807106599 Y16.555837563451774 I0.6751269035532994 J0.1802030456852792
G2 X42.57868020304569 Y16.82233502538071 I0.7005076142131981 J0
G2 X42.73096446700507 Y17.050761421319798 I0.6472081218274112 J-0.2690355329949239
G2 X42.95685279187818 Y17.20304568527919 I0.49492385786802034 J-0.49492385786802034
G2 X43.2258883248731 Y17.256345177664976 I0.2690355329949239 J-0.6472081218274112
G2 X43.49238578680203 Y17.20304568527919 I0 J-0.7005076142131981
G2 X43.72081218274111 Y17.050761421319798 I-0.2690355329949239 J-0.6472081218274112
G2 X43.870558375634516 Y16.82233502538071 I-0.49492385786802034 J-0.49492385786802034
G2 X43.923857868020306 Y16.555837563451774 I-0.6472081218274112 J-0.2690355329949239
G0 Z5
G0 X46.4248730964467 Y16.55507614213198
G1 Z0.5 F800
G2 X46.370558375634516 Y16.286802030456855 I-0.7005076142131981 J0 F1500
G2 X46.22081218274111 Y16.060913705583758 I-0.6472081218274112 J0.2690355329949239
G2 X45.99238578680203 Y15.908629441624365 I-0.49492385786802034 J0.49492385786802034
G2 X45.7258883248731 Y15.855329949238579 I-0.2690355329949239 J0.6472081218274112
G2 X45.45685279187818 Y15.908629441624365 I0 J0.7005076142131981
G2 X45.23096446700507 Y16.060913705583758 I0.2690355329949239 J0.6472081218274112
G2 X45.07868020304569 Y16.286802030456855 I0.49492385786802034 J0.49492385786802034
G2 X45.0253807106599 Y16.555837563451774 I0.6472081218274112 J0.2690355329949239
G2 X45.07868020304569 Y16.82233502538071 I0.7005076142131981 J0
G2 X45.23096446700507 Y17.050761421319798 I0.6472081218274112 J-0.2690355329949239
G2 X45.45685279187818 Y17.20304568527919 I0.49492385786802034 J-0.49492385786802034
G2 X45.7258883248731 Y17.256345177664976 I0.2690355329949239 J-0.6472081218274112
G2 X45.99238578680203 Y17.20304568527919 I0 J-0.7005076142131981
G2 X46.22081218274111 Y17.050761421319798 I-0.2690355329949239 J-0.6472081218274112
G2 X46.370558375634516 Y16.82233502538071 I-0.49492385786802034 J-0.49492385786802034
G2 X46.423857868020306 Y16.555837563451774 I-0.6472081218274112 J-0.2690355329949239
G0 Z5
G0 X46.4248730964467 Y16.55507614213198
G1 Z-0.25 F800
G2 X46.370558375634516 Y16.286802030456855 I-0.7005076142131981 J0 F1500
G2 X46.22081218274111 Y16.060913705583758 I-0.6472081218274112 J0.2690355329949239
G2 X45.99238578680203 Y15.908629441624365 I-0.49492385786802034 J0.49492385786802034
G2 X45.7258883248731 Y15.855329949238579 I-0.2690355329949239 J0.6472081218274112
G2 X45.45685279187818 Y15.908629441624365 I0 J0.7005076142131981
G2 X45.23096446700507 Y16.060913705583758 I0.2690355329949239 J0.6472081218274112
G2 X45.07868020304569 Y16.286802030456855 I0.49492385786802034 J0.49492385786802034
G2 X45.0253807106599 Y16.555837563451774 I0.6472081218274112 J0.2690355329949239
G2 X45.07868020304569 Y16.82233502538071 I0.7005076142131981 J0
G2 X45.23096446700507 Y17.050761421319798 I0.6472081218274112 J-0.2690355329949239
G2 X45.45685279187818 Y17.20304568527919 I0.49492385786802034 J-0.49492385786802034
G2 X45.7258883248731 Y17.256345177664976 I0.2690355329949239 J-0.6472081218274112
G2 X45.99238578680203 Y17.20304568527919 I0 J-0.7005076142131981
G2 X46.22081218274111 Y17.050761421319798 I-0.2690355329949239 J-0.6472081218274112
G2 X46.370558375634516 Y16.82233502538071 I-0.49492385786802034 J-0.49492385786802034
G2 X46.423857868020306 Y16.555837563451774 I-0.6472081218274112 J-0.2690355329949239
G0 Z5
G0 X43.9248730964467 Y25.44517766497462
G1 Z0.5 F800
G2 X43.870558375634516 Y25.17766497461929 I-0.7005076142131981 J0 F1500
G2 X43.72081218274111 Y24.949238578680202 I-0.6472081218274112 J0.2690355329949239
G2 X43.49238578680203 Y24.799492385786802 I-0.49492385786802034 J0.49492385786802034
G2 X43.2258883248731 Y24.746192893401012 I-0.2690355329949239 J0.6472081218274112
G2 X42.95685279187818 Y24.799492385786802 I0 J0.7005076142131981
G2 X42.73096446700507 Y24.949238578680202 I0.2690355329949239 J0.6472081218274112
G2 X42.57868020304569 Y25.17766497461929 I0.49492385786802034 J0.49492385786802034
G2 X42.5253807106599 Y25.444162436548226 I0.6472081218274112 J0.2690355329949239
G2 X42.57868020304569 Y25.71319796954315 I0.7005076142131981 J0
G2 X42.73096446700507 Y25.939086294416246 I0.6472081218274112 J-0.2690355329949239
G2 X42.95685279187818 Y26.091370558375637 I0.49492385786802034 J-0.49492385786802034
G2 X43.2258883248731 Y26.14467005076142 I0.2690355329949239 J-0.6472081218274112
G2 X43.49238578680203 Y26.091370558375637 I0 J-0.7005076142131981
G2 X43.72081218274111 Y25.939086294416246 I-0.2690355329949239 J-0.6472081218274112
G2 X43.870558375634516 Y25.71319796954315 I-0.49492385786802034 J-0.49492385786802034
G2 X43.923857868020306 Y25.444162436548226 I-0.6472081218274112 J-0.2690355329949239
G0 Z5
G0 X43.9248730964467 Y25.44517766497462
G1 Z-0.25 F800
G2 X43.870558375634516 Y25.17766497461929 I-0.7005076142131981 J0 F1500
G2 X43.72081218274111 Y24.949238578680202 I-0.6472081218274112 J0.2690355329949239
G2 X43.49238578680203 Y24.799492385786802 I-0.49492385786802034 J0.49492385786802034
G2 X43.2258883248731 Y24.746192893401012 I-0.2690355329949239 J0.6472081218274112
G2 X42.95685279187818 Y24.799492385786802 I0 J0.7005076142131981
G2 X42.73096446700507 Y24.949238578680202 I0.2690355329949239 J0.6472081218274112
G2 X42.57868020304569 Y25.17766497461929 I0.49492385786802034 J0.49492385786802034
G2 X42.5253807106599 Y25.444162436548226 I0.6472081218274112 J0.2690355329949239
G2 X42.57868020304569 Y25.71319796954315 I0.7005076142131981 J0
G2 X42.73096446700507 Y25.939086294416246 I0.6472081218274112 J-0.2690355329949239
G2 X42.95685279187818 Y26.091370558375637 I0.49492385786802034 J-0.49492385786802034
G2 X43.2258883248731 Y26.14467005076142 I0.2690355329949239 J-0.6472081218274112
G2 X43.49238578680203 Y26.091370558375637 I0 J-0.7005076142131981
G2 X43.72081218274111 Y25.939086294416246 I-0.2690355329949239 J-0.6472081218274112
G2 X43.870558375634516 Y25.71319796954315 I-0.49492385786802034 J-0.49492385786802034
G2 X43.923857868020306 Y25.444162436548226 I-0.6472081218274112 J-0.2690355329949239
G0 Z5
G0 X46.4248730964467 Y25.44517766497462
G1 Z0.5 F800
G2 X46.370558375634516 Y25.17766497461929 I-0.7005076142131981 J0 F1500
G2 X46.22081218274111 Y24.949238578680202 I-0.6472081218274112 J0.2690355329949239
G2 X45.99238578680203 Y24.799492385786802 I-0.49492385786802034 J0.49492385786802034
G2 X45.7258883248731 Y24.746192893401012 I-0.2690355329949239 J0.6472081218274112
G2 X45.45685279187818 Y24.799492385786802 I0 J0.7005076142131981
G2 X45.23096446700507 Y24.949238578680202 I0.2690355329949239 J0.6472081218274112
G2 X45.07868020304569 Y25.17766497461929 I0.49492385786802034 J0.49492385786802034
G2 X45.0253807106599 Y25.444162436548226 I0.6472081218274112 J0.2690355329949239
G2 X45.07868020304569 Y25.71319796954315 I0.7005076142131981 J0
G2 X45.23096446700507 Y25.939086294416246 I0.6472081218274112 J-0.2690355329949239
G2 X45.45685279187818 Y26.091370558375637 I0.49492385786802034 J-0.49492385786802034
G2 X45.7258883248731 Y26.14467005076142 I0.2690355329949239 J-0.6472081218274112
G2 X45.99238578680203 Y26.091370558375637 I0 J-0.7005076142131981
G2 X46.22081218274111 Y25.939086294416246 I-0.2690355329949239 J-0.6472081218274112
G2 X46.370558375634516 Y25.71319796954315 I-0.49492385786802034 J-0.49492385786802034
G2 X46.423857868020306 Y25.444162436548226 I-0.6472081218274112 J-0.2690355329949239
G0 Z5
G0 X46.4248730964467 Y25.44517766497462
G1 Z-0.25 F800
G2 X46.370558375634516 Y25.17766497461929 I-0.7005076142131981 J0 F1500
G2 X46.22081218274111 Y24.949238578680202 I-0.6472081218274112 J0.2690355329949239
G2 X45.99238578680203 Y24.799492385786802 I-0.49492385786802034 J0.49492385786802034
G2 X45.7258883248731 Y24.746192893401012 I-0.2690355329949239 J0.6472081218274112
G2 X45.45685279187818 Y24.799492385786802 I0 J0.7005076142131981
G2 X45.23096446700507 Y24.949238578680202 I0.2690355329949239 J0.6472081218274112
G2 X45.07868020304569 Y25.17766497461929 I0.49492385786802034 J0.49492385786802034
G2 X45.0253807106599 Y25.444162436548226 I0.6472081218274112 J0.2690355329949239
G2 X45.07868020304569 Y25.71319796954315 I0.7005076142131981 J0
G2 X45.23096446700507 Y25.939086294416246 I0.6472081218274112 J-0.2690355329949239
G2 X45.45685279187818 Y26.091370558375637 I0.49492385786802034 J-0.49492385786802034
G2 X45.7258883248731 Y26.14467005076142 I0.2690355329949239 J-0.6472081218274112
G2 X45.99238578680203 Y26.091370558375637 I0 J-0.7005076142131981
G2 X46.22081218274111 Y25.939086294416246 I-0.2690355329949239 J-0.6472081218274112
G2 X46.370558375634516 Y25.71319796954315 I-0.49492385786802034 J-0.49492385786802034
G2 X46.423857868020306 Y25.444162436548226 I-0.6472081218274112 J-0.2690355329949239
G0 Z5
G0 X54.58477157360406 Y25.75507614213198
G1 Z0.5 F800
G2 X54.492385786802025 Y25.296954314720814 I-1.2005076142131978 J0 F1500
G2 X54.23350253807107 Y24.906091370558375 I-1.1091370558375635 J0.4593908629441624
G2 X53.845177664974614 Y24.64720812182741 I-0.8477157360406091 J0.8477157360406091
G2 X53.38578680203046 Y24.555837563451774 I-0.4593908629441624 J1.1091370558375635
G2 X52.92639593908629 Y24.64720812182741 I0 J1.2005076142131978
G2 X52.535532994923855 Y24.906091370558375 I0.4593908629441624 J1.1091370558375635
G2 X52.27664974619289 Y25.296954314720814 I0.8477157360406091 J0.8477157360406091
G2 X52.18527918781726 Y25.753807106598984 I1.1091370558375635 J0.4593908629441624
G2 X52.27664974619289 Y26.213197969543145 I1.2005076142131978 J0
G2 X52.535532994923855 Y26.60406091370558 I1.1091370558375635 J-0.4593908629441624
G2 X52.92639593908629 Y26.86294416243655 I0.8477157360406091 J-0.8477157360406091
G2 X53.38578680203046 Y26.95431472081218 I0.4593908629441624 J-1.1091370558375635
G2 X53.845177664974614 Y26.86294416243655 I0 J-1.2005076142131978
G2 X54.23350253807107 Y26.60406091370558 I-0.4593908629441624 J-1.1091370558375635
G2 X54.492385786802025 Y26.213197969543145 I-0.8477157360406091 J-0.8477157360406091
G2 X54.58375634517766 Y25.753807106598984 I-1.1091370558375635 J-0.4593908629441624
G0 Z5
G0 X54.58477157360406 Y25.75507614213198
G1 Z-0.25 F800
G2 X54.492385786802025 Y25.296954314720814 I-1.2005076142131978 J0 F1500
G2 X54.23350253807107 Y24.906091370558375 I-1.1091370558375635 J0.4593908629441624
G2 X53.845177664974614 Y24.64720812182741 I-0.8477157360406091 J0.8477157360406091
G2 X53.38578680203046 Y24.555837563451774 I-0.4593908629441624 J1.1091370558375635
G2 X52.92639593908629 Y24.64720812182741 I0 J1.2005076142131978
G2 X52.535532994923855 Y24.906091370558375 I0.4593908629441624 J1.1091370558375635
G2 X52.27664974619289 Y25.296954314720814 I0.8477157360406091 J0.8477157360406091
G2 X52.18527918781726 Y25.753807106598984 I1.1091370558375635 J0.4593908629441624
G2 X52.27664974619289 Y26.213197969543145 I1.2005076142131978 J0
G2 X52.535532994923855 Y26.60406091370558 I1.1091370558375635 J-0.4593908629441624
G2 X52.92639593908629 Y26.86294416243655 I0.8477157360406091 J-0.8477157360406091
G2 X53.38578680203046 Y26.95431472081218 I0.4593908629441624 J-1.1091370558375635
G2 X53.845177664974614 Y26.86294416243655 I0 J-1.2005076142131978
G2 X54.23350253807107 Y26.60406091370558 I-0.4593908629441624 J-1.1091370558375635
G2 X54.492385786802025 Y26.213197969543145 I-0.8477157360406091 J-0.8477157360406091
G2 X54.58375634517766 Y25.753807106598984 I-1.1091370558375635 J-0.4593908629441624
G0 Z5
G0 X52.18350253807107 Y30.456598984771574
G1 Z0.5 F800
G1 X54.58375634517766 Y30.45685279187817 F1500
G1 X54.58375634517766 Y28.055837563451774
G1 X52.182741116751274 Y28.055837563451774
G1 X52.182741116751274 Y30.45685279187817
G0 Z5
G0 X52.18350253807107 Y30.456598984771574
G1 Z-0.25 F800
G1 X54.58375634517766 Y30.45685279187817 F1500
G1 X54.58375634517766 Y28.055837563451774
G1 X52.182741116751274 Y28.055837563451774
G1 X52.182741116751274 Y30.45685279187817
G0 Z5
G0 X54.58477157360406 Y22.25507614213198
G1 Z0.5 F800
G2 X54.492385786802025 Y21.796954314720814 I-1.2005076142131978 J0 F1500
G2 X54.23350253807107 Y21.40609137055838 I-1.1091370558375635 J0.4593908629441624
G2 X53.845177664974614 Y21.14720812182741 I-0.8477157360406091 J0.8477157360406091
G2 X53.38578680203046 Y21.055837563451778 I-0.4593908629441624 J1.1091370558375635
G2 X52.92639593908629 Y21.14720812182741 I0 J1.2005076142131978
G2 X52.535532994923855 Y21.40609137055838 I0.4593908629441624 J1.1091370558375635
G2 X52.27664974619289 Y21.796954314720814 I0.8477157360406091 J0.8477157360406091
G2 X52.18527918781726 Y22.256345177664976 I1.1091370558375635 J0.4593908629441624
G2 X52.27664974619289 Y22.713197969543145 I1.2005076142131978 J0
G2 X52.535532994923855 Y23.10406091370558 I1.1091370558375635 J-0.4593908629441624
G2 X52.92639593908629 Y23.36294416243655 I0.8477157360406091 J-0.8477157360406091
G2 X53.38578680203046 Y23.45431472081218 I0.4593908629441624 J-1.1091370558375635
G2 X53.845177664974614 Y23.36294416243655 I0 J-1.2005076142131978
G2 X54.23350253807107 Y23.10406091370558 I-0.4593908629441624 J-1.1091370558375635
G2 X54.492385786802025 Y22.713197969543145 I-0.8477157360406091 J-0.8477157360406091
G2 X54.58375634517766 Y22.256345177664976 I-1.1091370558375635 J-0.4593908629441624
G0 Z5
G0 X54.58477157360406 Y22.25507614213198
G1 Z-0.25 F800
G2 X54.492385786802025 Y21.796954314720814 I-1.2005076142131978 J0 F1500
G2 X54.23350253807107 Y21.40609137055838 I-1.1091370558375635 J0.4593908629441624
G2 X53.845177664974614 Y21.14720812182741 I-0.8477157360406091 J0.8477157360406091
G2 X53.38578680203046 Y21.055837563451778 I-0.4593908629441624 J1.1091370558375635
G2 X52.92639593908629 Y21.14720812182741 I0 J1.2005076142131978
G2 X52.535532994923855 Y21.40609137055838 I0.4593908629441624 J1.1091370558375635
G2 X52.27664974619289 Y21.796954314720814 I0.8477157360406091 J0.8477157360406091
G2 X52.18527918781726 Y22.256345177664976 I1.1091370558375635 J0.4593908629441624
G2 X52.27664974619289 Y22.713197969543145 I1.2005076142131978 J0
G2 X52.535532994923855 Y23.10406091370558 I1.1091370558375635 J-0.4593908629441624
G2 X52.92639593908629 Y23.36294416243655 I0.8477157360406091 J-0.8477157360406091
G2 X53.38578680203046 Y23.45431472081218 I0.4593908629441624 J-1.1091370558375635
G2 X53.845177664974614 Y23.36294416243655 I0 J-1.2005076142131978
G2 X54.23350253807107 Y23.10406091370558 I-0.4593908629441624 J-1.1091370558375635
G2 X54.492385786802025 Y22.713197969543145 I-0.8477157360406091 J-0.8477157360406091
G2 X54.58375634517766 Y22.256345177664976 I-1.1091370558375635 J-0.4593908629441624
G0 Z5
G0 X54.58477157360406 Y18.75507614213198
G1 Z0.5 F800
G2 X54.492385786802025 Y18.296954314720814 I-1.2005076142131978 J0 F1500
G2 X54.23350253807107 Y17.906091370558375 I-1.1091370558375635 J0.4593908629441624
G2 X53.845177664974614 Y17.64720812182741 I-0.8477157360406091 J0.8477157360406091
G2 X53.38578680203046 Y17.555837563451778 I-0.4593908629441624 J1.1091370558375635
G2 X52.92639593908629 Y17.64720812182741 I0 J1.2005076142131978
G2 X52.535532994923855 Y17.906091370558375 I0.4593908629441624 J1.1091370558375635
G2 X52.27664974619289 Y18.296954314720814 I0.8477157360406091 J0.8477157360406091
G2 X52.18527918781726 Y18.753807106598984 I1.1091370558375635 J0.4593908629441624
G2 X52.27664974619289 Y19.21319796954315 I1.2005076142131978 J0
G2 X52.535532994923855 Y19.604060913705585 I1.1091370558375635 J-0.4593908629441624
G2 X52.92639593908629 Y19.86294416243655 I0.8477157360406091 J-0.8477157360406091
G2 X53.38578680203046 Y19.95431472081218 I0.4593908629441624 J-1.1091370558375635
G2 X53.845177664974614 Y19.86294416243655 I0 J-1.2005076142131978
G2 X54.23350253807107 Y19.604060913705585 I-0.4593908629441624 J-1.1091370558375635
G2 X54.492385786802025 Y19.21319796954315 I-0.8477157360406091 J-0.8477157360406091
G2 X54.58375634517766 Y18.753807106598984 I-1.1091370558375635 J-0.4593908629441624
G0 Z5
G0 X54.58477157360406 Y18.75507614213198
G1 Z-0.25 F800
G2 X54.492385786802025 Y18.296954314720814 I-1.2005076142131978 J0 F1500
G2 X54.23350253807107 Y17.906091370558375 I-1.1091370558375635 J0.4593908629441624
G2 X53.845177664974614 Y17.64720812182741 I-0.8477157360406091 J0.8477157360406091
G2 X53.38578680203046 Y17.555837563451778 I-0.4593908629441624 J1.1091370558375635
G2 X52.92639593908629 Y17.64720812182741 I0 J1.2005076142131978
G2 X52.535532994923855 Y17.906091370558375 I0.4593908629441624 J1.1091370558375635
G2 X52.27664974619289 Y18.296954314720814 I0.8477157360406091 J0.8477157360406091
G2 X52.18527918781726 Y18.753807106598984 I1.1091370558375635 J0.4593908629441624
G2 X52.27664974619289 Y19.21319796954315 I1.2005076142131978 J0
G2 X52.535532994923855 Y19.604060913705585 I1.1091370558375635 J-0.4593908629441624
G2 X52.92639593908629 Y19.86294416243655 I0.8477157360406091 J-0.8477157360406091
G2 X53.38578680203046 Y19.95431472081218 I0.4593908629441624 J-1.1091370558375635
G2 X53.845177664974614 Y19.86294416243655 I0 J-1.2005076142131978
G2 X54.23350253807107 Y19.604060913705585 I-0.4593908629441624 J-1.1091370558375635
G2 X54.492385786802025 Y19.21319796954315 I-0.8477157360406091 J-0.8477157360406091
G2 X54.58375634517766 Y18.753807106598984 I-1.1091370558375635 J-0.4593908629441624
G0 Z5
G0 X54.58477157360406 Y15.25507614213198
G1 Z0.5 F800
G2 X54.492385786802025 Y14.79695431472081 I-1.2005076142131978 J0 F1500
G2 X54.23350253807107 Y14.406091370558375 I-1.1091370558375635 J0.4593908629441624
G2 X53.845177664974614 Y14.147208121827411 I-0.8477157360406091 J0.8477157360406091
G2 X53.38578680203046 Y14.055837563451776 I-0.4593908629441624 J1.1091370558375635
G2 X52.92639593908629 Y14.147208121827411 I0 J1.2005076142131978
G2 X52.535532994923855 Y14.406091370558375 I0.4593908629441624 J1.1091370558375635
G2 X52.27664974619289 Y14.79695431472081 I0.8477157360406091 J0.8477157360406091
G2 X52.18527918781726 Y15.256345177664974 I1.1091370558375635 J0.4593908629441624
G2 X52.27664974619289 Y15.713197969543147 I1.2005076142131978 J0
G2 X52.535532994923855 Y16.104060913705585 I1.1091370558375635 J-0.4593908629441624
G2 X52.92639593908629 Y16.36294416243655 I0.8477157360406091 J-0.8477157360406091
G2 X53.38578680203046 Y16.45431472081218 I0.4593908629441624 J-1.1091370558375635
G2 X53.845177664974614 Y16.36294416243655 I0 J-1.2005076142131978
G2 X54.23350253807107 Y16.104060913705585 I-0.4593908629441624 J-1.1091370558375635
G2 X54.492385786802025 Y15.713197969543147 I-0.8477157360406091 J-0.8477157360406091
G2 X54.58375634517766 Y15.256345177664974 I-1.1091370558375635 J-0.4593908629441624
G0 Z5
G0 X54.58477157360406 Y15.25507614213198
G1 Z-0.25 F800
G2 X54.492385786802025 Y14.79695431472081 I-1.2005076142131978 J0 F1500
G2 X54.23350253807107 Y14.406091370558375 I-1.1091370558375635 J0.4593908629441624
G2 X53.845177664974614 Y14.147208121827411 I-0.8477157360406091 J0.8477157360406091
G2 X53.38578680203046 Y14.055837563451776 I-0.4593908629441624 J1.1091370558375635
G2 X52.92639593908629 Y14.147208121827411 I0 J1.2005076142131978
G2 X52.535532994923855 Y14.406091370558375 I0.4593908629441624 J1.1091370558375635
G2 X52.27664974619289 Y14.79695431472081 I0.8477157360406091 J0.8477157360406091
G2 X52.18527918781726 Y15.256345177664974 I1.1091370558375635 J0.4593908629441624
G2 X52.27664974619289 Y15.713197969543147 I1.2005076142131978 J0
G2 X52.535532994923855 Y16.104060913705585 I1.1091370558375635 J-0.4593908629441624
G2 X52.92639593908629 Y16.36294416243655 I0.8477157360406091 J-0.8477157360406091
G2 X53.38578680203046 Y16.45431472081218 I0.4593908629441624 J-1.1091370558375635
G2 X53.845177664974614 Y16.36294416243655 I0 J-1.2005076142131978
G2 X54.23350253807107 Y16.104060913705585 I-0.4593908629441624 J-1.1091370558375635
G2 X54.492385786802025 Y15.713197969543147 I-0.8477157360406091 J-0.8477157360406091
G2 X54.58375634517766 Y15.256345177664974 I-1.1091370558375635 J-0.4593908629441624
G0 Z5
G0 X54.58477157360406 Y11.75507614213198
G1 Z0.5 F800
G2 X54.492385786802025 Y11.296954314720812 I-1.2005076142131978 J0 F1500
G2 X54.23350253807107 Y10.906091370558375 I-1.1091370558375635 J0.4593908629441624
G2 X53.845177664974614 Y10.647208121827411 I-0.8477157360406091 J0.8477157360406091
G2 X53.38578680203046 Y10.555837563451778 I-0.4593908629441624 J1.1091370558375635
G2 X52.92639593908629 Y10.647208121827411 I0 J1.2005076142131978
G2 X52.535532994923855 Y10.906091370558375 I0.4593908629441624 J1.1091370558375635
G2 X52.27664974619289 Y11.296954314720812 I0.8477157360406091 J0.8477157360406091
G2 X52.18527918781726 Y11.753807106598986 I1.1091370558375635 J0.4593908629441624
G2 X52.27664974619289 Y12.213197969543149 I1.2005076142131978 J0
G2 X52.535532994923855 Y12.604060913705585 I1.1091370558375635 J-0.4593908629441624
G2 X52.92639593908629 Y12.862944162436548 I0.8477157360406091 J-0.8477157360406091
G2 X53.38578680203046 Y12.954314720812183 I0.4593908629441624 J-1.1091370558375635
G2 X53.845177664974614 Y12.862944162436548 I0 J-1.2005076142131978
G2 X54.23350253807107 Y12.604060913705585 I-0.4593908629441624 J-1.1091370558375635
G2 X54.492385786802025 Y12.213197969543149 I-0.8477157360406091 J-0.8477157360406091
G2 X54.58375634517766 Y11.753807106598986 I-1.1091370558375635 J-0.4593908629441624
G0 Z5
G0 X54.58477157360406 Y11.75507614213198
G1 Z-0.25 F800
G2 X54.492385786802025 Y11.296954314720812 I-1.2005076142131978 J0 F1500
G2 X54.23350253807107 Y10.906091370558375 I-1.1091370558375635 J0.4593908629441624
G2 X53.845177664974614 Y10.647208121827411 I-0.8477157360406091 J0.8477157360406091
G2 X53.38578680203046 Y10.555837563451778 I-0.4593908629441624 J1.1091370558375635
G2 X52.92639593908629 Y10.647208121827411 I0 J1.2005076142131978
G2 X52.535532994923855 Y10.906091370558375 I0.4593908629441624 J1.1091370558375635
G2 X52.27664974619289 Y11.296954314720812 I0.8477157360406091 J0.8477157360406091
G2 X52.18527918781726 Y11.753807106598986 I1.1091370558375635 J0.4593908629441624
G2 X52.27664974619289 Y12.213197969543149 I1.2005076142131978 J0
G2 X52.535532994923855 Y12.604060913705585 I1.1091370558375635 J-0.4593908629441624
G2 X52.92639593908629 Y12.862944162436548 I0.8477157360406091 J-0.8477157360406091
G2 X53.38578680203046 Y12.954314720812183 I0.4593908629441624 J-1.1091370558375635
G2 X53.845177664974614 Y12.862944162436548 I0 J-1.2005076142131978
G2 X54.23350253807107 Y12.604060913705585 I-0.4593908629441624 J-1.1091370558375635
G2 X54.492385786802025 Y12.213197969543149 I-0.8477157360406091 J-0.8477157360406091
G2 X54.58375634517766 Y11.753807106598986 I-1.1091370558375635 J-0.4593908629441624
G0 Z5
G0 X21.16497461928934 Y15.28527918781726
G1 Z0.5 F800
G2 X21.104060913705585 Y14.979695431472082 I-0.799492385786802 J0 F1500
G2 X20.931472081218274 Y14.718274111675127 I-0.7385786802030457 J0.3071065989847716
G2 X20.670050761421322 Y14.545685279187817 I-0.565989847715736 J0.565989847715736
G2 X20.365482233502537 Y14.48477157360406 I-0.3071065989847716 J0.7385786802030457
G2 X20.058375634517766 Y14.545685279187817 I0 J0.799492385786802
G2 X19.799492385786802 Y14.718274111675127 I0.3071065989847716 J0.7385786802030457
G2 X19.626903553299492 Y14.979695431472082 I0.565989847715736 J0.565989847715736
G2 X19.565989847715738 Y15.284263959390863 I0.7385786802030457 J0.3071065989847716
G2 X19.626903553299492 Y15.591370558375635 I0.799492385786802 J0
G2 X19.799492385786802 Y15.850253807106597 I0.7385786802030457 J-0.3071065989847716
G2 X20.058375634517766 Y16.0253807106599 I0.565989847715736 J-0.565989847715736
G2 X20.365482233502537 Y16.086294416243653 I0.3071065989847716 J-0.7385786802030457
G2 X20.670050761421322 Y16.0253807106599 I0 J-0.799492385786802
G2 X20.931472081218274 Y15.850253807106597 I-0.3071065989847716 J-0.7385786802030457
G2 X21.104060913705585 Y15.591370558375635 I-0.565989847715736 J-0.565989847715736
G2 X21.16497461928934 Y15.284263959390863 I-0.7385786802030457 J-0.3071065989847716
G0 Z5
G0 X21.16497461928934 Y15.28527918781726
G1 Z-0.25 F800
G2 X21.104060913705585 Y14.979695431472082 I-0.799492385786802 J0 F1500
G2 X20.931472081218274 Y14.718274111675127 I-0.7385786802030457 J0.3071065989847716
G2 X20.670050761421322 Y14.545685279187817 I-0.565989847715736 J0.565989847715736
G2 X20.365482233502537 Y14.48477157360406 I-0.3071065989847716 J0.7385786802030457
G2 X20.058375634517766 Y14.545685279187817 I0 J0.799492385786802
G2 X19.799492385786802 Y14.718274111675127 I0.3071065989847716 J0.7385786802030457
G2 X19.626903553299492 Y14.979695431472082 I0.565989847715736 J0.565989847715736
G2 X19.565989847715738 Y15.284263959390863 I0.7385786802030457 J0.3071065989847716
G2 X19.626903553299492 Y15.591370558375635 I0.799492385786802 J0
G2 X19.799492385786802 Y15.850253807106597 I0.7385786802030457 J-0.3071065989847716
G2 X20.058375634517766 Y16.0253807106599 I0.565989847715736 J-0.565989847715736
G2 X20.365482233502537 Y16.086294416243653 I0.3071065989847716 J-0.7385786802030457
G2 X20.670050761421322 Y16.0253807106599 I0 J-0.799492385786802
G2 X20.931472081218274 Y15.850253807106597 I-0.3071065989847716 J-0.7385786802030457
G2 X21.104060913705585 Y15.591370558375635 I-0.565989847715736 J-0.565989847715736
G2 X21.16497461928934 Y15.284263959390863 I-0.7385786802030457 J-0.3071065989847716
G0 Z5
G0 X27.98477157360406 Y15.28527918781726
G1 Z0.5 F800
G1 X27.98477157360406 Y19.093908629441625 F1500
G1 X29.10913705583756 Y19.093908629441625
G1 X32.26903553299493 Y22.256345177664976
G1 X53.38578680203046 Y22.256345177664976
G0 Z5
G0 X27.98477157360406 Y15.28527918781726
G1 Z-0.25 F800
G1 X27.98477157360406 Y19.093908629441625 F1500
G1 X29.10913705583756 Y19.093908629441625
G1 X32.26903553299493 Y22.256345177664976
G1 X53.38578680203046 Y22.256345177664976
G0 Z5
G0 X21.16497461928934 Y19.09517766497462
G1 Z0.5 F800
G2 X21.104060913705585 Y18.789340101522843 I-0.799492385786802 J0 F1500
G2 X20.931472081218274 Y18.53045685279188 I-0.7385786802030457 J0.3071065989847716
G2 X20.670050761421322 Y18.35532994923858 I-0.565989847715736 J0.565989847715736
G2 X20.365482233502537 Y18.294416243654823 I-0.3071065989847716 J0.7385786802030457
G2 X20.058375634517766 Y18.35532994923858 I0 J0.799492385786802
G2 X19.799492385786802 Y18.53045685279188 I0.3071065989847716 J0.7385786802030457
G2 X19.626903553299492 Y18.789340101522843 I0.565989847715736 J0.565989847715736
G2 X19.565989847715738 Y19.093908629441625 I0.7385786802030457 J0.3071065989847716
G2 X19.626903553299492 Y19.401015228426395 I0.799492385786802 J0
G2 X19.799492385786802 Y19.65989847715736 I0.7385786802030457 J-0.3071065989847716
G2 X20.058375634517766 Y19.83502538071066 I0.565989847715736 J-0.565989847715736
G2 X20.365482233502537 Y19.895939086294415 I0.3071065989847716 J-0.7385786802030457
G2 X20.670050761421322 Y19.83502538071066 I0 J-0.799492385786802
G2 X20.931472081218274 Y19.65989847715736 I-0.3071065989847716 J-0.7385786802030457
G2 X21.104060913705585 Y19.401015228426395 I-0.565989847715736 J-0.565989847715736
G2 X21.16497461928934 Y19.093908629441625 I-0.7385786802030457 J-0.3071065989847716
G0 Z5
G0 X21.16497461928934 Y19.09517766497462
G1 Z-0.25 F800
G2 X21.104060913705585 Y18.789340101522843 I-0.799492385786802 J0 F1500
G2 X20.931472081218274 Y18.53045685279188 I-0.7385786802030457 J0.3071065989847716
G2 X20.670050761421322 Y18.35532994923858 I-0.565989847715736 J0.565989847715736
G2 X20.365482233502537 Y18.294416243654823 I-0.3071065989847716 J0.7385786802030457
G2 X20.058375634517766 Y18.35532994923858 I0 J0.799492385786802
G2 X19.799492385786802 Y18.53045685279188 I0.3071065989847716 J0.7385786802030457
G2 X19.626903553299492 Y18.789340101522843 I0.565989847715736 J0.565989847715736
G2 X19.565989847715738 Y19.093908629441625 I0.7385786802030457 J0.3071065989847716
G2 X19.626903553299492 Y19.401015228426395 I0.799492385786802 J0
G2 X19.799492385786802 Y19.65989847715736 I0.7385786802030457 J-0.3071065989847716
G2 X20.058375634517766 Y19.83502538071066 I0.565989847715736 J-0.565989847715736
G2 X20.365482233502537 Y19.895939086294415 I0.3071065989847716 J-0.7385786802030457
G2 X20.670050761421322 Y19.83502538071066 I0 J-0.799492385786802
G2 X20.931472081218274 Y19.65989847715736 I-0.3071065989847716 J-0.7385786802030457
G2 X21.104060913705585 Y19.401015228426395 I-0.565989847715736 J-0.565989847715736
G2 X21.16497461928934 Y19.093908629441625 I-0.7385786802030457 J-0.3071065989847716
G0 Z5
G0 X21.16497461928934 Y22.90507614213198
G1 Z0.5 F800
G2 X21.104060913705585 Y22.598984771573605 I-0.799492385786802 J0 F1500
G2 X20.931472081218274 Y22.340101522842637 I-0.7385786802030457 J0.3071065989847716
G2 X20.670050761421322 Y22.164974619289342 I-0.565989847715736 J0.565989847715736
G2 X20.365482233502537 Y22.104060913705585 I-0.3071065989847716 J0.7385786802030457
G2 X20.058375634517766 Y22.164974619289342 I0 J0.799492385786802
G2 X19.799492385786802 Y22.340101522842637 I0.3071065989847716 J0.7385786802030457
G2 X19.626903553299492 Y22.598984771573605 I0.565989847715736 J0.565989847715736
G2 X19.565989847715738 Y22.90609137055838 I0.7385786802030457 J0.3071065989847716
G2 X19.626903553299492 Y23.210659898477157 I0.799492385786802 J0
G2 X19.799492385786802 Y23.47208121827411 I0.7385786802030457 J-0.3071065989847716
G2 X20.058375634517766 Y23.64467005076142 I0.565989847715736 J-0.565989847715736
G2 X20.365482233502537 Y23.705583756345177 I0.3071065989847716 J-0.7385786802030457
G2 X20.670050761421322 Y23.64467005076142 I0 J-0.799492385786802
G2 X20.931472081218274 Y23.47208121827411 I-0.3071065989847716 J-0.7385786802030457
G2 X21.104060913705585 Y23.210659898477157 I-0.565989847715736 J-0.565989847715736
G2 X21.16497461928934 Y22.90609137055838 I-0.7385786802030457 J-0.3071065989847716
G0 Z5
G0 X21.16497461928934 Y22.90507614213198
G1 Z-0.25 F800
G2 X21.104060913705585 Y22.598984771573605 I-0.799492385786802 J0 F1500
G2 X20.931472081218274 Y22.340101522842637 I-0.7385786802030457 J0.3071065989847716
G2 X20.670050761421322 Y22.164974619289342 I-0.565989847715736 J0.565989847715736
G2 X20.365482233502537 Y22.104060913705585 I-0.3071065989847716 J0.7385786802030457
G2 X20.058375634517766 Y22.164974619289342 I0 J0.799492385786802
G2 X19.799492385786802 Y22.340101522842637 I0.3071065989847716 J0.7385786802030457
G2 X19.626903553299492 Y22.598984771573605 I0.565989847715736 J0.565989847715736
G2 X19.565989847715738 Y22.90609137055838 I0.7385786802030457 J0.3071065989847716
G2 X19.626903553299492 Y23.210659898477157 I0.799492385786802 J0
G2 X19.799492385786802 Y23.47208121827411 I0.7385786802030457 J-0.3071065989847716
G2 X20.058375634517766 Y23.64467005076142 I0.565989847715736 J-0.565989847715736
G2 X20.365482233502537 Y23.705583756345177 I0.3071065989847716 J-0.7385786802030457
G2 X20.670050761421322 Y23.64467005076142 I0 J-0.799492385786802
G2 X20.931472081218274 Y23.47208121827411 I-0.3071065989847716 J-0.7385786802030457
G2 X21.104060913705585 Y23.210659898477157 I-0.565989847715736 J-0.565989847715736
G2 X21.16497461928934 Y22.90609137055838 I-0.7385786802030457 J-0.3071065989847716
G0 Z5
G0 X27.98477157360406 Y22.90507614213198
G1 Z0.5 F800
G1 X27.98477157360406 Y24.03299492385787 F1500
G1 X27.98477157360406 Y25.444162436548226
G1 X27.98477157360406 Y26.715736040609137
G0 Z5
G0 X27.98477157360406 Y22.90507614213198
G1 Z-0.25 F800
G1 X27.98477157360406 Y24.03299492385787 F1500
G1 X27.98477157360406 Y25.444162436548226
G1 X27.98477157360406 Y26.715736040609137
G0 Z5
G0 X21.16497461928934 Y26.71522842639594
G1 Z0.5 F800
G2 X21.104060913705585 Y26.408629441624363 I-0.799492385786802 J0 F1500
G2 X20.931472081218274 Y26.1497461928934 I-0.7385786802030457 J0.3071065989847716
G2 X20.670050761421322 Y25.977157360406093 I-0.565989847715736 J0.565989847715736
G2 X20.365482233502537 Y25.91624365482233 I-0.3071065989847716 J0.7385786802030457
G2 X20.058375634517766 Y25.977157360406093 I0 J0.799492385786802
G2 X19.799492385786802 Y26.1497461928934 I0.3071065989847716 J0.7385786802030457
G2 X19.626903553299492 Y26.408629441624363 I0.565989847715736 J0.565989847715736
G2 X19.565989847715738 Y26.715736040609137 I0.7385786802030457 J0.3071065989847716
G2 X19.626903553299492 Y27.02030456852792 I0.799492385786802 J0
G2 X19.799492385786802 Y27.281725888324875 I0.7385786802030457 J-0.3071065989847716
G2 X20.058375634517766 Y27.45431472081218 I0.565989847715736 J-0.565989847715736
G2 X20.365482233502537 Y27.515228426395943 I0.3071065989847716 J-0.7385786802030457
G2 X20.670050761421322 Y27.45431472081218 I0 J-0.799492385786802
G2 X20.931472081218274 Y27.281725888324875 I-0.3071065989847716 J-0.7385786802030457
G2 X21.104060913705585 Y27.02030456852792 I-0.565989847715736 J-0.565989847715736
G2 X21.16497461928934 Y26.715736040609137 I-0.7385786802030457 J-0.3071065989847716
G0 Z5
G0 X21.16497461928934 Y26.71522842639594
G1 Z-0.25 F800
G2 X21.104060913705585 Y26.408629441624363 I-0.799492385786802 J0 F1500
G2 X20.931472081218274 Y26.1497461928934 I-0.7385786802030457 J0.3071065989847716
G2 X20.670050761421322 Y25.977157360406093 I-0.565989847715736 J0.565989847715736
G2 X20.365482233502537 Y25.91624365482233 I-0.3071065989847716 J0.7385786802030457
G2 X20.058375634517766 Y25.977157360406093 I0 J0.799492385786802
G2 X19.799492385786802 Y26.1497461928934 I0.3071065989847716 J0.7385786802030457
G2 X19.626903553299492 Y26.408629441624363 I0.565989847715736 J0.565989847715736
G2 X19.565989847715738 Y26.715736040609137 I0.7385786802030457 J0.3071065989847716
G2 X19.626903553299492 Y27.02030456852792 I0.799492385786802 J0
G2 X19.799492385786802 Y27.281725888324875 I0.7385786802030457 J-0.3071065989847716
G2 X20.058375634517766 Y27.45431472081218 I0.565989847715736 J-0.565989847715736
G2 X20.365482233502537 Y27.515228426395943 I0.3071065989847716 J-0.7385786802030457
G2 X20.670050761421322 Y27.45431472081218 I0 J-0.799492385786802
G2 X20.931472081218274 Y27.281725888324875 I-0.3071065989847716 J-0.7385786802030457
G2 X21.104060913705585 Y27.02030456852792 I-0.565989847715736 J-0.565989847715736
G2 X21.16497461928934 Y26.715736040609137 I-0.7385786802030457 J-0.3071065989847716
G0 Z5
G0 X13.94492385786802 Y15.59492385786802
G1 Z0.5 F800
G2 X13.852791878172589 Y15.137055837563452 I-1.2005076142131978 J0 F1500
G2 X13.593908629441625 Y14.746192893401016 I-1.1091370558375635 J0.4593908629441624
G2 X13.20304568527919 Y14.48730964467005 I-0.8477157360406091 J0.8477157360406091
G2 X12.743654822335024 Y14.395939086294415 I-0.4593908629441624 J1.1091370558375635
G2 X12.286802030456855 Y14.48730964467005 I0 J1.2005076142131978
G2 X11.895939086294415 Y14.746192893401016 I0.4593908629441624 J1.1091370558375635
G2 X11.637055837563452 Y15.137055837563452 I0.8477157360406091 J0.8477157360406091
G2 X11.545685279187817 Y15.593908629441625 I1.1091370558375635 J0.4593908629441624
G2 X11.637055837563452 Y16.053299492385786 I1.2005076142131978 J0
G2 X11.895939086294415 Y16.444162436548226 I1.1091370558375635 J-0.4593908629441624
G2 X12.286802030456855 Y16.703045685279186 I0.8477157360406091 J-0.8477157360406091
G2 X12.743654822335024 Y16.794416243654823 I0.4593908629441624 J-1.1091370558375635
G2 X13.20304568527919 Y16.703045685279186 I0 J-1.2005076142131978
G2 X13.593908629441625 Y16.444162436548226 I-0.4593908629441624 J-1.1091370558375635
G2 X13.852791878172589 Y16.053299492385786 I-0.8477157360406091 J-0.8477157360406091
G2 X13.944162436548224 Y15.593908629441625 I-1.1091370558375635 J-0.4593908629441624
G0 Z5
G0 X13.94492385786802 Y15.59492385786802
G1 Z-0.25 F800
G2 X13.852791878172589 Y15.137055837563452 I-1.2005076142131978 J0 F1500
G2 X13.593908629441625 Y14.746192893401016 I-1.1091370558375635 J0.4593908629441624
G2 X13.20304568527919 Y14.48730964467005 I-0.8477157360406091 J0.8477157360406091
G2 X12.743654822335024 Y14.395939086294415 I-0.4593908629441624 J1.1091370558375635
G2 X12.286802030456855 Y14.48730964467005 I0 J1.2005076142131978
G2 X11.895939086294415 Y14.746192893401016 I0.4593908629441624 J1.1091370558375635
G2 X11.637055837563452 Y15.137055837563452 I0.8477157360406091 J0.8477157360406091
G2 X11.545685279187817 Y15.593908629441625 I1.1091370558375635 J0.4593908629441624
G2 X11.637055837563452 Y16.053299492385786 I1.2005076142131978 J0
G2 X11.895939086294415 Y16.444162436548226 I1.1091370558375635 J-0.4593908629441624
G2 X12.286802030456855 Y16.703045685279186 I0.8477157360406091 J-0.8477157360406091
G2 X12.743654822335024 Y16.794416243654823 I0.4593908629441624 J-1.1091370558375635
G2 X13.20304568527919 Y16.703045685279186 I0 J-1.2005076142131978
G2 X13.593908629441625 Y16.444162436548226 I-0.4593908629441624 J-1.1091370558375635
G2 X13.852791878172589 Y16.053299492385786 I-0.8477157360406091 J-0.8477157360406091
G2 X13.944162436548224 Y15.593908629441625 I-1.1091370558375635 J-0.4593908629441624
G0 Z5
G0 X11.543401015228426 Y20.296446700507616
G1 Z0.5 F800
G1 X13.944162436548224 Y20.296954314720814 F1500
G1 X13.944162436548224 Y17.895939086294415
G1 X11.543147208121827 Y17.895939086294415
G1 X11.543147208121827 Y20.296954314720814
G0 Z5
G0 X11.543401015228426 Y20.296446700507616
G1 Z-0.25 F800
G1 X13.944162436548224 Y20.296954314720814 F1500
G1 X13.944162436548224 Y17.895939086294415
G1 X11.543147208121827 Y17.895939086294415
G1 X11.543147208121827 Y20.296954314720814
G0 Z5
G0 X13.94492385786802 Y23.21497461928934
G1 Z0.5 F800
G2 X13.852791878172589 Y22.756345177664976 I-1.2005076142131978 J0 F1500
G2 X13.593908629441625 Y22.36548223350254 I-1.1091370558375635 J0.4593908629441624
G2 X13.20304568527919 Y22.106598984771573 I-0.8477157360406091 J0.8477157360406091
G2 X12.743654822335024 Y22.01522842639594 I-0.4593908629441624 J1.1091370558375635
G2 X12.286802030456855 Y22.106598984771573 I0 J1.2005076142131978
G2 X11.895939086294415 Y22.36548223350254 I0.4593908629441624 J1.1091370558375635
G2 X11.637055837563452 Y22.756345177664976 I0.8477157360406091 J0.8477157360406091
G2 X11.545685279187817 Y23.215736040609137 I1.1091370558375635 J0.4593908629441624
G2 X11.637055837563452 Y23.6751269035533 I1.2005076142131978 J0
G2 X11.895939086294415 Y24.063451776649746 I1.1091370558375635 J-0.4593908629441624
G2 X12.286802030456855 Y24.3248730964467 I0.8477157360406091 J-0.8477157360406091
G2 X12.743654822335024 Y24.416243654822335 I0.4593908629441624 J-1.1091370558375635
G2 X13.20304568527919 Y24.3248730964467 I0 J-1.2005076142131978
G2 X13.593908629441625 Y24.063451776649746 I-0.4593908629441624 J-1.1091370558375635
G2 X13.852791878172589 Y23.6751269035533 I-0.8477157360406091 J-0.8477157360406091
G2 X13.944162436548224 Y23.215736040609137 I-1.1091370558375635 J-0.4593908629441624
G0 Z5
G0 X13.94492385786802 Y23.21497461928934
G1 Z-0.25 F800
G2 X13.852791878172589 Y22.756345177664976 I-1.2005076142131978 J0 F1500
G2 X13.593908629441625 Y22.36548223350254 I-1.1091370558375635 J0.4593908629441624
G2 X13.20304568527919 Y22.106598984771573 I-0.8477157360406091 J0.8477157360406091
G2 X12.743654822335024 Y22.01522842639594 I-0.4593908629441624 J1.1091370558375635
G2 X12.286802030456855 Y22.106598984771573 I0 J1.2005076142131978
G2 X11.895939086294415 Y22.36548223350254 I0.4593908629441624 J1.1091370558375635
G2 X11.637055837563452 Y22.756345177664976 I0.8477157360406091 J0.8477157360406091
G2 X11.545685279187817 Y23.215736040609137 I1.1091370558375635 J0.4593908629441624
G2 X11.637055837563452 Y23.6751269035533 I1.2005076142131978 J0
G2 X11.895939086294415 Y24.063451776649746 I1.1091370558375635 J-0.4593908629441624
G2 X12.286802030456855 Y24.3248730964467 I0.8477157360406091 J-0.8477157360406091
G2 X12.743654822335024 Y24.416243654822335 I0.4593908629441624 J-1.1091370558375635
G2 X13.20304568527919 Y24.3248730964467 I0 J-1.2005076142131978
G2 X13.593908629441625 Y24.063451776649746 I-0.4593908629441624 J-1.1091370558375635
G2 X13.852791878172589 Y23.6751269035533 I-0.8477157360406091 J-0.8477157360406091
G2 X13.944162436548224 Y23.215736040609137 I-1.1091370558375635 J-0.4593908629441624
G0 Z5
G0 X11.543401015228426 Y27.916497461928934
G1 Z0.5 F800
G1 X13.944162436548224 Y27.916243654822335 F1500
G1 X13.944162436548224 Y25.51522842639594
G1 X11.543147208121827 Y25.51522842639594
G1 X11.543147208121827 Y27.916243654822335
G0 Z5
G0 X11.543401015228426 Y27.916497461928934
G1 Z-0.25 F800
G1 X13.944162436548224 Y27.916243654822335 F1500
G1 X13.944162436548224 Y25.51522842639594
G1 X11.543147208121827 Y25.51522842639594
G1 X11.543147208121827 Y27.916243654822335
G0 Z5
G0 X38.77994923857868 Y18.46015228426396
G1 Z0.5 F800
G1 X39.67766497461929 Y18.45939086294416 F1500
G1 X40.18274111675127 Y18.967005076142133
G1 X51.515228426395936 Y18.967005076142133
G1 X51.515228426395936 Y18.411167512690355
G1 X53.08121827411168 Y16.84771573604061
G1 X53.95177664974619 Y16.84771573604061
G1 X54.941624365482234 Y15.857868020304569
G1 X54.941624365482234 Y13.31725888324873
G1 X53.38578680203046 Y11.756345177664976
G0 Z5
G0 X38.77994923857868 Y18.46015228426396
G1 Z-0.25 F800
G1 X39.67766497461929 Y18.45939086294416 F1500
G1 X40.18274111675127 Y18.967005076142133
G1 X51.515228426395936 Y18.967005076142133
G1 X51.515228426395936 Y18.411167512690355
G1 X53.08121827411168 Y16.84771573604061
G1 X53.95177664974619 Y16.84771573604061
G1 X54.941624365482234 Y15.857868020304569
G1 X54.941624365482234 Y13.31725888324873
G1 X53.38578680203046 Y11.756345177664976
G0 Z5
G0 X51.51548223350254 Y18.968274111675125
G1 Z0.5 F800
G1 X51.515228426395936 Y19.083756345177665 F1500
G1 X52.93654822335025 Y20.507614213197968
G1 X53.857868020304565 Y20.507614213197968
G1 X54.9492385786802 Y21.596446700507613
G1 X54.9492385786802 Y22.921319796954315
G1 X53.86294416243655 Y24.007614213197968
G1 X50.46700507614213 Y24.007614213197968
G1 X47.121827411167516 Y27.350253807106597
G1 X38.77918781725888 Y27.350253807106597
G0 Z5
G0 X51.51548223350254 Y18.968274111675125
G1 Z-0.25 F800
G1 X51.515228426395936 Y19.083756345177665 F1500
G1 X52.93654822335025 Y20.507614213197968
G1 X53.857868020304565 Y20.507614213197968
G1 X54.9492385786802 Y21.596446700507613
G1 X54.9492385786802 Y22.921319796954315
G1 X53.86294416243655 Y24.007614213197968
G1 X50.46700507614213 Y24.007614213197968
G1 X47.121827411167516 Y27.350253807106597
G1 X38.77918781725888 Y27.350253807106597
G0 Z5
G0 X53.38477157360406 Y15.257106598984771
G1 Z0.5 F800
G1 X50.1243654822335 Y18.517766497461928 F1500
G1 X41.703045685279186 Y18.517766497461928
G1 X40.378172588832484 Y17.190355329949238
G1 X38.77918781725888 Y17.190355329949238
G0 Z5
G0 X53.38477157360406 Y15.257106598984771
G1 Z-0.25 F800
G1 X50.1243654822335 Y18.517766497461928 F1500
G1 X41.703045685279186 Y18.517766497461928
G1 X40.378172588832484 Y17.190355329949238
G1 X38.77918781725888 Y17.190355329949238
G0 Z5
G0 X38.77994923857868 Y15.92005076142132
G1 Z0.5 F800
G1 X39.67766497461929 Y15.921319796954315 F1500
G1 X40.54822335025381 Y15.921319796954315
G1 X42.23096446700508 Y17.606598984771573
G1 X44.675126903553306 Y17.606598984771573
G1 X45.723350253807105 Y16.555837563451774
G0 Z5
G0 X38.77994923857868 Y15.92005076142132
G1 Z-0.25 F800
G1 X39.67766497461929 Y15.921319796954315 F1500
G1 X40.54822335025381 Y15.921319796954315
G1 X42.23096446700508 Y17.606598984771573
G1 X44.675126903553306 Y17.606598984771573
G1 X45.723350253807105 Y16.555837563451774
G0 Z5
G0 X12.74492385786802 Y23.21751269035533
G1 Z0.5 F800
G1 X13.954314720812182 Y22.00507614213198 F1500
G1 X12.568527918781726 Y20.621827411167516
G1 X11.385786802030458 Y20.621827411167516
G1 X11.218274111675125 Y20.454314720812185
G1 X11.218274111675125 Y17.121827411167512
G1 X12.743654822335024 Y15.596446700507613
G1 X15.091370558375633 Y13.248730964467006
G1 X30.129441624365484 Y13.248730964467006
G1 X31.53045685279188 Y14.6497461928934
G1 X32.42893401015229 Y14.6497461928934
G1 X32.65228426395939 Y14.6497461928934
G1 X32.8756345177665 Y14.6497461928934
G1 X33.32741116751269 Y14.6497461928934
G1 X33.32741116751269 Y15.921319796954315
G1 X32.42893401015229 Y15.921319796954315
G0 Z5
G0 X12.74492385786802 Y23.21751269035533
G1 Z-0.25 F800
G1 X13.954314720812182 Y22.00507614213198 F1500
G1 X12.568527918781726 Y20.621827411167516
G1 X11.385786802030458 Y20.621827411167516
G1 X11.218274111675125 Y20.454314720812185
G1 X11.218274111675125 Y17.121827411167512
G1 X12.743654822335024 Y15.596446700507613
G1 X15.091370558375633 Y13.248730964467006
G1 X30.129441624365484 Y13.248730964467006
G1 X31.53045685279188 Y14.6497461928934
G1 X32.42893401015229 Y14.6497461928934
G1 X32.65228426395939 Y14.6497461928934
G1 X32.8756345177665 Y14.6497461928934
G1 X33.32741116751269 Y14.6497461928934
G1 X33.32741116751269 Y15.921319796954315
G1 X32.42893401015229 Y15.921319796954315
G0 Z5
G0 X43.2248730964467 Y16.55507614213198
G1 Z0.5 F800
G1 X41.31979695431472 Y14.6497461928934 F1500
G1 X38.77918781725888 Y14.6497461928934
G1 X33.32741116751269 Y14.6497461928934
G0 Z5
G0 X43.2248730964467 Y16.55507614213198
G1 Z-0.25 F800
G1 X41.31979695431472 Y14.6497461928934 F1500
G1 X38.77918781725888 Y14.6497461928934
G1 X33.32741116751269 Y14.6497461928934
G0 Z5
G0 X45.724111675126906 Y25.44517766497462
G1 Z0.5 F800
G1 X43.81979695431472 Y23.54060913705584 F1500
G1 X38.77918781725888 Y23.54060913705584
G1 X37.880710659898476 Y23.54060913705584
G1 X37.04314720812183 Y24.380710659898476
G1 X37.04314720812183 Y24.809644670050762
G1 X33.32741116751269 Y24.809644670050762
G1 X32.42893401015229 Y24.809644670050762
G1 X31.53045685279188 Y24.809644670050762
G1 X31.53045685279188 Y23.54314720812183
G1 X29.763959390862947 Y21.771573604060915
G1 X23.04060913705584 Y21.771573604060915
G1 X23.04060913705584 Y24.04060913705584
G1 X20.365482233502537 Y26.715736040609137
G0 Z5
G0 X45.724111675126906 Y25.44517766497462
G1 Z-0.25 F800
G1 X43.81979695431472 Y23.54060913705584 F1500
G1 X38.77918781725888 Y23.54060913705584
G1 X37.880710659898476 Y23.54060913705584
G1 X37.04314720812183 Y24.380710659898476
G1 X37.04314720812183 Y24.809644670050762
G1 X33.32741116751269 Y24.809644670050762
G1 X32.42893401015229 Y24.809644670050762
G1 X31.53045685279188 Y24.809644670050762
G1 X31.53045685279188 Y23.54314720812183
G1 X29.763959390862947 Y21.771573604060915
G1 X23.04060913705584 Y21.771573604060915
G1 X23.04060913705584 Y24.04060913705584
G1 X20.365482233502537 Y26.715736040609137
G0 Z5
G0 X13.953807106598985 Y22.006091370558376
G1 Z0.5 F800
G1 X16.865482233502537 Y19.093908629441625 F1500
G1 X20.365482233502537 Y19.093908629441625
G1 X23.04060913705584 Y21.771573604060915
G0 Z5
G0 X13.953807106598985 Y22.006091370558376
G1 Z-0.25 F800
G1 X16.865482233502537 Y19.093908629441625 F1500
G1 X20.365482233502537 Y19.093908629441625
G1 X23.04060913705584 Y21.771573604060915
G0 Z5
G0 X32.42994923857868 Y23.54010152284264
G1 Z0.5 F800
G1 X31.53299492385787 Y23.54060913705584 F1500
G0 Z5
G0 X32.42994923857868 Y23.54010152284264
G1 Z-0.25 F800
G1 X31.53299492385787 Y23.54060913705584 F1500
G0 Z5
G0 X53.38477157360406 Y29.25507614213198
G1 Z0.5 F800
G1 X39.390862944162436 Y29.256345177664972 F1500
G1 X37.04314720812183 Y26.906091370558375
G1 X37.04314720812183 Y24.809644670050762
G0 Z5
G0 X53.38477157360406 Y29.25507614213198
G1 Z-0.25 F800
G1 X39.390862944162436 Y29.256345177664972 F1500
G1 X37.04314720812183 Y26.906091370558375
G1 X37.04314720812183 Y24.809644670050762
G0 Z5
G0 X12.74492385786802 Y19.09517766497462
G1 Z0.5 F800
G1 X14.269035532994925 Y19.093908629441625 F1500
G1 X18.078680203045685 Y15.284263959390863
G1 X20.365482233502537 Y15.284263959390863
G1 X21.95177664974619 Y13.697969543147208
G1 X28.621827411167512 Y13.697969543147208
G1 X31.53045685279188 Y16.606598984771573
G1 X31.53045685279188 Y17.190355329949238
G1 X31.97969543147208 Y17.190355329949238
G1 X32.42893401015229 Y17.190355329949238
G0 Z5
G0 X12.74492385786802 Y19.09517766497462
G1 Z-0.25 F800
G1 X14.269035532994925 Y19.093908629441625 F1500
G1 X18.078680203045685 Y15.284263959390863
G1 X20.365482233502537 Y15.284263959390863
G1 X21.95177664974619 Y13.697969543147208
G1 X28.621827411167512 Y13.697969543147208
G1 X31.53045685279188 Y16.606598984771573
G1 X31.53045685279188 Y17.190355329949238
G1 X31.97969543147208 Y17.190355329949238
G1 X32.42893401015229 Y17.190355329949238
G0 Z5
G0 X31.98020304568528 Y17.19010152284264
G1 Z0.5 F800
G1 X32.42893401015229 Y17.63959390862944 F1500
G1 X32.42893401015229 Y18.45939086294416
G0 Z5
G0 X31.98020304568528 Y17.19010152284264
G1 Z-0.25 F800
G1 X32.42893401015229 Y17.63959390862944 F1500
G1 X32.42893401015229 Y18.45939086294416
G0 Z5
G0 X38.77994923857868 Y26.08020304568528
G1 Z0.5 F800
G1 X39.67766497461929 Y26.081218274111677 F1500
G1 X40.10659898477157 Y26.512690355329948
G1 X46.15228426395939 Y26.512690355329948
G1 X46.784263959390856 Y25.883248730964468
G1 X46.784263959390856 Y25.015228426395943
G1 X44.474619289340104 Y22.70812182741117
G1 X31.969543147208125 Y22.70812182741117
G1 X30.558375634517766 Y21.29187817258883
G1 X28.50761421319797 Y21.29187817258883
G1 X26.827411167512693 Y19.611675126903553
G1 X26.827411167512693 Y14.766497461928934
G1 X27.444162436548222 Y14.147208121827411
G1 X28.436548223350254 Y14.147208121827411
G1 X30.32233502538071 Y16.03553299492386
G1 X30.32233502538071 Y17.63959390862944
G1 X31.720812182741117 Y19.04060913705584
G1 X34.3502538071066 Y19.04060913705584
G1 X36.77918781725889 Y16.611675126903553
G1 X40.5736040609137 Y16.611675126903553
G1 X42.027918781725894 Y18.065989847715734
G1 X45.68781725888325 Y18.065989847715734
G1 X47.766497461928935 Y15.98984771573604
G1 X47.766497461928935 Y15.213197969543145
G1 X52.796954314720814 Y10.182741116751268
G1 X53.96700507614213 Y10.182741116751268
G1 X55.398477157360404 Y11.614213197969542
G1 X55.398477157360404 Y16.741116751269036
G1 X53.38578680203046 Y18.756345177664976
G0 Z5
G0 X38.77994923857868 Y26.08020304568528
G1 Z-0.25 F800
G1 X39.67766497461929 Y26.081218274111677 F1500
G1 X40.10659898477157 Y26.512690355329948
G1 X46.15228426395939 Y26.512690355329948
G1 X46.784263959390856 Y25.883248730964468
G1 X46.784263959390856 Y25.015228426395943
G1 X44.474619289340104 Y22.70812182741117
G1 X31.969543147208125 Y22.70812182741117
G1 X30.558375634517766 Y21.29187817258883
G1 X28.50761421319797 Y21.29187817258883
G1 X26.827411167512693 Y19.611675126903553
G1 X26.827411167512693 Y14.766497461928934
G1 X27.444162436548222 Y14.147208121827411
G1 X28.436548223350254 Y14.147208121827411
G1 X30.32233502538071 Y16.03553299492386
G1 X30.32233502538071 Y17.63959390862944
G1 X31.720812182741117 Y19.04060913705584
G1 X34.3502538071066 Y19.04060913705584
G1 X36.77918781725889 Y16.611675126903553
G1 X40.5736040609137 Y16.611675126903553
G1 X42.027918781725894 Y18.065989847715734
G1 X45.68781725888325 Y18.065989847715734
G1 X47.766497461928935 Y15.98984771573604
G1 X47.766497461928935 Y15.213197969543145
G1 X52.796954314720814 Y10.182741116751268
G1 X53.96700507614213 Y10.182741116751268
G1 X55.398477157360404 Y11.614213197969542
G1 X55.398477157360404 Y16.741116751269036
G1 X53.38578680203046 Y18.756345177664976
G0 Z5
G0 X43.2248730964467 Y25.44517766497462
G1 Z0.5 F800
G1 X40.31218274111676 Y25.444162436548226 F1500
G1 X39.67766497461929 Y24.809644670050762
G1 X38.77918781725888 Y24.809644670050762
G0 Z5
G0 X43.2248730964467 Y25.44517766497462
G1 Z-0.25 F800
G1 X40.31218274111676 Y25.444162436548226 F1500
G1 X39.67766497461929 Y24.809644670050762
G1 X38.77918781725888 Y24.809644670050762
G0 Z5
G0 X32.42994923857868 Y27.3502538071066
G1 Z0.5 F800
G1 X31.97969543147208 Y27.350253807106597 F1500
G1 X31.53045685279188 Y26.903553299492383
G1 X30.555837563451774 Y27.878172588832484
G1 X18.982233502538072 Y27.878172588832484
G1 X17.18781725888325 Y26.083756345177665
G1 X16.555837563451774 Y26.715736040609137
G1 X12.743654822335024 Y26.715736040609137
G0 Z5
G0 X32.42994923857868 Y27.3502538071066
G1 Z-0.25 F800
G1 X31.97969543147208 Y27.350253807106597 F1500
G1 X31.53045685279188 Y26.903553299492383
G1 X30.555837563451774 Y27.878172588832484
G1 X18.982233502538072 Y27.878172588832484
G1 X17.18781725888325 Y26.083756345177665
G1 X16.555837563451774 Y26.715736040609137
G1 X12.743654822335024 Y26.715736040609137
G0 Z5
G0 X31.530710659898478 Y26.08020304568528
G1 Z0.5 F800
G1 X31.53045685279188 Y26.081218274111677 F1500
G1 X31.53045685279188 Y26.081218274111677
G0 Z5
G0 X31.530710659898478 Y26.08020304568528
G1 Z-0.25 F800
G1 X31.53045685279188 Y26.081218274111677 F1500
G1 X31.53045685279188 Y26.081218274111677
G0 Z5
G0 X17.18730964467005 Y26.08274111675127
G1 Z0.5 F800
G1 X20.365482233502537 Y22.90609137055838 F1500
G0 Z5
G0 X17.18730964467005 Y26.08274111675127
G1 Z-0.25 F800
G1 X20.365482233502537 Y22.90609137055838 F1500
G0 Z5
G0 X27.98477157360406 Y25.44517766497462
G1 Z0.5 F800
G1 X33.1243654822335 Y25.444162436548226 F1500
G1 X38.45685279187818 Y30.78172588832487
G1 X54.733502538071065 Y30.78172588832487
G1 X54.90862944162436 Y30.606598984771573
G1 X54.90862944162436 Y27.281725888324875
G1 X53.38578680203046 Y25.756345177664976
G0 Z5
G0 X27.98477157360406 Y25.44517766497462
G1 Z-0.25 F800
G1 X33.1243654822335 Y25.444162436548226 F1500
G1 X38.45685279187818 Y30.78172588832487
G1 X54.733502538071065 Y30.78172588832487
G1 X54.90862944162436 Y30.606598984771573
G1 X54.90862944162436 Y27.281725888324875
G1 X53.38578680203046 Y25.756345177664976
G0 Z5
G0 X43.3997461928934 Y16.55507614213198
G1 Z0.5 F800
G2 X43.39340101522843 Y16.51015228426396 I-0.17512690355329952 J0 F1500
G2 X43.3756345177665 Y16.467005076142133 I-0.1700507614213198 J0.045685279187817264
G2 X43.34771573604061 Y16.431472081218274 I-0.15228426395939088 J0.08629441624365483
G2 X43.31218274111676 Y16.403553299492387 I-0.12436548223350254 J0.12436548223350254
G2 X43.26903553299492 Y16.38578680203046 I-0.08629441624365483 J0.15228426395939088
G2 X43.2258883248731 Y16.380710659898476 I-0.045685279187817264 J0.1700507614213198
G2 X43.180203045685275 Y16.38578680203046 I0 J0.17512690355329952
G2 X43.13705583756345 Y16.403553299492387 I0.045685279187817264 J0.1700507614213198
G2 X43.101522842639596 Y16.431472081218274 I0.08629441624365483 J0.15228426395939088
G2 X43.0736040609137 Y16.467005076142133 I0.12436548223350254 J0.12436548223350254
G2 X43.05583756345178 Y16.51015228426396 I0.15228426395939088 J0.08629441624365483
G2 X43.0507614213198 Y16.555837563451774 I0.1700507614213198 J0.045685279187817264
G2 X43.05583756345178 Y16.601522842639593 I0.17512690355329952 J0
G2 X43.0736040609137 Y16.64213197969543 I0.1700507614213198 J-0.045685279187817264
G2 X43.101522842639596 Y16.67766497461929 I0.15228426395939088 J-0.08629441624365483
G2 X43.13705583756345 Y16.705583756345177 I0.12436548223350254 J-0.12436548223350254
G2 X43.180203045685275 Y16.723350253807105 I0.08629441624365483 J-0.15228426395939088
G2 X43.2258883248731 Y16.730964467005077 I0.045685279187817264 J-0.1700507614213198
G2 X43.26903553299492 Y16.723350253807105 I0 J-0.17512690355329952
G2 X43.31218274111676 Y16.705583756345177 I-0.045685279187817264 J-0.1700507614213198
G2 X43.34771573604061 Y16.67766497461929 I-0.08629441624365483 J-0.15228426395939088
G2 X43.3756345177665 Y16.64213197969543 I-0.12436548223350254 J-0.12436548223350254
G2 X43.39340101522843 Y16.601522842639593 I-0.15228426395939088 J-0.08629441624365483
G2 X43.40101522842639 Y16.555837563451774 I-0.1700507614213198 J-0.045685279187817264
G0 Z5
G0 X43.3997461928934 Y16.55507614213198
G1 Z-0.25 F800
G2 X43.39340101522843 Y16.51015228426396 I-0.17512690355329952 J0 F1500
G2 X43.3756345177665 Y16.467005076142133 I-0.1700507614213198 J0.045685279187817264
G2 X43.34771573604061 Y16.431472081218274 I-0.15228426395939088 J0.08629441624365483
G2 X43.31218274111676 Y16.403553299492387 I-0.12436548223350254 J0.12436548223350254
G2 X43.26903553299492 Y16.38578680203046 I-0.08629441624365483 J0.15228426395939088
G2 X43.2258883248731 Y16.380710659898476 I-0.045685279187817264 J0.1700507614213198
G2 X43.180203045685275 Y16.38578680203046 I0 J0.17512690355329952
G2 X43.13705583756345 Y16.403553299492387 I0.045685279187817264 J0.1700507614213198
G2 X43.101522842639596 Y16.431472081218274 I0.08629441624365483 J0.15228426395939088
G2 X43.0736040609137 Y16.467005076142133 I0.12436548223350254 J0.12436548223350254
G2 X43.05583756345178 Y16.51015228426396 I0.15228426395939088 J0.08629441624365483
G2 X43.0507614213198 Y16.555837563451774 I0.1700507614213198 J0.045685279187817264
G2 X43.05583756345178 Y16.601522842639593 I0.17512690355329952 J0
G2 X43.0736040609137 Y16.64213197969543 I0.1700507614213198 J-0.045685279187817264
G2 X43.101522842639596 Y16.67766497461929 I0.15228426395939088 J-0.08629441624365483
G2 X43.13705583756345 Y16.705583756345177 I0.12436548223350254 J-0.12436548223350254
G2 X43.180203045685275 Y16.723350253807105 I0.08629441624365483 J-0.15228426395939088
G2 X43.2258883248731 Y16.730964467005077 I0.045685279187817264 J-0.1700507614213198
G2 X43.26903553299492 Y16.723350253807105 I0 J-0.17512690355329952
G2 X43.31218274111676 Y16.705583756345177 I-0.045685279187817264 J-0.1700507614213198
G2 X43.34771573604061 Y16.67766497461929 I-0.08629441624365483 J-0.15228426395939088
G2 X43.3756345177665 Y16.64213197969543 I-0.12436548223350254 J-0.12436548223350254
G2 X43.39340101522843 Y16.601522842639593 I-0.15228426395939088 J-0.08629441624365483
G2 X43.40101522842639 Y16.555837563451774 I-0.1700507614213198 J-0.045685279187817264
G0 Z5
G0 X45.9 Y16.55507614213198
G1 Z0.5 F800
G2 X45.88578680203046 Y16.487309644670052 I-0.17512690355329952 J0 F1500
G2 X45.84771573604061 Y16.431472081218274 I-0.16243654822335027 J0.06598984771573604
G2 X45.79187817258883 Y16.393401015228427 I-0.12436548223350254 J0.12436548223350254
G2 X45.7258883248731 Y16.380710659898476 I-0.06598984771573604 J0.16243654822335027
G2 X45.680203045685275 Y16.38578680203046 I0 J0.17512690355329952
G2 X45.63705583756345 Y16.403553299492387 I0.045685279187817264 J0.1700507614213198
G2 X45.601522842639596 Y16.431472081218274 I0.08629441624365483 J0.15228426395939088
G2 X45.5736040609137 Y16.467005076142133 I0.12436548223350254 J0.12436548223350254
G2 X45.55583756345178 Y16.51015228426396 I0.15228426395939088 J0.08629441624365483
G2 X45.5507614213198 Y16.555837563451774 I0.1700507614213198 J0.045685279187817264
G2 X45.55583756345178 Y16.601522842639593 I0.17512690355329952 J0
G2 X45.5736040609137 Y16.64213197969543 I0.1700507614213198 J-0.045685279187817264
G2 X45.601522842639596 Y16.67766497461929 I0.15228426395939088 J-0.08629441624365483
G2 X45.63705583756345 Y16.705583756345177 I0.12436548223350254 J-0.12436548223350254
G2 X45.680203045685275 Y16.723350253807105 I0.08629441624365483 J-0.15228426395939088
G2 X45.7258883248731 Y16.730964467005077 I0.045685279187817264 J-0.1700507614213198
G2 X45.79187817258883 Y16.715736040609137 I0 J-0.17512690355329952
G2 X45.84771573604061 Y16.67766497461929 I-0.06598984771573604 J-0.16243654822335027
G2 X45.88578680203046 Y16.621827411167512 I-0.12436548223350254 J-0.12436548223350254
G2 X45.90101522842639 Y16.555837563451774 I-0.16243654822335027 J-0.06598984771573604
G0 Z5
G0 X45.9 Y16.55507614213198
G1 Z-0.25 F800
G2 X45.88578680203046 Y16.487309644670052 I-0.17512690355329952 J0 F1500
G2 X45.84771573604061 Y16.431472081218274 I-0.16243654822335027 J0.06598984771573604
G2 X45.79187817258883 Y16.393401015228427 I-0.12436548223350254 J0.12436548223350254
G2 X45.7258883248731 Y16.380710659898476 I-0.06598984771573604 J0.16243654822335027
G2 X45.680203045685275 Y16.38578680203046 I0 J0.17512690355329952
G2 X45.63705583756345 Y16.403553299492387 I0.045685279187817264 J0.1700507614213198
G2 X45.601522842639596 Y16.431472081218274 I0.08629441624365483 J0.15228426395939088
G2 X45.5736040609137 Y16.467005076142133 I0.12436548223350254 J0.12436548223350254
G2 X45.55583756345178 Y16.51015228426396 I0.15228426395939088 J0.08629441624365483
G2 X45.5507614213198 Y16.555837563451774 I0.1700507614213198 J0.045685279187817264
G2 X45.55583756345178 Y16.601522842639593 I0.17512690355329952 J0
G2 X45.5736040609137 Y16.64213197969543 I0.1700507614213198 J-0.045685279187817264
G2 X45.601522842639596 Y16.67766497461929 I0.15228426395939088 J-0.08629441624365483
G2 X45.63705583756345 Y16.705583756345177 I0.12436548223350254 J-0.12436548223350254
G2 X45.680203045685275 Y16.723350253807105 I0.08629441624365483 J-0.15228426395939088
G2 X45.7258883248731 Y16.730964467005077 I0.045685279187817264 J-0.1700507614213198
G2 X45.79187817258883 Y16.715736040609137 I0 J-0.17512690355329952
G2 X45.84771573604061 Y16.67766497461929 I-0.06598984771573604 J-0.16243654822335027
G2 X45.88578680203046 Y16.621827411167512 I-0.12436548223350254 J-0.12436548223350254
G2 X45.90101522842639 Y16.555837563451774 I-0.16243654822335027 J-0.06598984771573604
G0 Z5
G0 X43.3997461928934 Y25.44517766497462
G1 Z0.5 F800
G2 X43.39340101522843 Y25.4010152284264 I-0.17512690355329952 J0 F1500
G2 X43.3756345177665 Y25.357868020304572 I-0.1700507614213198 J0.045685279187817264
G2 X43.34771573604061 Y25.32233502538071 I-0.15228426395939088 J0.08629441624365483
G2 X43.31218274111676 Y25.294416243654823 I-0.12436548223350254 J0.12436548223350254
G2 X43.26903553299492 Y25.276649746192895 I-0.08629441624365483 J0.15228426395939088
G2 X43.2258883248731 Y25.269035532994923 I-0.045685279187817264 J0.1700507614213198
G2 X43.180203045685275 Y25.276649746192895 I0 J0.17512690355329952
G2 X43.13705583756345 Y25.294416243654823 I0.045685279187817264 J0.1700507614213198
G2 X43.101522842639596 Y25.32233502538071 I0.08629441624365483 J0.15228426395939088
G2 X43.0736040609137 Y25.357868020304572 I0.12436548223350254 J0.12436548223350254
G2 X43.05583756345178 Y25.4010152284264 I0.15228426395939088 J0.08629441624365483
G2 X43.0507614213198 Y25.444162436548226 I0.1700507614213198 J0.045685279187817264
G2 X43.05583756345178 Y25.48984771573604 I0.17512690355329952 J0
G2 X43.0736040609137 Y25.532994923857867 I0.1700507614213198 J-0.045685279187817264
G2 X43.101522842639596 Y25.568527918781726 I0.15228426395939088 J-0.08629441624365483
G2 X43.13705583756345 Y25.596446700507617 I0.12436548223350254 J-0.12436548223350254
G2 X43.180203045685275 Y25.614213197969544 I0.08629441624365483 J-0.15228426395939088
G2 X43.2258883248731 Y25.619289340101524 I0.045685279187817264 J-0.1700507614213198
G2 X43.26903553299492 Y25.614213197969544 I0 J-0.17512690355329952
G2 X43.31218274111676 Y25.596446700507617 I-0.045685279187817264 J-0.1700507614213198
G2 X43.34771573604061 Y25.568527918781726 I-0.08629441624365483 J-0.15228426395939088
G2 X43.3756345177665 Y25.532994923857867 I-0.12436548223350254 J-0.12436548223350254
G2 X43.39340101522843 Y25.48984771573604 I-0.15228426395939088 J-0.08629441624365483
G2 X43.40101522842639 Y25.444162436548226 I-0.1700507614213198 J-0.045685279187817264
G0 Z5
G0 X43.3997461928934 Y25.44517766497462
G1 Z-0.25 F800
G2 X43.39340101522843 Y25.4010152284264 I-0.17512690355329952 J0 F1500
G2 X43.3756345177665 Y25.357868020304572 I-0.1700507614213198 J0.045685279187817264
G2 X43.34771573604061 Y25.32233502538071 I-0.15228426395939088 J0.08629441624365483
G2 X43.31218274111676 Y25.294416243654823 I-0.12436548223350254 J0.12436548223350254
G2 X43.26903553299492 Y25.276649746192895 I-0.08629441624365483 J0.15228426395939088
G2 X43.2258883248731 Y25.269035532994923 I-0.045685279187817264 J0.1700507614213198
G2 X43.180203045685275 Y25.276649746192895 I0 J0.17512690355329952
G2 X43.13705583756345 Y25.294416243654823 I0.045685279187817264 J0.1700507614213198
G2 X43.101522842639596 Y25.32233502538071 I0.08629441624365483 J0.15228426395939088
G2 X43.0736040609137 Y25.357868020304572 I0.12436548223350254 J0.12436548223350254
G2 X43.05583756345178 Y25.4010152284264 I0.15228426395939088 J0.08629441624365483
G2 X43.0507614213198 Y25.444162436548226 I0.1700507614213198 J0.045685279187817264
G2 X43.05583756345178 Y25.48984771573604 I0.17512690355329952 J0
G2 X43.0736040609137 Y25.532994923857867 I0.1700507614213198 J-0.045685279187817264
G2 X43.101522842639596 Y25.568527918781726 I0.15228426395939088 J-0.08629441624365483
G2 X43.13705583756345 Y25.596446700507617 I0.12436548223350254 J-0.12436548223350254
G2 X43.180203045685275 Y25.614213197969544 I0.08629441624365483 J-0.15228426395939088
G2 X43.2258883248731 Y25.619289340101524 I0.045685279187817264 J-0.1700507614213198
G2 X43.26903553299492 Y25.614213197969544 I0 J-0.17512690355329952
G2 X43.31218274111676 Y25.596446700507617 I-0.045685279187817264 J-0.1700507614213198
G2 X43.34771573604061 Y25.568527918781726 I-0.08629441624365483 J-0.15228426395939088
G2 X43.3756345177665 Y25.532994923857867 I-0.12436548223350254 J-0.12436548223350254
G2 X43.39340101522843 Y25.48984771573604 I-0.15228426395939088 J-0.08629441624365483
G2 X43.40101522842639 Y25.444162436548226 I-0.1700507614213198 J-0.045685279187817264
G0 Z5
G0 X45.9 Y25.44517766497462
G1 Z0.5 F800
G2 X45.88578680203046 Y25.378172588832484 I-0.17512690355329952 J0 F1500
G2 X45.84771573604061 Y25.32233502538071 I-0.16243654822335027 J0.06598984771573604
G2 X45.79187817258883 Y25.284263959390863 I-0.12436548223350254 J0.12436548223350254
G2 X45.7258883248731 Y25.269035532994923 I-0.06598984771573604 J0.16243654822335027
G2 X45.680203045685275 Y25.276649746192895 I0 J0.17512690355329952
G2 X45.63705583756345 Y25.294416243654823 I0.045685279187817264 J0.1700507614213198
G2 X45.601522842639596 Y25.32233502538071 I0.08629441624365483 J0.15228426395939088
G2 X45.5736040609137 Y25.357868020304572 I0.12436548223350254 J0.12436548223350254
G2 X45.55583756345178 Y25.4010152284264 I0.15228426395939088 J0.08629441624365483
G2 X45.5507614213198 Y25.444162436548226 I0.1700507614213198 J0.045685279187817264
G2 X45.55583756345178 Y25.48984771573604 I0.17512690355329952 J0
G2 X45.5736040609137 Y25.532994923857867 I0.1700507614213198 J-0.045685279187817264
G2 X45.601522842639596 Y25.568527918781726 I0.15228426395939088 J-0.08629441624365483
G2 X45.63705583756345 Y25.596446700507617 I0.12436548223350254 J-0.12436548223350254
G2 X45.680203045685275 Y25.614213197969544 I0.08629441624365483 J-0.15228426395939088
G2 X45.7258883248731 Y25.619289340101524 I0.045685279187817264 J-0.1700507614213198
G2 X45.79187817258883 Y25.606598984771573 I0 J-0.17512690355329952
G2 X45.84771573604061 Y25.568527918781726 I-0.06598984771573604 J-0.16243654822335027
G2 X45.88578680203046 Y25.512690355329948 I-0.12436548223350254 J-0.12436548223350254
G2 X45.90101522842639 Y25.444162436548226 I-0.16243654822335027 J-0.06598984771573604
G0 Z5
G0 X45.9 Y25.44517766497462
G1 Z-0.25 F800
G2 X45.88578680203046 Y25.378172588832484 I-0.17512690355329952 J0 F1500
G2 X45.84771573604061 Y25.32233502538071 I-0.16243654822335027 J0.06598984771573604
G2 X45.79187817258883 Y25.284263959390863 I-0.12436548223350254 J0.12436548223350254
G2 X45.7258883248731 Y25.269035532994923 I-0.06598984771573604 J0.16243654822335027
G2 X45.680203045685275 Y25.276649746192895 I0 J0.17512690355329952
G2 X45.63705583756345 Y25.294416243654823 I0.045685279187817264 J0.1700507614213198
G2 X45.601522842639596 Y25.32233502538071 I0.08629441624365483 J0.15228426395939088
G2 X45.5736040609137 Y25.357868020304572 I0.12436548223350254 J0.12436548223350254
G2 X45.55583756345178 Y25.4010152284264 I0.15228426395939088 J0.08629441624365483
G2 X45.5507614213198 Y25.444162436548226 I0.1700507614213198 J0.045685279187817264
G2 X45.55583756345178 Y25.48984771573604 I0.17512690355329952 J0
G2 X45.5736040609137 Y25.532994923857867 I0.1700507614213198 J-0.045685279187817264
G2 X45.601522842639596 Y25.568527918781726 I0.15228426395939088 J-0.08629441624365483
G2 X45.63705583756345 Y25.596446700507617 I0.12436548223350254 J-0.12436548223350254
G2 X45.680203045685275 Y25.614213197969544 I0.08629441624365483 J-0.15228426395939088
G2 X45.7258883248731 Y25.619289340101524 I0.045685279187817264 J-0.1700507614213198
G2 X45.79187817258883 Y25.606598984771573 I0 J-0.17512690355329952
G2 X45.84771573604061 Y25.568527918781726 I-0.06598984771573604 J-0.16243654822335027
G2 X45.88578680203046 Y25.512690355329948 I-0.12436548223350254 J-0.12436548223350254
G2 X45.90101522842639 Y25.444162436548226 I-0.16243654822335027 J-0.06598984771573604
G0 Z5
G0 X53.55989847715736 Y25.75507614213198
G1 Z0.5 F800
G2 X53.55329949238579 Y25.710659898477157 I-0.17512690355329952 J0 F1500
G2 X53.53553299492386 Y25.66751269035533 I-0.1700507614213198 J0.045685279187817264
G2 X53.50761421319797 Y25.631979695431472 I-0.15228426395939088 J0.08629441624365483
G2 X53.47208121827411 Y25.60406091370558 I-0.12436548223350254 J0.12436548223350254
G2 X53.42893401015228 Y25.586294416243653 I-0.08629441624365483 J0.15228426395939088
G2 X53.38578680203046 Y25.581218274111674 I-0.045685279187817264 J0.1700507614213198
G2 X53.34010152284264 Y25.586294416243653 I0 J0.17512690355329952
G2 X53.296954314720814 Y25.60406091370558 I0.045685279187817264 J0.1700507614213198
G2 X53.26142131979695 Y25.631979695431472 I0.08629441624365483 J0.15228426395939088
G2 X53.233502538071065 Y25.66751269035533 I0.12436548223350254 J0.12436548223350254
G2 X53.215736040609144 Y25.710659898477157 I0.15228426395939088 J0.08629441624365483
G2 X53.21065989847716 Y25.753807106598984 I0.1700507614213198 J0.045685279187817264
G2 X53.215736040609144 Y25.799492385786806 I0.17512690355329952 J0
G2 X53.233502538071065 Y25.84263959390863 I0.1700507614213198 J-0.045685279187817264
G2 X53.26142131979695 Y25.878172588832488 I0.15228426395939088 J-0.08629441624365483
G2 X53.296954314720814 Y25.906091370558375 I0.12436548223350254 J-0.12436548223350254
G2 X53.34010152284264 Y25.923857868020303 I0.08629441624365483 J-0.15228426395939088
G2 X53.38578680203046 Y25.928934010152282 I0.045685279187817264 J-0.1700507614213198
G2 X53.42893401015228 Y25.923857868020303 I0 J-0.17512690355329952
G2 X53.47208121827411 Y25.906091370558375 I-0.045685279187817264 J-0.1700507614213198
G2 X53.50761421319797 Y25.878172588832488 I-0.08629441624365483 J-0.15228426395939088
G2 X53.53553299492386 Y25.84263959390863 I-0.12436548223350254 J-0.12436548223350254
G2 X53.55329949238579 Y25.799492385786806 I-0.15228426395939088 J-0.08629441624365483
G2 X53.56091370558375 Y25.753807106598984 I-0.1700507614213198 J-0.045685279187817264
G0 Z5
G0 X53.55989847715736 Y25.75507614213198
G1 Z-0.25 F800
G2 X53.55329949238579 Y25.710659898477157 I-0.17512690355329952 J0 F1500
G2 X53.53553299492386 Y25.66751269035533 I-0.1700507614213198 J0.045685279187817264
G2 X53.50761421319797 Y25.631979695431472 I-0.15228426395939088 J0.08629441624365483
G2 X53.47208121827411 Y25.60406091370558 I-0.12436548223350254 J0.12436548223350254
G2 X53.42893401015228 Y25.586294416243653 I-0.08629441624365483 J0.15228426395939088
G2 X53.38578680203046 Y25.581218274111674 I-0.045685279187817264 J0.1700507614213198
G2 X53.34010152284264 Y25.586294416243653 I0 J0.17512690355329952
G2 X53.296954314720814 Y25.60406091370558 I0.045685279187817264 J0.1700507614213198
G2 X53.26142131979695 Y25.631979695431472 I0.08629441624365483 J0.15228426395939088
G2 X53.233502538071065 Y25.66751269035533 I0.12436548223350254 J0.12436548223350254
G2 X53.215736040609144 Y25.710659898477157 I0.15228426395939088 J0.08629441624365483
G2 X53.21065989847716 Y25.753807106598984 I0.1700507614213198 J0.045685279187817264
G2 X53.215736040609144 Y25.799492385786806 I0.17512690355329952 J0
G2 X53.233502538071065 Y25.84263959390863 I0.1700507614213198 J-0.045685279187817264
G2 X53.26142131979695 Y25.878172588832488 I0.15228426395939088 J-0.08629441624365483
G2 X53.296954314720814 Y25.906091370558375 I0.12436548223350254 J-0.12436548223350254
G2 X53.34010152284264 Y25.923857868020303 I0.08629441624365483 J-0.15228426395939088
G2 X53.38578680203046 Y25.928934010152282 I0.045685279187817264 J-0.1700507614213198
G2 X53.42893401015228 Y25.923857868020303 I0 J-0.17512690355329952
G2 X53.47208121827411 Y25.906091370558375 I-0.045685279187817264 J-0.1700507614213198
G2 X53.50761421319797 Y25.878172588832488 I-0.08629441624365483 J-0.15228426395939088
G2 X53.53553299492386 Y25.84263959390863 I-0.12436548223350254 J-0.12436548223350254
G2 X53.55329949238579 Y25.799492385786806 I-0.15228426395939088 J-0.08629441624365483
G2 X53.56091370558375 Y25.753807106598984 I-0.1700507614213198 J-0.045685279187817264
G0 Z5
G0 X53.55989847715736 Y29.25507614213198
G1 Z0.5 F800
G2 X53.55329949238579 Y29.210659898477157 I-0.17512690355329952 J0 F1500
G2 X53.53553299492386 Y29.16751269035533 I-0.1700507614213198 J0.045685279187817264
G2 X53.50761421319797 Y29.131979695431475 I-0.15228426395939088 J0.08629441624365483
G2 X53.47208121827411 Y29.10406091370558 I-0.12436548223350254 J0.12436548223350254
G2 X53.42893401015228 Y29.086294416243653 I-0.08629441624365483 J0.15228426395939088
G2 X53.38578680203046 Y29.081218274111677 I-0.045685279187817264 J0.1700507614213198
G2 X53.34010152284264 Y29.086294416243653 I0 J0.17512690355329952
G2 X53.296954314720814 Y29.10406091370558 I0.045685279187817264 J0.1700507614213198
G2 X53.26142131979695 Y29.131979695431475 I0.08629441624365483 J0.15228426395939088
G2 X53.233502538071065 Y29.16751269035533 I0.12436548223350254 J0.12436548223350254
G2 X53.215736040609144 Y29.210659898477157 I0.15228426395939088 J0.08629441624365483
G2 X53.21065989847716 Y29.256345177664972 I0.1700507614213198 J0.045685279187817264
G2 X53.215736040609144 Y29.2994923857868 I0.17512690355329952 J0
G2 X53.233502538071065 Y29.34263959390863 I0.1700507614213198 J-0.045685279187817264
G2 X53.26142131979695 Y29.378172588832484 I0.15228426395939088 J-0.08629441624365483
G2 X53.296954314720814 Y29.406091370558375 I0.12436548223350254 J-0.12436548223350254
G2 X53.34010152284264 Y29.423857868020306 I0.08629441624365483 J-0.15228426395939088
G2 X53.38578680203046 Y29.428934010152282 I0.045685279187817264 J-0.1700507614213198
G2 X53.42893401015228 Y29.423857868020306 I0 J-0.17512690355329952
G2 X53.47208121827411 Y29.406091370558375 I-0.045685279187817264 J-0.1700507614213198
G2 X53.50761421319797 Y29.378172588832484 I-0.08629441624365483 J-0.15228426395939088
G2 X53.53553299492386 Y29.34263959390863 I-0.12436548223350254 J-0.12436548223350254
G2 X53.55329949238579 Y29.2994923857868 I-0.15228426395939088 J-0.08629441624365483
G2 X53.56091370558375 Y29.256345177664972 I-0.1700507614213198 J-0.045685279187817264
G0 Z5
G0 X53.55989847715736 Y29.25507614213198
G1 Z-0.25 F800
G2 X53.55329949238579 Y29.210659898477157 I-0.17512690355329952 J0 F1500
G2 X53.53553299492386 Y29.16751269035533 I-0.1700507614213198 J0.045685279187817264
G2 X53.50761421319797 Y29.131979695431475 I-0.15228426395939088 J0.08629441624365483
G2 X53.47208121827411 Y29.10406091370558 I-0.12436548223350254 J0.12436548223350254
G2 X53.42893401015228 Y29.086294416243653 I-0.08629441624365483 J0.15228426395939088
G2 X53.38578680203046 Y29.081218274111677 I-0.045685279187817264 J0.1700507614213198
G2 X53.34010152284264 Y29.086294416243653 I0 J0.17512690355329952
G2 X53.296954314720814 Y29.10406091370558 I0.045685279187817264 J0.1700507614213198
G2 X53.26142131979695 Y29.131979695431475 I0.08629441624365483 J0.15228426395939088
G2 X53.233502538071065 Y29.16751269035533 I0.12436548223350254 J0.12436548223350254
G2 X53.215736040609144 Y29.210659898477157 I0.15228426395939088 J0.08629441624365483
G2 X53.21065989847716 Y29.256345177664972 I0.1700507614213198 J0.045685279187817264
G2 X53.215736040609144 Y29.2994923857868 I0.17512690355329952 J0
G2 X53.233502538071065 Y29.34263959390863 I0.1700507614213198 J-0.045685279187817264
G2 X53.26142131979695 Y29.378172588832484 I0.15228426395939088 J-0.08629441624365483
G2 X53.296954314720814 Y29.406091370558375 I0.12436548223350254 J-0.12436548223350254
G2 X53.34010152284264 Y29.423857868020306 I0.08629441624365483 J-0.15228426395939088
G2 X53.38578680203046 Y29.428934010152282 I0.045685279187817264 J-0.1700507614213198
G2 X53.42893401015228 Y29.423857868020306 I0 J-0.17512690355329952
G2 X53.47208121827411 Y29.406091370558375 I-0.045685279187817264 J-0.1700507614213198
G2 X53.50761421319797 Y29.378172588832484 I-0.08629441624365483 J-0.15228426395939088
G2 X53.53553299492386 Y29.34263959390863 I-0.12436548223350254 J-0.12436548223350254
G2 X53.55329949238579 Y29.2994923857868 I-0.15228426395939088 J-0.08629441624365483
G2 X53.56091370558375 Y29.256345177664972 I-0.1700507614213198 J-0.045685279187817264
G0 Z5
G0 X53.55989847715736 Y22.25507614213198
G1 Z0.5 F800
G2 X53.55329949238579 Y22.210659898477157 I-0.17512690355329952 J0 F1500
G2 X53.53553299492386 Y22.16751269035533 I-0.1700507614213198 J0.045685279187817264
G2 X53.50761421319797 Y22.131979695431472 I-0.15228426395939088 J0.08629441624365483
G2 X53.47208121827411 Y22.104060913705585 I-0.12436548223350254 J0.12436548223350254
G2 X53.42893401015228 Y22.086294416243657 I-0.08629441624365483 J0.15228426395939088
G2 X53.38578680203046 Y22.081218274111674 I-0.045685279187817264 J0.1700507614213198
G2 X53.34010152284264 Y22.086294416243657 I0 J0.17512690355329952
G2 X53.296954314720814 Y22.104060913705585 I0.045685279187817264 J0.1700507614213198
G2 X53.26142131979695 Y22.131979695431472 I0.08629441624365483 J0.15228426395939088
G2 X53.233502538071065 Y22.16751269035533 I0.12436548223350254 J0.12436548223350254
G2 X53.215736040609144 Y22.210659898477157 I0.15228426395939088 J0.08629441624365483
G2 X53.21065989847716 Y22.256345177664976 I0.1700507614213198 J0.045685279187817264
G2 X53.223350253807105 Y22.32233502538071 I0.17512690355329952 J0
G2 X53.26142131979695 Y22.378172588832488 I0.16243654822335027 J-0.06598984771573604
G2 X53.317258883248726 Y22.41624365482234 I0.12436548223350254 J-0.12436548223350254
G2 X53.38578680203046 Y22.428934010152286 I0.06598984771573604 J-0.16243654822335027
G2 X53.45177664974619 Y22.41624365482234 I0 J-0.17512690355329952
G2 X53.50761421319797 Y22.378172588832488 I-0.06598984771573604 J-0.16243654822335027
G2 X53.54568527918782 Y22.32233502538071 I-0.12436548223350254 J-0.12436548223350254
G2 X53.56091370558375 Y22.256345177664976 I-0.16243654822335027 J-0.06598984771573604
G0 Z5
G0 X53.55989847715736 Y22.25507614213198
G1 Z-0.25 F800
G2 X53.55329949238579 Y22.210659898477157 I-0.17512690355329952 J0 F1500
G2 X53.53553299492386 Y22.16751269035533 I-0.1700507614213198 J0.045685279187817264
G2 X53.50761421319797 Y22.131979695431472 I-0.15228426395939088 J0.08629441624365483
G2 X53.47208121827411 Y22.104060913705585 I-0.12436548223350254 J0.12436548223350254
G2 X53.42893401015228 Y22.086294416243657 I-0.08629441624365483 J0.15228426395939088
G2 X53.38578680203046 Y22.081218274111674 I-0.045685279187817264 J0.1700507614213198
G2 X53.34010152284264 Y22.086294416243657 I0 J0.17512690355329952
G2 X53.296954314720814 Y22.104060913705585 I0.045685279187817264 J0.1700507614213198
G2 X53.26142131979695 Y22.131979695431472 I0.08629441624365483 J0.15228426395939088
G2 X53.233502538071065 Y22.16751269035533 I0.12436548223350254 J0.12436548223350254
G2 X53.215736040609144 Y22.210659898477157 I0.15228426395939088 J0.08629441624365483
G2 X53.21065989847716 Y22.256345177664976 I0.1700507614213198 J0.045685279187817264
G2 X53.223350253807105 Y22.32233502538071 I0.17512690355329952 J0
G2 X53.26142131979695 Y22.378172588832488 I0.16243654822335027 J-0.06598984771573604
G2 X53.317258883248726 Y22.41624365482234 I0.12436548223350254 J-0.12436548223350254
G2 X53.38578680203046 Y22.428934010152286 I0.06598984771573604 J-0.16243654822335027
G2 X53.45177664974619 Y22.41624365482234 I0 J-0.17512690355329952
G2 X53.50761421319797 Y22.378172588832488 I-0.06598984771573604 J-0.16243654822335027
G2 X53.54568527918782 Y22.32233502538071 I-0.12436548223350254 J-0.12436548223350254
G2 X53.56091370558375 Y22.256345177664976 I-0.16243654822335027 J-0.06598984771573604
G0 Z5
G0 X53.55989847715736 Y18.75507614213198
G1 Z0.5 F800
G2 X53.55329949238579 Y18.710659898477157 I-0.17512690355329952 J0 F1500
G2 X53.53553299492386 Y18.66751269035533 I-0.1700507614213198 J0.045685279187817264
G2 X53.50761421319797 Y18.631979695431472 I-0.15228426395939088 J0.08629441624365483
G2 X53.47208121827411 Y18.604060913705585 I-0.12436548223350254 J0.12436548223350254
G2 X53.42893401015228 Y18.586294416243653 I-0.08629441624365483 J0.15228426395939088
G2 X53.38578680203046 Y18.581218274111674 I-0.045685279187817264 J0.1700507614213198
G2 X53.34010152284264 Y18.586294416243653 I0 J0.17512690355329952
G2 X53.296954314720814 Y18.604060913705585 I0.045685279187817264 J0.1700507614213198
G2 X53.26142131979695 Y18.631979695431472 I0.08629441624365483 J0.15228426395939088
G2 X53.233502538071065 Y18.66751269035533 I0.12436548223350254 J0.12436548223350254
G2 X53.215736040609144 Y18.710659898477157 I0.15228426395939088 J0.08629441624365483
G2 X53.21065989847716 Y18.753807106598984 I0.1700507614213198 J0.045685279187817264
G2 X53.223350253807105 Y18.82233502538071 I0.17512690355329952 J0
G2 X53.26142131979695 Y18.878172588832488 I0.16243654822335027 J-0.06598984771573604
G2 X53.317258883248726 Y18.916243654822335 I0.12436548223350254 J-0.12436548223350254
G2 X53.38578680203046 Y18.928934010152286 I0.06598984771573604 J-0.16243654822335027
G2 X53.45177664974619 Y18.916243654822335 I0 J-0.17512690355329952
G2 X53.50761421319797 Y18.878172588832488 I-0.06598984771573604 J-0.16243654822335027
G2 X53.54568527918782 Y18.82233502538071 I-0.12436548223350254 J-0.12436548223350254
G2 X53.56091370558375 Y18.753807106598984 I-0.16243654822335027 J-0.06598984771573604
G0 Z5
G0 X53.55989847715736 Y18.75507614213198
G1 Z-0.25 F800
G2 X53.55329949238579 Y18.710659898477157 I-0.17512690355329952 J0 F1500
G2 X53.53553299492386 Y18.66751269035533 I-0.1700507614213198 J0.045685279187817264
G2 X53.50761421319797 Y18.631979695431472 I-0.15228426395939088 J0.08629441624365483
G2 X53.47208121827411 Y18.604060913705585 I-0.12436548223350254 J0.12436548223350254
G2 X53.42893401015228 Y18.586294416243653 I-0.08629441624365483 J0.15228426395939088
G2 X53.38578680203046 Y18.581218274111674 I-0.045685279187817264 J0.1700507614213198
G2 X53.34010152284264 Y18.586294416243653 I0 J0.17512690355329952
G2 X53.296954314720814 Y18.604060913705585 I0.045685279187817264 J0.1700507614213198
G2 X53.26142131979695 Y18.631979695431472 I0.08629441624365483 J0.15228426395939088
G2 X53.233502538071065 Y18.66751269035533 I0.12436548223350254 J0.12436548223350254
G2 X53.215736040609144 Y18.710659898477157 I0.15228426395939088 J0.08629441624365483
G2 X53.21065989847716 Y18.753807106598984 I0.1700507614213198 J0.045685279187817264
G2 X53.223350253807105 Y18.82233502538071 I0.17512690355329952 J0
G2 X53.26142131979695 Y18.878172588832488 I0.16243654822335027 J-0.06598984771573604
G2 X53.317258883248726 Y18.916243654822335 I0.12436548223350254 J-0.12436548223350254
G2 X53.38578680203046 Y18.928934010152286 I0.06598984771573604 J-0.16243654822335027
G2 X53.45177664974619 Y18.916243654822335 I0 J-0.17512690355329952
G2 X53.50761421319797 Y18.878172588832488 I-0.06598984771573604 J-0.16243654822335027
G2 X53.54568527918782 Y18.82233502538071 I-0.12436548223350254 J-0.12436548223350254
G2 X53.56091370558375 Y18.753807106598984 I-0.16243654822335027 J-0.06598984771573604
G0 Z5
G0 X53.55989847715736 Y15.25507614213198
G1 Z0.5 F800
G2 X53.54568527918782 Y15.18781725888325 I-0.17512690355329952 J0 F1500
G2 X53.50761421319797 Y15.131979695431472 I-0.16243654822335027 J0.06598984771573604
G2 X53.45177664974619 Y15.093908629441623 I-0.12436548223350254 J0.12436548223350254
G2 X53.38578680203046 Y15.081218274111674 I-0.06598984771573604 J0.16243654822335027
G2 X53.317258883248726 Y15.093908629441623 I0 J0.17512690355329952
G2 X53.26142131979695 Y15.131979695431472 I0.06598984771573604 J0.16243654822335027
G2 X53.223350253807105 Y15.18781725888325 I0.12436548223350254 J0.12436548223350254
G2 X53.21065989847716 Y15.256345177664974 I0.16243654822335027 J0.06598984771573604
G2 X53.215736040609144 Y15.299492385786802 I0.17512690355329952 J0
G2 X53.233502538071065 Y15.342639593908629 I0.1700507614213198 J-0.045685279187817264
G2 X53.26142131979695 Y15.378172588832488 I0.15228426395939088 J-0.08629441624365483
G2 X53.296954314720814 Y15.406091370558375 I0.12436548223350254 J-0.12436548223350254
G2 X53.34010152284264 Y15.423857868020306 I0.08629441624365483 J-0.15228426395939088
G2 X53.38578680203046 Y15.428934010152284 I0.045685279187817264 J-0.1700507614213198
G2 X53.42893401015228 Y15.423857868020306 I0 J-0.17512690355329952
G2 X53.47208121827411 Y15.406091370558375 I-0.045685279187817264 J-0.1700507614213198
G2 X53.50761421319797 Y15.378172588832488 I-0.08629441624365483 J-0.15228426395939088
G2 X53.53553299492386 Y15.342639593908629 I-0.12436548223350254 J-0.12436548223350254
G2 X53.55329949238579 Y15.299492385786802 I-0.15228426395939088 J-0.08629441624365483
G2 X53.56091370558375 Y15.256345177664974 I-0.1700507614213198 J-0.045685279187817264
G0 Z5
G0 X53.55989847715736 Y15.25507614213198
G1 Z-0.25 F800
G2 X53.54568527918782 Y15.18781725888325 I-0.17512690355329952 J0 F1500
G2 X53.50761421319797 Y15.131979695431472 I-0.16243654822335027 J0.06598984771573604
G2 X53.45177664974619 Y15.093908629441623 I-0.12436548223350254 J0.12436548223350254
G2 X53.38578680203046 Y15.081218274111674 I-0.06598984771573604 J0.16243654822335027
G2 X53.317258883248726 Y15.093908629441623 I0 J0.17512690355329952
G2 X53.26142131979695 Y15.131979695431472 I0.06598984771573604 J0.16243654822335027
G2 X53.223350253807105 Y15.18781725888325 I0.12436548223350254 J0.12436548223350254
G2 X53.21065989847716 Y15.256345177664974 I0.16243654822335027 J0.06598984771573604
G2 X53.215736040609144 Y15.299492385786802 I0.17512690355329952 J0
G2 X53.233502538071065 Y15.342639593908629 I0.1700507614213198 J-0.045685279187817264
G2 X53.26142131979695 Y15.378172588832488 I0.15228426395939088 J-0.08629441624365483
G2 X53.296954314720814 Y15.406091370558375 I0.12436548223350254 J-0.12436548223350254
G2 X53.34010152284264 Y15.423857868020306 I0.08629441624365483 J-0.15228426395939088
G2 X53.38578680203046 Y15.428934010152284 I0.045685279187817264 J-0.1700507614213198
G2 X53.42893401015228 Y15.423857868020306 I0 J-0.17512690355329952
G2 X53.47208121827411 Y15.406091370558375 I-0.045685279187817264 J-0.1700507614213198
G2 X53.50761421319797 Y15.378172588832488 I-0.08629441624365483 J-0.15228426395939088
G2 X53.53553299492386 Y15.342639593908629 I-0.12436548223350254 J-0.12436548223350254
G2 X53.55329949238579 Y15.299492385786802 I-0.15228426395939088 J-0.08629441624365483
G2 X53.56091370558375 Y15.256345177664974 I-0.1700507614213198 J-0.045685279187817264
G0 Z5
G0 X53.55989847715736 Y11.75507614213198
G1 Z0.5 F800
G2 X53.54568527918782 Y11.687817258883248 I-0.17512690355329952 J0 F1500
G2 X53.50761421319797 Y11.631979695431472 I-0.16243654822335027 J0.06598984771573604
G2 X53.45177664974619 Y11.593908629441625 I-0.12436548223350254 J0.12436548223350254
G2 X53.38578680203046 Y11.581218274111675 I-0.06598984771573604 J0.16243654822335027
G2 X53.317258883248726 Y11.593908629441625 I0 J0.17512690355329952
G2 X53.26142131979695 Y11.631979695431472 I0.06598984771573604 J0.16243654822335027
G2 X53.223350253807105 Y11.687817258883248 I0.12436548223350254 J0.12436548223350254
G2 X53.21065989847716 Y11.753807106598986 I0.16243654822335027 J0.06598984771573604
G2 X53.215736040609144 Y11.799492385786802 I0.17512690355329952 J0
G2 X53.233502538071065 Y11.84263959390863 I0.1700507614213198 J-0.045685279187817264
G2 X53.26142131979695 Y11.878172588832488 I0.15228426395939088 J-0.08629441624365483
G2 X53.296954314720814 Y11.906091370558375 I0.12436548223350254 J-0.12436548223350254
G2 X53.34010152284264 Y11.923857868020304 I0.08629441624365483 J-0.15228426395939088
G2 X53.38578680203046 Y11.928934010152282 I0.045685279187817264 J-0.1700507614213198
G2 X53.42893401015228 Y11.923857868020304 I0 J-0.17512690355329952
G2 X53.47208121827411 Y11.906091370558375 I-0.045685279187817264 J-0.1700507614213198
G2 X53.50761421319797 Y11.878172588832488 I-0.08629441624365483 J-0.15228426395939088
G2 X53.53553299492386 Y11.84263959390863 I-0.12436548223350254 J-0.12436548223350254
G2 X53.55329949238579 Y11.799492385786802 I-0.15228426395939088 J-0.08629441624365483
G2 X53.56091370558375 Y11.753807106598986 I-0.1700507614213198 J-0.045685279187817264
