( pcb2gcode 1.3.2 )
( Software-independent Gcode )

( This file uses 5 drill bit sizes. )
( Bit sizes: [0.5mm] [0.7mm] [0.8mm] [1.2mm] [1.5mm] )

G94       (Millimeters per minute feed rate.)
G21       (Units == Millimeters.)
G91.1     (Incremental arc distance mode.)
G90       (Absolute coordinates.)
S200     (RPM spindle speed.)

G00 Z15.00000 (Retract)
T1
M5      (Spindle stop.)
(MSG, Change tool bit to drill size 0.50000 mm)
M6      (Tool change.)
M0      (Temporary machine stop.)
M3      (Spindle on clockwise.)
G0 Z8.00000

F100.00000
G0 X45.05080 Y7.76080
G1 Z-1.00000
G1 Z8.00000
G0 X45.05080 Y10.30080
G1 Z-1.00000
G1 Z8.00000

G00 Z15.00000 (Retract)
T2
M5      (Spindle stop.)
(MSG, Change tool bit to drill size 0.70000 mm)
M6      (Tool change.)
M0      (Temporary machine stop.)
M3      (Spindle on clockwise.)
G0 Z8.00000

F100.00000
G0 X17.11080 Y17.00080
G1 Z-1.00000
G1 Z8.00000
G0 X19.61080 Y17.00080
G1 Z-1.00000
G1 Z8.00000
G0 X19.61080 Y24.00080
G1 Z-1.00000
G1 Z8.00000
G0 X17.11080 Y24.00080
G1 Z-1.00000
G1 Z8.00000
G0 X28.58080 Y29.35080
G1 Z-1.00000
G1 Z8.00000
G0 X31.08080 Y29.35080
G1 Z-1.00000
G1 Z8.00000
G0 X28.50080 Y38.24080
G1 Z-1.00000
G1 Z8.00000
G0 X26.00080 Y38.24080
G1 Z-1.00000
G1 Z8.00000
G0 X28.58080 Y15.38080
G1 Z-1.00000
G1 Z8.00000
G0 X31.08080 Y15.38080
G1 Z-1.00000
G1 Z8.00000
G0 X37.43080 Y15.38080
G1 Z-1.00000
G1 Z8.00000
G0 X39.93080 Y15.38080
G1 Z-1.00000
G1 Z8.00000

G00 Z15.00000 (Retract)
T3
M5      (Spindle stop.)
(MSG, Change tool bit to drill size 0.80000 mm)
M6      (Tool change.)
M0      (Temporary machine stop.)
M3      (Spindle on clockwise.)
G0 Z8.00000

F100.00000
G0 X38.11080 Y22.00080
G1 Z-1.00000
G1 Z8.00000
G0 X42.11080 Y21.73080
G1 Z-1.00000
G1 Z8.00000
G0 X46.32080 Y21.73080
G1 Z-1.00000
G1 Z8.00000
G0 X51.40080 Y21.73080
G1 Z-1.00000
G1 Z8.00000
G0 X51.40080 Y19.19080
G1 Z-1.00000
G1 Z8.00000
G0 X51.40080 Y16.65080
G1 Z-1.00000
G1 Z8.00000
G0 X51.40080 Y14.11080
G1 Z-1.00000
G1 Z8.00000
G0 X51.40080 Y11.57080
G1 Z-1.00000
G1 Z8.00000
G0 X51.40080 Y9.03080
G1 Z-1.00000
G1 Z8.00000
G0 X51.40080 Y6.49080
G1 Z-1.00000
G1 Z8.00000
G0 X59.02080 Y6.49080
G1 Z-1.00000
G1 Z8.00000
G0 X59.02080 Y9.03080
G1 Z-1.00000
G1 Z8.00000
G0 X59.02080 Y11.57080
G1 Z-1.00000
G1 Z8.00000
G0 X59.02080 Y14.11080
G1 Z-1.00000
G1 Z8.00000
G0 X59.02080 Y16.65080
G1 Z-1.00000
G1 Z8.00000
G0 X59.02080 Y19.19080
G1 Z-1.00000
G1 Z8.00000
G0 X59.02080 Y21.73080
G1 Z-1.00000
G1 Z8.00000
G0 X59.02080 Y24.27080
G1 Z-1.00000
G1 Z8.00000
G0 X59.02080 Y26.81080
G1 Z-1.00000
G1 Z8.00000
G0 X59.02080 Y29.35080
G1 Z-1.00000
G1 Z8.00000
G0 X59.02080 Y31.89080
G1 Z-1.00000
G1 Z8.00000
G0 X59.02080 Y34.43080
G1 Z-1.00000
G1 Z8.00000
G0 X59.02080 Y36.97080
G1 Z-1.00000
G1 Z8.00000
G0 X59.02080 Y39.51080
G1 Z-1.00000
G1 Z8.00000
G0 X51.40080 Y39.51080
G1 Z-1.00000
G1 Z8.00000
G0 X51.40080 Y36.97080
G1 Z-1.00000
G1 Z8.00000
G0 X51.40080 Y34.43080
G1 Z-1.00000
G1 Z8.00000
G0 X51.40080 Y31.89080
G1 Z-1.00000
G1 Z8.00000
G0 X51.40080 Y29.35080
G1 Z-1.00000
G1 Z8.00000
G0 X51.40080 Y26.81080
G1 Z-1.00000
G1 Z8.00000
G0 X51.40080 Y24.27080
G1 Z-1.00000
G1 Z8.00000
G0 X46.32080 Y29.35080
G1 Z-1.00000
G1 Z8.00000
G0 X42.11080 Y29.35080
G1 Z-1.00000
G1 Z8.00000
G0 X38.11080 Y29.62080
G1 Z-1.00000
G1 Z8.00000
G0 X37.43080 Y38.24080
G1 Z-1.00000
G1 Z8.00000
G0 X45.05080 Y38.24080
G1 Z-1.00000
G1 Z8.00000
G0 X62.83080 Y16.65080
G1 Z-1.00000
G1 Z8.00000
G0 X70.45080 Y16.65080
G1 Z-1.00000
G1 Z8.00000

G00 Z15.00000 (Retract)
T4
M5      (Spindle stop.)
(MSG, Change tool bit to drill size 1.20000 mm)
M6      (Tool change.)
M0      (Temporary machine stop.)
M3      (Spindle on clockwise.)
G0 Z8.00000

F100.00000
G0 X5.68080 Y9.34080
G1 Z-1.00000
G1 Z8.00000
G0 X5.68080 Y12.84080
G1 Z-1.00000
G1 Z8.00000
G0 X5.68080 Y19.50080
G1 Z-1.00000
G1 Z8.00000
G0 X5.68080 Y23.00080
G1 Z-1.00000
G1 Z8.00000
G0 X6.95080 Y31.89080
G1 Z-1.00000
G1 Z8.00000
G0 X3.45080 Y31.89080
G1 Z-1.00000
G1 Z8.00000
G0 X66.64080 Y32.20080
G1 Z-1.00000
G1 Z8.00000
G0 X66.64080 Y35.70080
G1 Z-1.00000
G1 Z8.00000
G0 X66.64080 Y9.99080
G1 Z-1.00000
G1 Z8.00000
G0 X66.64080 Y6.49080
G1 Z-1.00000
G1 Z8.00000

G00 Z15.00000 (Retract)
T5
M5      (Spindle stop.)
(MSG, Change tool bit to drill size 1.50000 mm)
M6      (Tool change.)
M0      (Temporary machine stop.)
M3      (Spindle on clockwise.)
G0 Z8.00000

F100.00000
G0 X13.66080 Y7.00080
G1 Z-1.00000
G1 Z8.00000
G0 X19.11080 Y7.00080
G1 Z-1.00000
G1 Z8.00000
G0 X24.56080 Y7.00080
G1 Z-1.00000
G1 Z8.00000

G00 Z15.000 ( All done -- retract )

M5      (Spindle off.)
M9      (Coolant off.)
M2      (Program end.)

