( pcb2gcode 1.3.2 )
( Software-independent Gcode )

G94 ( Millimeters per minute feed rate. )
G21 ( Units == Millimeters. )

G90 ( Absolute coordinates. )
S1000 ( RPM spindle speed. )
G64 P0.05080 ( set maximum deviation from commanded toolpath )
F400.00000 ( Feedrate. )

F400.00000 ( Feedrate. )
M3 ( Spindle on clockwise. )
G04 P0 ( dwell for no time -- G64 should not smooth over this point )
G00 Z8.00000 ( retract )

G00 X8.37320 Y33.09020 ( rapid move to begin. )
F200.00000
G01 Z-0.05000
G04 P0 ( dwell for no time -- G64 should not smooth over this point )
F400.00000
G01 X8.37320 Y33.09020
X8.37320 Y32.63300
X14.13900 Y32.63300
X14.39300 Y32.88700
X14.39300 Y33.03940
X14.54540 Y33.03940
X14.67240 Y33.19180
X14.87560 Y33.26800
X15.53600 Y33.26800
X15.73920 Y33.19180
X15.86620 Y33.03940
X15.99320 Y33.03940
X15.99320 Y32.04880
X15.94240 Y32.04880
X15.94240 Y31.76940
X15.99320 Y31.76940
X15.99320 Y30.77880
X15.53600 Y30.75340
X14.39300 Y30.77880
X14.39300 Y31.15980
X12.84360 Y31.15980
X12.84360 Y29.40720
X15.05340 Y27.22280
X15.12960 Y27.07040
X15.12960 Y19.80600
X17.00920 Y17.92640
X17.49180 Y17.92640
X17.79660 Y17.79940
X17.99980 Y17.49460
X18.02520 Y16.91040
X18.88880 Y16.04680
X19.93020 Y16.04680
X20.15880 Y16.17380
X20.43820 Y16.45320
X20.48900 Y16.63100
X20.69220 Y16.83420
X20.74300 Y16.83420
X25.87380 Y21.96500
X25.95000 Y22.19360
X26.20400 Y22.44760
X26.30560 Y22.49840
X37.07520 Y22.49840
X37.12600 Y22.65080
X37.20220 Y22.70160
X37.27840 Y22.85400
X37.38000 Y22.87940
X37.53240 Y23.00640
X37.68480 Y23.03180
X38.62460 Y23.00640
X38.65000 Y22.95560
X38.87860 Y22.85400
X38.87860 Y22.80320
X39.03100 Y22.65080
X39.08180 Y22.49840
X41.24080 Y22.49840
X41.29160 Y22.60000
X41.39320 Y22.62540
X41.54560 Y22.75240
X42.48540 Y22.77780
X42.63780 Y22.75240
X42.66320 Y22.70160
X42.89180 Y22.60000
X42.89180 Y22.54920
X43.06960 Y22.34600
X43.12040 Y22.19360
X43.12040 Y21.30460
X43.06960 Y21.15220
X42.89180 Y20.94900
X42.89180 Y20.89820
X42.79020 Y20.87280
X42.63780 Y20.74580
X41.69800 Y20.72040
X41.54560 Y20.74580
X41.52020 Y20.79660
X41.29160 Y20.89820
X41.29160 Y20.94900
X41.21540 Y20.99980
X41.21540 Y21.05060
X41.13920 Y21.10140
X41.08840 Y21.20300
X41.06300 Y21.50780
X39.08180 Y21.50780
X39.03100 Y21.35540
X38.95480 Y21.30460
X38.87860 Y21.15220
X38.77700 Y21.12680
X38.62460 Y20.99980
X38.47220 Y20.97440
X37.53240 Y20.99980
X37.38000 Y21.12680
X37.27840 Y21.15220
X37.20220 Y21.30460
X37.12600 Y21.35540
X37.07520 Y21.50780
X26.96600 Y21.50780
X26.86440 Y21.40620
X26.78820 Y21.17760
X25.95000 Y20.33940
X25.89920 Y20.33940
X20.69220 Y15.10700
X20.59060 Y15.05620
X18.22840 Y15.05620
X18.12680 Y15.10700
X17.18700 Y16.07220
X16.57740 Y16.09760
X16.55200 Y16.14840
X16.39960 Y16.19920
X16.32340 Y16.27540
X16.19640 Y16.50400
X8.29700 Y16.50400
X7.53500 Y15.74200
X7.53500 Y15.69120
X6.41740 Y14.59900
X6.41740 Y14.29420
X7.10320 Y14.29420
X7.10320 Y13.58300
X8.19540 Y13.58300
X8.39860 Y13.50680
X12.86900 Y9.01100
X15.12960 Y9.01100
X15.12960 Y5.02320
X12.15780 Y5.02320
X12.15780 Y7.38540
X7.43340 Y12.10980
X7.10320 Y12.10980
X7.10320 Y11.42400
X4.23300 Y11.42400
X4.23300 Y14.29420
X4.94420 Y14.29420
X4.94420 Y15.36100
X5.02040 Y15.56420
X7.12860 Y17.67240
X7.12860 Y22.26980
X7.10320 Y21.58400
X4.23300 Y21.58400
X4.23300 Y24.45420
X4.94420 Y24.45420
X4.94420 Y30.95660
X5.02040 Y31.15980
X5.50300 Y31.61700
X5.50300 Y33.34420
X8.37320 Y33.34420
X8.37320 Y33.09020
G04 P0 ( dwell for no time -- G64 should not smooth over this point )
G00 Z8.00000 ( retract )

G00 X22.34320 Y30.24540 ( rapid move to begin. )
F200.00000
G01 Z-0.05000
G04 P0 ( dwell for no time -- G64 should not smooth over this point )
F400.00000
G01 X22.34320 Y30.24540
X22.34320 Y29.50880
X20.79380 Y29.50880
X17.59340 Y26.28300
X17.59340 Y24.91140
X17.79660 Y24.80980
X17.99980 Y24.50500
X18.02520 Y23.64140
X17.97440 Y23.43820
X17.79660 Y23.20960
X17.64420 Y23.15880
X17.61880 Y23.10800
X17.49180 Y23.08260
X16.70440 Y23.08260
X16.62820 Y23.10800
X16.57740 Y23.18420
X16.47580 Y23.20960
X16.19640 Y23.53980
X16.17100 Y24.37800
X16.19640 Y24.53040
X16.32340 Y24.68280
X16.32340 Y24.73360
X16.60280 Y24.91140
X16.60280 Y26.91800
X16.67900 Y27.07040
X19.54920 Y29.91520
X19.54920 Y29.96600
X20.03180 Y30.44860
X20.13340 Y30.49940
X22.34320 Y30.49940
X22.34320 Y30.24540
G04 P0 ( dwell for no time -- G64 should not smooth over this point )
G00 Z8.00000 ( retract )

G00 X38.16740 Y39.03380 ( rapid move to begin. )
F200.00000
G01 Z-0.05000
G04 P0 ( dwell for no time -- G64 should not smooth over this point )
F400.00000
G01 X38.16740 Y39.03380
X38.44680 Y38.67820
X38.44680 Y37.81460
X38.37060 Y37.61140
X38.29440 Y37.56060
X38.21820 Y37.40820
X38.11660 Y37.38280
X37.96420 Y37.25580
X37.81180 Y37.23040
X36.87200 Y37.25580
X36.84660 Y37.30660
X36.61800 Y37.40820
X36.61800 Y37.45900
X36.46560 Y37.61140
X36.41480 Y37.76380
X29.35360 Y37.76380
X29.35360 Y37.68760
X29.30280 Y37.66220
X29.25200 Y37.53520
X29.17580 Y37.45900
X29.02340 Y37.40820
X28.99800 Y37.35740
X28.38840 Y37.33200
X28.31220 Y37.25580
X28.28680 Y30.47400
X28.46460 Y30.29620
X29.07420 Y30.27080
X29.09960 Y30.22000
X29.25200 Y30.16920
X29.32820 Y30.09300
X29.32820 Y30.04220
X29.42980 Y29.94060
X29.48060 Y29.73740
X29.48060 Y29.00080
X29.42980 Y28.79760
X29.25200 Y28.56900
X29.09960 Y28.51820
X29.07420 Y28.46740
X28.46460 Y28.44200
X28.33760 Y28.28960
X28.23600 Y28.23880
X22.03840 Y28.23880
X22.01300 Y25.57180
X20.51440 Y24.09860
X20.51440 Y23.64140
X20.46360 Y23.43820
X20.41280 Y23.41280
X20.36200 Y23.28580
X20.28580 Y23.20960
X20.13340 Y23.15880
X20.10800 Y23.10800
X19.49840 Y23.08260
X19.39680 Y22.95560
X19.39680 Y18.05340
X19.49840 Y17.92640
X19.98100 Y17.92640
X20.10800 Y17.90100
X20.13340 Y17.85020
X20.28580 Y17.79940
X20.46360 Y17.57080
X20.51440 Y17.36760
X20.48900 Y16.55480
X20.43820 Y16.52940
X20.43820 Y16.45320
X20.15880 Y16.17380
X19.98100 Y16.07220
X19.19360 Y16.07220
X19.06660 Y16.09760
X19.04120 Y16.14840
X18.88880 Y16.19920
X18.81260 Y16.27540
X18.81260 Y16.32620
X18.68560 Y16.47860
X18.66020 Y17.11360
X18.48240 Y17.26600
X18.40620 Y17.41840
X18.40620 Y19.65360
X15.23120 Y22.80320
X15.15500 Y22.95560
X15.15500 Y27.17200
X14.72320 Y27.60380
X14.69780 Y28.06100
X14.54540 Y28.18800
X14.54540 Y28.23880
X14.39300 Y28.23880
X14.39300 Y29.22940
X14.46920 Y29.22940
X14.46920 Y29.50880
X14.39300 Y29.50880
X14.39300 Y30.49940
X14.54540 Y30.49940
X14.67240 Y30.65180
X14.87560 Y30.72800
X16.34880 Y30.72800
X17.36480 Y31.74400
X17.36480 Y31.82020
X16.75520 Y32.42980
X16.70440 Y32.42980
X15.81540 Y33.34420
X4.38540 Y33.34420
X4.25840 Y33.21720
X4.43620 Y33.11560
X4.66480 Y32.88700
X4.69020 Y32.78540
X4.79180 Y32.65840
X4.86800 Y32.35360
X4.86800 Y31.46460
X4.79180 Y31.15980
X4.69020 Y31.03280
X4.66480 Y30.93120
X4.43620 Y30.70260
X4.18220 Y30.57560
X4.18220 Y21.45700
X4.89340 Y21.40620
X4.99500 Y21.35540
X5.37600 Y20.94900
X6.13800 Y20.94900
X6.34120 Y20.89820
X6.67140 Y20.72040
X6.90000 Y20.49180
X7.07780 Y20.08540
X7.10320 Y19.06940
X6.97620 Y18.66300
X6.67140 Y18.30740
X6.34120 Y18.12960
X6.13800 Y18.07880
X5.42680 Y18.07880
X4.20760 Y16.85960
X4.20760 Y10.28100
X4.36000 Y10.15400
X4.43620 Y10.33180
X4.66480 Y10.56040
X4.99500 Y10.73820
X5.19820 Y10.78900
X6.13800 Y10.78900
X6.34120 Y10.73820
X6.67140 Y10.56040
X6.90000 Y10.33180
X6.92540 Y10.23020
X7.02700 Y10.10320
X7.10320 Y9.79840
X7.10320 Y8.90940
X7.02700 Y8.60460
X6.92540 Y8.47760
X6.90000 Y8.37600
X6.67140 Y8.14740
X6.41740 Y8.02040
X6.41740 Y6.85200
X7.50960 Y5.78520
X7.50960 Y5.73440
X8.27160 Y4.97240
X16.42500 Y4.97240
X17.59340 Y6.16620
X17.59340 Y7.94420
X17.66960 Y8.27440
X17.74580 Y8.42680
X17.79660 Y8.45220
X17.89820 Y8.63000
X18.15220 Y8.83320
X18.35540 Y8.93480
X18.71100 Y9.01100
X19.62540 Y8.98560
X19.70160 Y8.93480
X19.80320 Y8.93480
X20.15880 Y8.73160
X20.36200 Y8.50300
X20.48900 Y8.27440
X20.56520 Y7.94420
X20.56520 Y7.53780
X21.22560 Y7.56320
X21.32720 Y7.51240
X21.65740 Y7.18220
X21.65740 Y7.13140
X23.79100 Y4.99780
X25.03560 Y4.99780
X25.08640 Y5.07400
X25.16260 Y5.07400
X25.18800 Y5.12480
X25.28960 Y5.15020
X25.36580 Y5.25180
X25.49280 Y5.30260
X25.77220 Y5.58200
X25.82300 Y5.70900
X25.92460 Y5.78520
X25.92460 Y5.86140
X25.97540 Y5.88680
X26.00080 Y5.98840
X26.61040 Y6.59800
X26.61040 Y16.14840
X26.76280 Y16.45320
X27.52480 Y17.21520
X27.80420 Y17.34220
X29.93780 Y17.34220
X30.09020 Y17.24060
X30.14100 Y17.13900
X30.95380 Y16.32620
X31.58880 Y16.30080
X31.61420 Y16.25000
X31.76660 Y16.19920
X31.84280 Y16.12300
X31.84280 Y16.07220
X31.94440 Y15.97060
X31.94440 Y15.89440
X36.51640 Y15.89440
X36.64340 Y16.12300
X36.71960 Y16.19920
X36.87200 Y16.25000
X36.89740 Y16.30080
X37.50700 Y16.32620
X40.60580 Y19.45040
X40.70740 Y19.50120
X48.30200 Y19.50120
X50.35940 Y21.55860
X50.38480 Y22.29520
X50.51180 Y22.44760
X50.53720 Y22.54920
X50.68960 Y22.62540
X50.74040 Y22.70160
X50.94360 Y22.77780
X51.83260 Y22.77780
X52.03580 Y22.70160
X52.08660 Y22.62540
X52.23900 Y22.54920
X52.26440 Y22.44760
X52.39140 Y22.29520
X52.44220 Y21.50780
X56.55700 Y17.39300
X56.58240 Y7.46160
X58.03020 Y6.03920
X58.03020 Y5.98840
X58.20800 Y5.81060
X58.20800 Y5.75980
X58.25880 Y5.75980
X58.43660 Y5.55660
X58.53820 Y5.53120
X58.58900 Y5.45500
X60.84960 Y5.45500
X62.32280 Y6.90280
X62.32280 Y15.66580
X62.01800 Y15.81820
X62.01800 Y15.86900
X61.86560 Y16.02140
X61.78940 Y16.22460
X61.81480 Y17.21520
X61.86560 Y17.31680
X61.94180 Y17.36760
X61.94180 Y17.41840
X62.01800 Y17.46920
X62.01800 Y17.52000
X62.32280 Y17.67240
X62.32280 Y20.13620
X59.19860 Y23.26040
X58.56360 Y23.26040
X58.36040 Y23.33660
X58.30960 Y23.41280
X58.15720 Y23.48900
X58.13180 Y23.59060
X58.00480 Y23.74300
X57.97940 Y23.89540
X58.00480 Y24.83520
X58.13180 Y24.98760
X58.15720 Y25.08920
X58.20800 Y25.08920
X58.36040 Y25.24160
X58.56360 Y25.31780
X59.45260 Y25.31780
X59.65580 Y25.24160
X59.70660 Y25.16540
X59.85900 Y25.08920
X59.88440 Y24.98760
X60.01140 Y24.83520
X60.03680 Y24.09860
X63.28800 Y20.84740
X63.31340 Y17.67240
X63.61820 Y17.52000
X63.61820 Y17.46920
X63.79600 Y17.26600
X63.84680 Y17.11360
X63.84680 Y16.47860
X67.04720 Y13.30360
X67.12340 Y13.15120
X67.12340 Y11.39860
X67.30120 Y11.37320
X67.63140 Y11.19540
X67.86000 Y10.96680
X68.03780 Y10.56040
X68.06320 Y10.43340
X68.03780 Y9.41740
X67.86000 Y9.01100
X67.55520 Y8.73160
X67.30120 Y8.60460
X67.09800 Y8.55380
X66.15820 Y8.55380
X65.95500 Y8.60460
X65.70100 Y8.73160
X65.39620 Y9.01100
X65.37080 Y9.11260
X65.26920 Y9.23960
X65.19300 Y9.54440
X65.21840 Y10.56040
X65.39620 Y10.96680
X65.62480 Y11.19540
X65.95500 Y11.37320
X66.13280 Y11.39860
X66.13280 Y12.51620
X63.31340 Y15.33560
X63.31340 Y6.90280
X65.16760 Y5.04860
X68.08860 Y5.04860
X71.59380 Y8.55380
X71.59380 Y14.72600
X71.67000 Y14.90380
X72.33040 Y15.53880
X72.48280 Y15.84360
X72.48280 Y29.00080
X68.06320 Y33.42040
X68.03780 Y33.57280
X67.98700 Y33.62360
X67.83460 Y33.64900
X67.45360 Y34.05540
X67.40280 Y34.05540
X67.22500 Y34.23320
X67.19960 Y34.30940
X66.15820 Y34.28400
X65.95500 Y34.33480
X65.70100 Y34.46180
X65.39620 Y34.74120
X65.37080 Y34.84280
X65.26920 Y34.96980
X65.19300 Y35.27460
X65.19300 Y36.16360
X65.26920 Y36.46840
X65.37080 Y36.59540
X65.39620 Y36.69700
X65.62480 Y36.92560
X65.95500 Y37.10340
X66.15820 Y37.15420
X67.09800 Y37.15420
X67.30120 Y37.10340
X67.63140 Y36.92560
X67.86000 Y36.69700
X67.88540 Y36.59540
X67.98700 Y36.46840
X68.06320 Y36.16360
X68.06320 Y35.27460
X68.16480 Y35.22380
X68.54580 Y34.86820
X68.57120 Y34.58880
X73.39720 Y29.78820
X73.47340 Y29.63580
X73.47340 Y15.20860
X73.39720 Y15.05620
X72.58440 Y14.26880
X72.58440 Y7.91880
X72.50820 Y7.76640
X68.85060 Y4.10880
X68.74900 Y4.05800
X64.50720 Y4.05800
X64.40560 Y4.10880
X62.80540 Y5.73440
X61.61160 Y4.51520
X61.51000 Y4.46440
X57.92860 Y4.46440
X57.82700 Y4.51520
X55.66800 Y6.67420
X55.59180 Y6.82660
X55.59180 Y16.68180
X51.57860 Y20.72040
X51.19760 Y20.72040
X49.06400 Y18.56140
X48.96240 Y18.51060
X41.36780 Y18.51060
X38.34520 Y15.48800
X38.34520 Y15.03080
X38.29440 Y14.82760
X38.11660 Y14.59900
X37.96420 Y14.54820
X37.93880 Y14.49740
X37.81180 Y14.47200
X36.89740 Y14.49740
X36.87200 Y14.54820
X36.71960 Y14.59900
X36.64340 Y14.67520
X36.51640 Y14.90380
X31.94440 Y14.90380
X31.94440 Y14.82760
X31.89360 Y14.80220
X31.84280 Y14.67520
X31.76660 Y14.59900
X31.61420 Y14.54820
X31.58880 Y14.49740
X30.67440 Y14.47200
X30.54740 Y14.49740
X30.52200 Y14.54820
X30.36960 Y14.59900
X30.29340 Y14.67520
X30.29340 Y14.72600
X30.16640 Y14.87840
X30.14100 Y15.48800
X29.91240 Y15.66580
X29.83620 Y15.74200
X29.83620 Y15.79280
X29.27740 Y16.35160
X28.21060 Y16.35160
X28.15980 Y16.27540
X28.08360 Y16.27540
X28.00740 Y16.17380
X27.90580 Y16.14840
X27.82960 Y16.07220
X27.77880 Y15.94520
X27.67720 Y15.86900
X27.67720 Y15.79280
X27.60100 Y15.74200
X27.60100 Y5.96300
X27.52480 Y5.81060
X26.05160 Y4.36280
X26.05160 Y4.31200
X25.79760 Y4.05800
X25.69600 Y4.00720
X23.13060 Y4.00720
X23.02900 Y4.05800
X22.64800 Y4.43900
X22.64800 Y4.48980
X20.61600 Y6.52180
X20.56520 Y6.52180
X20.56520 Y6.09000
X20.48900 Y5.75980
X20.36200 Y5.53120
X20.15880 Y5.30260
X19.80320 Y5.09940
X19.70160 Y5.09940
X19.62540 Y5.04860
X18.78720 Y5.02320
X18.73640 Y4.92160
X17.39020 Y3.57540
X17.18700 Y3.49920
X7.50960 Y3.49920
X7.30640 Y3.57540
X5.98560 Y4.89620
X5.98560 Y4.94700
X5.02040 Y5.88680
X4.94420 Y6.09000
X4.94420 Y8.02040
X4.66480 Y8.14740
X4.43620 Y8.37600
X4.33460 Y8.60460
X3.64880 Y8.60460
X3.44560 Y8.68080
X2.81060 Y9.31580
X2.73440 Y9.51900
X2.73440 Y17.62160
X2.81060 Y17.82480
X4.23300 Y19.22180
X4.23300 Y19.75520
X4.02980 Y19.95840
X3.44560 Y19.95840
X3.24240 Y20.03460
X2.78520 Y20.49180
X2.70900 Y20.69500
X2.70900 Y30.57560
X2.42960 Y30.70260
X2.20100 Y30.93120
X2.17560 Y31.03280
X2.07400 Y31.15980
X1.99780 Y31.46460
X1.99780 Y32.35360
X2.07400 Y32.65840
X2.17560 Y32.78540
X2.20100 Y32.88700
X2.42960 Y33.11560
X2.70900 Y33.24260
X2.70900 Y33.90300
X2.78520 Y34.10620
X3.42020 Y34.74120
X3.62340 Y34.81740
X16.57740 Y34.81740
X16.78060 Y34.74120
X17.61880 Y33.87760
X17.66960 Y33.87760
X18.76180 Y32.78540
X18.83800 Y32.58220
X18.83800 Y30.98200
X18.76180 Y30.77880
X17.31400 Y29.33100
X17.11080 Y29.25480
X15.94240 Y29.25480
X15.99320 Y29.22940
X15.99320 Y28.23880
X15.86620 Y28.23880
X15.84080 Y28.16260
X16.06940 Y27.95940
X16.14560 Y27.80700
X16.14560 Y23.59060
X16.24720 Y23.51440
X16.29800 Y23.38740
X16.47580 Y23.20960
X16.57740 Y23.18420
X18.40620 Y21.33000
X18.40620 Y23.59060
X18.48240 Y23.74300
X18.66020 Y23.89540
X18.66020 Y24.37800
X18.71100 Y24.58120
X18.88880 Y24.80980
X19.04120 Y24.86060
X19.06660 Y24.91140
X19.70160 Y24.93680
X21.04780 Y26.28300
X21.04780 Y28.23880
X20.74300 Y28.23880
X20.74300 Y29.22940
X27.57560 Y29.22940
X27.62640 Y29.28020
X27.62640 Y29.45800
X27.37240 Y29.68660
X27.29620 Y29.83900
X27.29620 Y37.84000
X27.37240 Y37.99240
X27.55020 Y38.14480
X27.57560 Y38.77980
X27.77880 Y39.05920
X27.93120 Y39.11000
X27.95660 Y39.16080
X28.08360 Y39.18620
X28.87100 Y39.18620
X28.99800 Y39.16080
X29.02340 Y39.11000
X29.17580 Y39.05920
X29.35360 Y38.83060
X29.35360 Y38.75440
X36.41480 Y38.75440
X36.46560 Y38.90680
X36.61800 Y39.05920
X36.61800 Y39.11000
X36.71960 Y39.13540
X36.87200 Y39.26240
X37.02440 Y39.28780
X37.81180 Y39.28780
X37.86260 Y39.23700
X37.93880 Y39.23700
X38.06580 Y39.08460
X38.16740 Y39.03380
G04 P0 ( dwell for no time -- G64 should not smooth over this point )
G00 Z8.00000 ( retract )

G00 X38.75160 Y40.04980 ( rapid move to begin. )
F200.00000
G01 Z-0.05000
G04 P0 ( dwell for no time -- G64 should not smooth over this point )
F400.00000
G01 X38.75160 Y40.04980
X39.51360 Y39.31320
X39.58980 Y39.16080
X39.56440 Y37.02720
X31.99520 Y29.45800
X31.99520 Y29.28020
X32.96040 Y28.31500
X40.55500 Y28.31500
X40.70740 Y28.21340
X41.36780 Y27.55300
X41.36780 Y27.50220
X46.09220 Y22.77780
X46.85420 Y22.75240
X47.00660 Y22.62540
X47.10820 Y22.60000
X47.10820 Y22.54920
X47.26060 Y22.39680
X47.31140 Y22.24440
X48.50520 Y22.24440
X50.35940 Y24.09860
X50.38480 Y24.83520
X50.43560 Y24.86060
X50.53720 Y25.08920
X50.58800 Y25.08920
X50.63880 Y25.16540
X50.68960 Y25.16540
X50.74040 Y25.24160
X50.84200 Y25.29240
X50.94360 Y25.31780
X51.93420 Y25.29240
X52.03580 Y25.24160
X52.08660 Y25.16540
X52.13740 Y25.16540
X52.18820 Y25.08920
X52.23900 Y25.08920
X52.39140 Y24.78440
X56.78560 Y24.78440
X56.88720 Y24.73360
X58.81760 Y22.77780
X59.55420 Y22.75240
X59.65580 Y22.70160
X59.70660 Y22.62540
X59.75740 Y22.62540
X59.80820 Y22.54920
X59.85900 Y22.54920
X59.88440 Y22.44760
X60.01140 Y22.29520
X60.03680 Y22.14280
X60.01140 Y21.20300
X59.96060 Y21.17760
X59.85900 Y20.94900
X59.80820 Y20.94900
X59.65580 Y20.79660
X59.50340 Y20.74580
X59.50340 Y20.21240
X59.65580 Y20.16160
X59.70660 Y20.08540
X59.85900 Y20.00920
X59.88440 Y19.90760
X60.01140 Y19.75520
X60.03680 Y19.60280
X60.01140 Y18.66300
X59.96060 Y18.63760
X59.85900 Y18.40900
X59.80820 Y18.40900
X59.65580 Y18.25660
X59.45260 Y18.18040
X58.56360 Y18.18040
X58.36040 Y18.25660
X58.30960 Y18.33280
X58.15720 Y18.40900
X58.13180 Y18.51060
X58.00480 Y18.66300
X57.97940 Y18.81540
X57.97940 Y19.60280
X58.00480 Y19.75520
X58.05560 Y19.78060
X58.15720 Y20.00920
X58.20800 Y20.00920
X58.36040 Y20.16160
X58.51280 Y20.21240
X58.51280 Y20.74580
X58.36040 Y20.79660
X58.30960 Y20.87280
X58.15720 Y20.94900
X58.13180 Y21.05060
X58.00480 Y21.20300
X57.97940 Y21.93960
X56.12520 Y23.79380
X52.39140 Y23.79380
X52.23900 Y23.48900
X52.18820 Y23.48900
X52.13740 Y23.41280
X52.08660 Y23.41280
X52.03580 Y23.33660
X51.93420 Y23.28580
X51.19760 Y23.26040
X49.26720 Y21.30460
X49.16560 Y21.25380
X47.31140 Y21.25380
X47.26060 Y21.10140
X47.18440 Y21.05060
X47.10820 Y20.89820
X47.00660 Y20.87280
X46.85420 Y20.74580
X46.11760 Y20.72040
X45.25400 Y19.85680
X45.22860 Y19.78060
X45.00000 Y19.55200
X44.89840 Y19.50120
X29.96320 Y19.50120
X27.80420 Y17.31680
X27.65180 Y17.29140
X27.62640 Y17.24060
X27.52480 Y17.21520
X26.76280 Y16.45320
X26.76280 Y16.40240
X26.66120 Y16.30080
X26.63580 Y16.14840
X25.03560 Y14.57360
X25.03560 Y8.98560
X25.26420 Y8.93480
X25.61980 Y8.73160
X25.82300 Y8.50300
X25.95000 Y8.27440
X26.02620 Y7.94420
X26.02620 Y6.09000
X26.00080 Y5.93760
X25.92460 Y5.86140
X25.92460 Y5.78520
X25.77220 Y5.63280
X25.77220 Y5.58200
X25.49280 Y5.30260
X25.36580 Y5.25180
X25.28960 Y5.15020
X25.18800 Y5.12480
X25.16260 Y5.07400
X24.90860 Y5.02320
X24.17200 Y5.02320
X23.81640 Y5.09940
X23.46080 Y5.30260
X23.33380 Y5.42960
X23.33380 Y5.48040
X23.20680 Y5.60740
X23.07980 Y5.93760
X23.05440 Y7.94420
X23.13060 Y8.27440
X23.25760 Y8.50300
X23.33380 Y8.55380
X23.33380 Y8.60460
X23.61320 Y8.83320
X23.81640 Y8.93480
X24.04500 Y8.98560
X24.07040 Y15.28480
X29.20120 Y20.44100
X29.30280 Y20.49180
X44.23800 Y20.49180
X45.27940 Y21.53320
X45.27940 Y21.93960
X45.15240 Y22.01580
X44.26340 Y22.90480
X44.26340 Y22.95560
X39.89460 Y27.32440
X32.30000 Y27.32440
X32.19840 Y27.37520
X31.15700 Y28.44200
X30.54740 Y28.46740
X30.52200 Y28.51820
X30.36960 Y28.56900
X30.16640 Y28.84840
X30.14100 Y29.73740
X30.16640 Y29.88980
X30.29340 Y30.04220
X30.29340 Y30.09300
X30.36960 Y30.16920
X30.52200 Y30.22000
X30.54740 Y30.27080
X31.15700 Y30.29620
X38.59920 Y37.73840
X38.59920 Y38.52580
X38.39600 Y38.70360
X38.37060 Y38.80520
X38.24360 Y38.90680
X38.16740 Y39.05920
X38.06580 Y39.08460
X37.93880 Y39.23700
X37.86260 Y39.23700
X37.81180 Y39.31320
X27.88040 Y39.31320
X26.91520 Y38.34800
X26.91520 Y37.89080
X26.86440 Y37.68760
X26.68660 Y37.45900
X26.48340 Y37.35740
X26.48340 Y36.36680
X26.40720 Y36.21440
X25.82300 Y35.63020
X25.77220 Y35.63020
X22.34320 Y32.20120
X22.34320 Y32.04880
X20.74300 Y32.04880
X20.74300 Y33.03940
X21.50500 Y33.03940
X25.49280 Y37.00180
X25.49280 Y37.35740
X25.28960 Y37.45900
X25.08640 Y37.73840
X25.06100 Y38.62740
X25.11180 Y38.65280
X25.11180 Y38.72900
X25.21340 Y38.80520
X25.21340 Y38.85600
X25.34040 Y39.00840
X25.44200 Y39.03380
X25.51820 Y39.13540
X25.59440 Y39.13540
X25.61980 Y39.18620
X26.07700 Y39.18620
X27.11840 Y40.25300
X27.22000 Y40.30380
X38.47220 Y40.30380
X38.57380 Y40.25300
X38.75160 Y40.04980
G04 P0 ( dwell for no time -- G64 should not smooth over this point )
G00 Z8.00000 ( retract )

G00 X52.23900 Y37.76380 ( rapid move to begin. )
F200.00000
G01 Z-0.05000
G04 P0 ( dwell for no time -- G64 should not smooth over this point )
F400.00000
G01 X52.23900 Y37.76380
X52.34060 Y37.56060
X52.39140 Y37.53520
X52.41680 Y37.38280
X52.41680 Y36.59540
X52.39140 Y36.44300
X52.34060 Y36.41760
X52.23900 Y36.18900
X52.18820 Y36.18900
X52.03580 Y36.03660
X51.83260 Y35.96040
X50.94360 Y35.96040
X50.74040 Y36.03660
X50.68960 Y36.11280
X50.53720 Y36.18900
X50.51180 Y36.29060
X50.38480 Y36.44300
X50.35940 Y36.59540
X50.35940 Y37.38280
X50.38480 Y37.53520
X50.43560 Y37.56060
X50.53720 Y37.78920
X50.58800 Y37.78920
X50.74040 Y37.94160
X50.94360 Y38.01780
X51.83260 Y38.01780
X52.03580 Y37.94160
X52.23900 Y37.76380
G04 P0 ( dwell for no time -- G64 should not smooth over this point )
G00 Z8.00000 ( retract )

G00 X52.23900 Y35.22380 ( rapid move to begin. )
F200.00000
G01 Z-0.05000
G04 P0 ( dwell for no time -- G64 should not smooth over this point )
F400.00000
G01 X52.23900 Y35.22380
X52.34060 Y35.02060
X52.39140 Y34.99520
X52.41680 Y34.84280
X52.41680 Y34.05540
X52.39140 Y33.90300
X52.34060 Y33.87760
X52.23900 Y33.64900
X52.18820 Y33.64900
X52.03580 Y33.49660
X51.83260 Y33.42040
X50.94360 Y33.42040
X50.74040 Y33.49660
X50.68960 Y33.57280
X50.53720 Y33.64900
X50.51180 Y33.75060
X50.38480 Y33.90300
X50.35940 Y34.05540
X50.35940 Y34.84280
X50.38480 Y34.99520
X50.51180 Y35.14760
X50.53720 Y35.24920
X50.68960 Y35.32540
X50.74040 Y35.40160
X50.94360 Y35.47780
X51.83260 Y35.47780
X52.03580 Y35.40160
X52.23900 Y35.22380
G04 P0 ( dwell for no time -- G64 should not smooth over this point )
G00 Z8.00000 ( retract )

G00 X52.23900 Y32.68380 ( rapid move to begin. )
F200.00000
G01 Z-0.05000
G04 P0 ( dwell for no time -- G64 should not smooth over this point )
F400.00000
G01 X52.23900 Y32.68380
X52.34060 Y32.48060
X52.39140 Y32.45520
X52.41680 Y32.30280
X52.41680 Y31.51540
X52.39140 Y31.36300
X52.34060 Y31.33760
X52.23900 Y31.10900
X52.18820 Y31.10900
X52.03580 Y30.95660
X51.83260 Y30.88040
X50.94360 Y30.88040
X50.74040 Y30.95660
X50.68960 Y31.03280
X50.53720 Y31.10900
X50.51180 Y31.21060
X50.38480 Y31.36300
X50.35940 Y31.51540
X50.35940 Y32.30280
X50.38480 Y32.45520
X50.43560 Y32.48060
X50.53720 Y32.70920
X50.58800 Y32.70920
X50.74040 Y32.86160
X50.94360 Y32.93780
X51.83260 Y32.93780
X52.03580 Y32.86160
X52.23900 Y32.68380
G04 P0 ( dwell for no time -- G64 should not smooth over this point )
G00 Z8.00000 ( retract )

G00 X52.23900 Y30.14380 ( rapid move to begin. )
F200.00000
G01 Z-0.05000
G04 P0 ( dwell for no time -- G64 should not smooth over this point )
F400.00000
G01 X52.23900 Y30.14380
X52.34060 Y29.94060
X52.39140 Y29.91520
X52.41680 Y29.76280
X52.41680 Y28.97540
X52.39140 Y28.82300
X52.34060 Y28.79760
X52.23900 Y28.56900
X52.08660 Y28.49280
X52.03580 Y28.41660
X51.83260 Y28.34040
X50.94360 Y28.34040
X50.74040 Y28.41660
X50.68960 Y28.49280
X50.53720 Y28.56900
X50.51180 Y28.67060
X50.38480 Y28.82300
X50.35940 Y28.97540
X50.35940 Y29.76280
X50.38480 Y29.91520
X50.51180 Y30.06760
X50.53720 Y30.16920
X50.58800 Y30.16920
X50.74040 Y30.32160
X50.94360 Y30.39780
X51.83260 Y30.39780
X52.03580 Y30.32160
X52.23900 Y30.14380
G04 P0 ( dwell for no time -- G64 should not smooth over this point )
G00 Z8.00000 ( retract )

G00 X52.23900 Y27.60380 ( rapid move to begin. )
F200.00000
G01 Z-0.05000
G04 P0 ( dwell for no time -- G64 should not smooth over this point )
F400.00000
G01 X52.23900 Y27.60380
X52.34060 Y27.40060
X52.39140 Y27.37520
X52.41680 Y27.22280
X52.41680 Y26.43540
X52.39140 Y26.28300
X52.34060 Y26.25760
X52.23900 Y26.02900
X52.18820 Y26.02900
X52.03580 Y25.87660
X51.83260 Y25.80040
X50.94360 Y25.80040
X50.74040 Y25.87660
X50.68960 Y25.95280
X50.53720 Y26.02900
X50.43560 Y26.25760
X50.38480 Y26.28300
X50.35940 Y26.43540
X50.35940 Y27.22280
X50.38480 Y27.37520
X50.43560 Y27.40060
X50.53720 Y27.62920
X50.58800 Y27.62920
X50.74040 Y27.78160
X50.94360 Y27.85780
X51.83260 Y27.85780
X52.03580 Y27.78160
X52.23900 Y27.60380
G04 P0 ( dwell for no time -- G64 should not smooth over this point )
G00 Z8.00000 ( retract )

G00 X52.23900 Y19.98380 ( rapid move to begin. )
F200.00000
G01 Z-0.05000
G04 P0 ( dwell for no time -- G64 should not smooth over this point )
F400.00000
G01 X52.23900 Y19.98380
X52.34060 Y19.78060
X52.39140 Y19.75520
X52.41680 Y19.60280
X52.41680 Y18.81540
X52.39140 Y18.66300
X52.34060 Y18.63760
X52.23900 Y18.40900
X52.18820 Y18.40900
X52.03580 Y18.25660
X51.83260 Y18.18040
X51.19760 Y18.18040
X45.53340 Y12.51620
X45.53340 Y10.99220
X45.63500 Y10.94140
X45.76200 Y10.71280
X45.78740 Y10.05240
X45.71120 Y9.79840
X45.63500 Y9.74760
X45.63500 Y9.69680
X45.45720 Y9.59520
X44.77140 Y9.56980
X44.61900 Y9.59520
X44.44120 Y9.69680
X44.31420 Y9.92540
X44.28880 Y10.17940
X39.99620 Y14.47200
X39.38660 Y14.49740
X39.36120 Y14.54820
X39.20880 Y14.59900
X39.00560 Y14.87840
X38.98020 Y15.76740
X39.03100 Y15.97060
X39.20880 Y16.19920
X39.36120 Y16.25000
X39.38660 Y16.30080
X39.51360 Y16.32620
X40.30100 Y16.32620
X40.42800 Y16.30080
X40.45340 Y16.25000
X40.60580 Y16.19920
X40.80900 Y15.89440
X40.83440 Y15.31020
X44.54280 Y11.60180
X44.54280 Y13.15120
X44.61900 Y13.30360
X50.35940 Y19.01860
X50.38480 Y19.75520
X50.43560 Y19.78060
X50.53720 Y20.00920
X50.58800 Y20.00920
X50.74040 Y20.16160
X50.94360 Y20.23780
X51.83260 Y20.23780
X52.03580 Y20.16160
X52.23900 Y19.98380
G04 P0 ( dwell for no time -- G64 should not smooth over this point )
G00 Z8.00000 ( retract )

G00 X52.23900 Y17.44380 ( rapid move to begin. )
F200.00000
G01 Z-0.05000
G04 P0 ( dwell for no time -- G64 should not smooth over this point )
F400.00000
G01 X52.23900 Y17.44380
X52.34060 Y17.24060
X52.39140 Y17.21520
X52.41680 Y17.06280
X52.41680 Y16.27540
X52.39140 Y16.12300
X52.34060 Y16.09760
X52.23900 Y15.86900
X52.08660 Y15.79280
X52.03580 Y15.71660
X51.83260 Y15.64040
X51.19760 Y15.64040
X46.77800 Y11.22080
X46.75260 Y8.65540
X45.78740 Y7.69020
X45.76200 Y7.38540
X45.63500 Y7.15680
X45.45720 Y7.05520
X45.30480 Y7.02980
X44.61900 Y7.05520
X44.44120 Y7.15680
X44.44120 Y7.20760
X44.36500 Y7.28380
X35.85600 Y7.28380
X35.75440 Y7.33460
X28.64240 Y14.47200
X28.03280 Y14.49740
X28.00740 Y14.54820
X27.85500 Y14.59900
X27.77880 Y14.67520
X27.77880 Y14.72600
X27.65180 Y14.87840
X27.62640 Y15.03080
X27.62640 Y15.76740
X27.67720 Y15.79280
X27.67720 Y15.86900
X27.77880 Y15.94520
X27.77880 Y15.99600
X27.90580 Y16.14840
X28.00740 Y16.17380
X28.08360 Y16.27540
X28.15980 Y16.27540
X28.18520 Y16.32620
X28.94720 Y16.32620
X29.07420 Y16.30080
X29.09960 Y16.25000
X29.25200 Y16.19920
X29.45520 Y15.89440
X29.48060 Y15.31020
X36.51640 Y8.27440
X44.36500 Y8.27440
X44.44120 Y8.35060
X44.44120 Y8.40140
X44.61900 Y8.50300
X44.94920 Y8.52840
X45.78740 Y9.36660
X45.78740 Y11.85580
X45.86360 Y12.00820
X50.35940 Y16.47860
X50.38480 Y17.21520
X50.51180 Y17.36760
X50.53720 Y17.46920
X50.58800 Y17.46920
X50.74040 Y17.62160
X50.94360 Y17.69780
X51.83260 Y17.69780
X52.03580 Y17.62160
X52.23900 Y17.44380
G04 P0 ( dwell for no time -- G64 should not smooth over this point )
G00 Z8.00000 ( retract )

G00 X52.23900 Y14.90380 ( rapid move to begin. )
F200.00000
G01 Z-0.05000
G04 P0 ( dwell for no time -- G64 should not smooth over this point )
F400.00000
G01 X52.23900 Y14.90380
X52.34060 Y14.70060
X52.39140 Y14.67520
X52.41680 Y14.52280
X52.41680 Y13.73540
X52.39140 Y13.58300
X52.34060 Y13.55760
X52.23900 Y13.32900
X52.18820 Y13.32900
X52.03580 Y13.17660
X51.83260 Y13.10040
X50.94360 Y13.10040
X50.74040 Y13.17660
X50.68960 Y13.25280
X50.53720 Y13.32900
X50.43560 Y13.55760
X50.38480 Y13.58300
X50.35940 Y13.73540
X50.35940 Y14.52280
X50.38480 Y14.67520
X50.43560 Y14.70060
X50.53720 Y14.92920
X50.58800 Y14.92920
X50.74040 Y15.08160
X50.94360 Y15.15780
X51.83260 Y15.15780
X52.03580 Y15.08160
X52.23900 Y14.90380
G04 P0 ( dwell for no time -- G64 should not smooth over this point )
G00 Z8.00000 ( retract )

G00 X52.23900 Y12.36380 ( rapid move to begin. )
F200.00000
G01 Z-0.05000
G04 P0 ( dwell for no time -- G64 should not smooth over this point )
F400.00000
G01 X52.23900 Y12.36380
X52.34060 Y12.16060
X52.39140 Y12.13520
X52.41680 Y11.98280
X52.41680 Y11.19540
X52.39140 Y11.04300
X52.34060 Y11.01760
X52.23900 Y10.78900
X52.18820 Y10.78900
X52.03580 Y10.63660
X51.83260 Y10.56040
X50.94360 Y10.56040
X50.74040 Y10.63660
X50.68960 Y10.71280
X50.53720 Y10.78900
X50.51180 Y10.89060
X50.38480 Y11.04300
X50.35940 Y11.19540
X50.35940 Y11.98280
X50.38480 Y12.13520
X50.43560 Y12.16060
X50.53720 Y12.38920
X50.58800 Y12.38920
X50.74040 Y12.54160
X50.94360 Y12.61780
X51.83260 Y12.61780
X52.03580 Y12.54160
X52.23900 Y12.36380
G04 P0 ( dwell for no time -- G64 should not smooth over this point )
G00 Z8.00000 ( retract )

G00 X52.23900 Y9.82380 ( rapid move to begin. )
F200.00000
G01 Z-0.05000
G04 P0 ( dwell for no time -- G64 should not smooth over this point )
F400.00000
G01 X52.23900 Y9.82380
X52.34060 Y9.62060
X52.39140 Y9.59520
X52.41680 Y9.44280
X52.41680 Y8.65540
X52.39140 Y8.50300
X52.34060 Y8.47760
X52.23900 Y8.24900
X52.18820 Y8.24900
X52.03580 Y8.09660
X51.83260 Y8.02040
X50.94360 Y8.02040
X50.74040 Y8.09660
X50.68960 Y8.17280
X50.53720 Y8.24900
X50.51180 Y8.35060
X50.38480 Y8.50300
X50.35940 Y8.65540
X50.35940 Y9.44280
X50.38480 Y9.59520
X50.51180 Y9.74760
X50.53720 Y9.84920
X50.68960 Y9.92540
X50.74040 Y10.00160
X50.94360 Y10.07780
X51.83260 Y10.07780
X52.03580 Y10.00160
X52.23900 Y9.82380
G04 P0 ( dwell for no time -- G64 should not smooth over this point )
G00 Z8.00000 ( retract )

G00 X52.23900 Y7.28380 ( rapid move to begin. )
F200.00000
G01 Z-0.05000
G04 P0 ( dwell for no time -- G64 should not smooth over this point )
F400.00000
G01 X52.23900 Y7.28380
X52.34060 Y7.08060
X52.39140 Y7.05520
X52.41680 Y6.90280
X52.41680 Y6.11540
X52.39140 Y5.96300
X52.34060 Y5.93760
X52.23900 Y5.70900
X52.18820 Y5.70900
X52.03580 Y5.55660
X51.83260 Y5.48040
X50.94360 Y5.48040
X50.74040 Y5.55660
X50.68960 Y5.63280
X50.53720 Y5.70900
X50.51180 Y5.81060
X50.38480 Y5.96300
X50.35940 Y6.11540
X50.35940 Y6.90280
X50.38480 Y7.05520
X50.43560 Y7.08060
X50.53720 Y7.30920
X50.58800 Y7.30920
X50.74040 Y7.46160
X50.94360 Y7.53780
X51.83260 Y7.53780
X52.03580 Y7.46160
X52.23900 Y7.28380
G04 P0 ( dwell for no time -- G64 should not smooth over this point )
G00 Z8.00000 ( retract )

G00 X59.85900 Y7.28380 ( rapid move to begin. )
F200.00000
G01 Z-0.05000
G04 P0 ( dwell for no time -- G64 should not smooth over this point )
F400.00000
G01 X59.85900 Y7.28380
X59.96060 Y7.08060
X60.01140 Y7.05520
X60.03680 Y6.90280
X60.03680 Y6.11540
X60.01140 Y5.96300
X59.96060 Y5.93760
X59.85900 Y5.70900
X59.80820 Y5.70900
X59.65580 Y5.55660
X59.45260 Y5.48040
X58.56360 Y5.48040
X58.53820 Y5.53120
X58.43660 Y5.55660
X58.25880 Y5.75980
X58.20800 Y5.75980
X58.20800 Y5.81060
X58.08100 Y5.91220
X57.97940 Y6.11540
X57.97940 Y6.90280
X58.00480 Y7.05520
X58.05560 Y7.08060
X58.15720 Y7.30920
X58.20800 Y7.30920
X58.36040 Y7.46160
X58.56360 Y7.53780
X59.45260 Y7.53780
X59.65580 Y7.46160
X59.85900 Y7.28380
G04 P0 ( dwell for no time -- G64 should not smooth over this point )
G00 Z8.00000 ( retract )

G00 X59.85900 Y9.82380 ( rapid move to begin. )
F200.00000
G01 Z-0.05000
G04 P0 ( dwell for no time -- G64 should not smooth over this point )
F400.00000
G01 X59.85900 Y9.82380
X59.96060 Y9.62060
X60.01140 Y9.59520
X60.03680 Y9.44280
X60.03680 Y8.65540
X60.01140 Y8.50300
X59.96060 Y8.47760
X59.85900 Y8.24900
X59.80820 Y8.24900
X59.65580 Y8.09660
X59.45260 Y8.02040
X58.56360 Y8.02040
X58.36040 Y8.09660
X58.30960 Y8.17280
X58.15720 Y8.24900
X58.13180 Y8.35060
X58.00480 Y8.50300
X57.97940 Y8.65540
X57.97940 Y9.44280
X58.00480 Y9.59520
X58.05560 Y9.62060
X58.15720 Y9.84920
X58.20800 Y9.84920
X58.36040 Y10.00160
X58.56360 Y10.07780
X59.45260 Y10.07780
X59.65580 Y10.00160
X59.85900 Y9.82380
G04 P0 ( dwell for no time -- G64 should not smooth over this point )
G00 Z8.00000 ( retract )

G00 X59.85900 Y12.36380 ( rapid move to begin. )
F200.00000
G01 Z-0.05000
G04 P0 ( dwell for no time -- G64 should not smooth over this point )
F400.00000
G01 X59.85900 Y12.36380
X59.96060 Y12.16060
X60.01140 Y12.13520
X60.03680 Y11.98280
X60.03680 Y11.19540
X60.01140 Y11.04300
X59.96060 Y11.01760
X59.85900 Y10.78900
X59.80820 Y10.78900
X59.65580 Y10.63660
X59.45260 Y10.56040
X58.56360 Y10.56040
X58.36040 Y10.63660
X58.30960 Y10.71280
X58.15720 Y10.78900
X58.13180 Y10.89060
X58.00480 Y11.04300
X57.97940 Y11.19540
X57.97940 Y11.98280
X58.00480 Y12.13520
X58.13180 Y12.28760
X58.15720 Y12.38920
X58.20800 Y12.38920
X58.36040 Y12.54160
X58.56360 Y12.61780
X59.45260 Y12.61780
X59.65580 Y12.54160
X59.85900 Y12.36380
G04 P0 ( dwell for no time -- G64 should not smooth over this point )
G00 Z8.00000 ( retract )

G00 X59.85900 Y14.90380 ( rapid move to begin. )
F200.00000
G01 Z-0.05000
G04 P0 ( dwell for no time -- G64 should not smooth over this point )
F400.00000
G01 X59.85900 Y14.90380
X59.96060 Y14.70060
X60.01140 Y14.67520
X60.03680 Y14.52280
X60.03680 Y13.73540
X60.01140 Y13.58300
X59.96060 Y13.55760
X59.85900 Y13.32900
X59.80820 Y13.32900
X59.65580 Y13.17660
X59.45260 Y13.10040
X58.56360 Y13.10040
X58.36040 Y13.17660
X58.30960 Y13.25280
X58.15720 Y13.32900
X58.13180 Y13.43060
X58.00480 Y13.58300
X57.97940 Y13.73540
X57.97940 Y14.52280
X58.00480 Y14.67520
X58.05560 Y14.70060
X58.15720 Y14.92920
X58.20800 Y14.92920
X58.36040 Y15.08160
X58.56360 Y15.15780
X59.45260 Y15.15780
X59.65580 Y15.08160
X59.85900 Y14.90380
G04 P0 ( dwell for no time -- G64 should not smooth over this point )
G00 Z8.00000 ( retract )

G00 X59.85900 Y17.44380 ( rapid move to begin. )
F200.00000
G01 Z-0.05000
G04 P0 ( dwell for no time -- G64 should not smooth over this point )
F400.00000
G01 X59.85900 Y17.44380
X59.96060 Y17.24060
X60.01140 Y17.21520
X60.03680 Y17.06280
X60.03680 Y16.27540
X60.01140 Y16.12300
X59.96060 Y16.09760
X59.85900 Y15.86900
X59.70660 Y15.79280
X59.65580 Y15.71660
X59.45260 Y15.64040
X58.56360 Y15.64040
X58.36040 Y15.71660
X58.30960 Y15.79280
X58.15720 Y15.86900
X58.13180 Y15.97060
X58.00480 Y16.12300
X57.97940 Y16.27540
X57.97940 Y17.06280
X58.00480 Y17.21520
X58.05560 Y17.24060
X58.15720 Y17.46920
X58.20800 Y17.46920
X58.36040 Y17.62160
X58.56360 Y17.69780
X59.45260 Y17.69780
X59.65580 Y17.62160
X59.85900 Y17.44380
G04 P0 ( dwell for no time -- G64 should not smooth over this point )
G00 Z8.00000 ( retract )

G00 X59.85900 Y37.76380 ( rapid move to begin. )
F200.00000
G01 Z-0.05000
G04 P0 ( dwell for no time -- G64 should not smooth over this point )
F400.00000
G01 X59.85900 Y37.76380
X59.96060 Y37.56060
X60.01140 Y37.53520
X60.03680 Y37.38280
X60.01140 Y36.54460
X60.06220 Y36.51920
X60.13840 Y36.26520
X61.00200 Y35.40160
X61.05280 Y35.24920
X61.05280 Y34.86820
X65.16760 Y30.75340
X65.80260 Y30.75340
X65.90420 Y30.70260
X72.40660 Y24.20020
X72.48280 Y24.04780
X72.48280 Y21.96500
X72.40660 Y21.81260
X71.59380 Y21.02520
X71.59380 Y18.56140
X72.40660 Y17.77400
X72.48280 Y17.62160
X72.48280 Y15.84360
X72.33040 Y15.53880
X71.67000 Y14.90380
X71.59380 Y14.72600
X71.59380 Y8.98560
X71.51760 Y8.83320
X68.74900 Y6.06460
X68.64740 Y6.01380
X68.06320 Y6.01380
X68.06320 Y5.07400
X65.19300 Y5.07400
X65.19300 Y7.94420
X68.06320 Y7.94420
X68.06320 Y7.08060
X70.60320 Y9.62060
X70.60320 Y15.31020
X70.67940 Y15.46260
X70.88260 Y15.66580
X70.95880 Y15.66580
X71.28900 Y15.94520
X71.28900 Y15.99600
X71.49220 Y16.25000
X71.49220 Y16.98660
X71.46680 Y17.06280
X71.41600 Y17.08820
X71.41600 Y17.16440
X71.31440 Y17.24060
X71.26360 Y17.36760
X71.13660 Y17.49460
X71.08580 Y17.49460
X70.93340 Y17.64700
X70.75560 Y17.69780
X70.60320 Y17.92640
X70.60320 Y21.66020
X70.67940 Y21.81260
X71.49220 Y22.60000
X71.49220 Y23.41280
X65.14220 Y29.76280
X64.50720 Y29.76280
X64.40560 Y29.81360
X60.13840 Y34.08080
X60.06220 Y34.23320
X60.06220 Y34.81740
X60.01140 Y34.84280
X59.98600 Y34.96980
X59.80820 Y35.14760
X59.80820 Y35.19840
X59.75740 Y35.19840
X59.57960 Y35.40160
X59.47800 Y35.42700
X59.45260 Y35.47780
X59.37640 Y35.47780
X58.91920 Y35.96040
X58.46200 Y35.98580
X58.36040 Y36.03660
X58.30960 Y36.11280
X58.25880 Y36.11280
X58.20800 Y36.18900
X58.15720 Y36.18900
X58.13180 Y36.29060
X58.00480 Y36.44300
X57.97940 Y36.59540
X57.97940 Y37.38280
X58.00480 Y37.53520
X58.13180 Y37.68760
X58.15720 Y37.78920
X58.20800 Y37.78920
X58.36040 Y37.94160
X58.56360 Y38.01780
X59.45260 Y38.01780
X59.65580 Y37.94160
X59.85900 Y37.76380
G04 P0 ( dwell for no time -- G64 should not smooth over this point )
G00 Z8.00000 ( retract )

G00 X59.73200 Y40.30380 ( rapid move to begin. )
F200.00000
G01 Z-0.05000
G04 P0 ( dwell for no time -- G64 should not smooth over this point )
F400.00000
G01 X59.73200 Y40.30380
X59.80820 Y40.27840
X59.83360 Y40.17680
X59.98600 Y40.04980
X59.98600 Y39.97360
X60.03680 Y39.92280
X60.03680 Y39.13540
X60.01140 Y38.98300
X59.96060 Y38.95760
X59.85900 Y38.72900
X59.80820 Y38.72900
X59.65580 Y38.57660
X59.45260 Y38.50040
X58.56360 Y38.50040
X58.36040 Y38.57660
X58.30960 Y38.65280
X58.15720 Y38.72900
X58.13180 Y38.83060
X58.00480 Y38.98300
X57.97940 Y39.13540
X57.97940 Y39.92280
X58.08100 Y40.12600
X58.20800 Y40.22760
X58.20800 Y40.27840
X58.25880 Y40.27840
X58.43660 Y40.48160
X58.53820 Y40.50700
X58.56360 Y40.55780
X59.42720 Y40.55780
X59.45260 Y40.50700
X59.52880 Y40.50700
X59.73200 Y40.30380
G04 P0 ( dwell for no time -- G64 should not smooth over this point )
G00 Z8.00000 ( retract )

G00 X60.34160 Y41.31980 ( rapid move to begin. )
F200.00000
G01 Z-0.05000
G04 P0 ( dwell for no time -- G64 should not smooth over this point )
F400.00000
G01 X60.34160 Y41.31980
X60.97660 Y40.71020
X61.05280 Y40.55780
X61.05280 Y36.92560
X65.19300 Y32.78540
X65.19300 Y33.64900
X67.98700 Y33.62360
X68.06320 Y33.49660
X68.06320 Y30.77880
X65.19300 Y30.77880
X65.19300 Y31.71860
X64.60880 Y31.71860
X64.50720 Y31.76940
X61.02740 Y35.24920
X61.00200 Y35.40160
X60.90040 Y35.47780
X60.90040 Y35.52860
X60.13840 Y36.26520
X60.13840 Y36.34140
X60.06220 Y36.44300
X60.06220 Y39.92280
X59.98600 Y39.97360
X59.98600 Y40.04980
X59.83360 Y40.17680
X59.80820 Y40.27840
X59.75740 Y40.27840
X59.40180 Y40.58320
X58.58900 Y40.58320
X58.53820 Y40.50700
X58.43660 Y40.48160
X58.25880 Y40.27840
X58.20800 Y40.27840
X58.20800 Y40.22760
X58.08100 Y40.12600
X58.00480 Y39.94820
X57.95400 Y39.92280
X57.95400 Y36.34140
X58.79220 Y35.47780
X59.45260 Y35.47780
X59.47800 Y35.42700
X59.57960 Y35.40160
X59.75740 Y35.19840
X59.80820 Y35.19840
X59.80820 Y35.14760
X59.93520 Y35.04600
X60.03680 Y34.84280
X60.01140 Y33.90300
X59.96060 Y33.87760
X59.85900 Y33.64900
X59.80820 Y33.64900
X59.65580 Y33.49660
X59.45260 Y33.42040
X58.56360 Y33.42040
X58.36040 Y33.49660
X58.30960 Y33.57280
X58.15720 Y33.64900
X58.13180 Y33.75060
X58.00480 Y33.90300
X57.97940 Y34.63960
X57.87780 Y34.69040
X57.67460 Y34.89360
X57.67460 Y34.94440
X57.03960 Y35.55400
X56.96340 Y35.70640
X56.96340 Y40.55780
X57.03960 Y40.71020
X57.70000 Y41.34520
X57.70000 Y41.39600
X57.82700 Y41.52300
X57.92860 Y41.57380
X60.06220 Y41.57380
X60.16380 Y41.52300
X60.34160 Y41.31980
G04 P0 ( dwell for no time -- G64 should not smooth over this point )
G00 Z8.00000 ( retract )

G00 X54.19480 Y43.30100 ( rapid move to begin. )
F200.00000
G01 Z-0.05000
G04 P0 ( dwell for no time -- G64 should not smooth over this point )
F400.00000
G01 X54.19480 Y43.30100
X56.91260 Y40.58320
X56.93800 Y34.79200
X58.79220 Y32.93780
X59.45260 Y32.93780
X59.65580 Y32.86160
X59.70660 Y32.78540
X59.85900 Y32.70920
X59.88440 Y32.60760
X60.01140 Y32.45520
X60.03680 Y32.30280
X60.01140 Y31.36300
X59.96060 Y31.33760
X59.85900 Y31.10900
X59.80820 Y31.10900
X59.75740 Y31.03280
X59.70660 Y31.03280
X59.65580 Y30.95660
X59.55420 Y30.90580
X58.56360 Y30.88040
X58.36040 Y30.95660
X58.30960 Y31.03280
X58.15720 Y31.10900
X58.13180 Y31.21060
X58.00480 Y31.36300
X57.97940 Y32.09960
X57.87780 Y32.15040
X55.97280 Y34.08080
X55.94740 Y39.87200
X55.79500 Y40.17680
X53.53440 Y42.43740
X53.25500 Y42.56440
X47.87020 Y42.56440
X47.81940 Y42.51360
X28.94720 Y42.51360
X25.59440 Y39.13540
X25.51820 Y39.13540
X25.44200 Y39.03380
X25.34040 Y39.00840
X25.21340 Y38.85600
X25.21340 Y38.80520
X25.11180 Y38.72900
X25.11180 Y38.65280
X20.71760 Y34.28400
X20.71760 Y31.84560
X20.79380 Y31.76940
X22.34320 Y31.76940
X22.34320 Y30.77880
X20.13340 Y30.77880
X20.03180 Y30.82960
X19.75240 Y31.13440
X19.72700 Y34.91900
X19.80320 Y35.07140
X28.18520 Y43.45340
X28.28680 Y43.50420
X47.18440 Y43.50420
X47.23520 Y43.55500
X53.91540 Y43.55500
X54.01700 Y43.50420
X54.19480 Y43.30100
G04 P0 ( dwell for no time -- G64 should not smooth over this point )
G00 Z8.00000 ( retract )

G00 X53.63600 Y42.31040 ( rapid move to begin. )
F200.00000
G01 Z-0.05000
G04 P0 ( dwell for no time -- G64 should not smooth over this point )
F400.00000
G01 X53.63600 Y42.31040
X55.79500 Y40.17680
X55.94740 Y39.87200
X55.94740 Y33.24260
X58.79220 Y30.39780
X59.55420 Y30.37240
X59.65580 Y30.32160
X59.70660 Y30.24540
X59.75740 Y30.24540
X59.80820 Y30.16920
X59.85900 Y30.16920
X60.01140 Y29.86440
X60.49400 Y29.83900
X60.62100 Y29.66120
X60.62100 Y29.07700
X60.49400 Y28.89920
X60.01140 Y28.87380
X59.85900 Y28.56900
X59.70660 Y28.49280
X59.65580 Y28.41660
X59.45260 Y28.34040
X58.56360 Y28.34040
X58.36040 Y28.41660
X58.30960 Y28.49280
X58.15720 Y28.56900
X58.13180 Y28.67060
X58.00480 Y28.82300
X57.97940 Y29.55960
X57.87780 Y29.61040
X54.98220 Y32.53140
X54.95680 Y39.46560
X54.80440 Y39.77040
X53.12800 Y41.44680
X52.84860 Y41.57380
X49.19100 Y41.57380
X46.06680 Y38.44960
X46.06680 Y37.86540
X46.04140 Y37.73840
X45.93980 Y37.66220
X45.88900 Y37.53520
X45.48260 Y37.23040
X44.84760 Y37.23040
X38.57380 Y30.95660
X38.57380 Y30.62640
X38.72620 Y30.57560
X38.77700 Y30.49940
X38.92940 Y30.42320
X38.95480 Y30.32160
X39.08180 Y30.16920
X39.10720 Y29.22940
X39.08180 Y29.07700
X39.03100 Y29.05160
X38.92940 Y28.82300
X38.87860 Y28.82300
X38.72620 Y28.67060
X38.52300 Y28.59440
X37.63400 Y28.59440
X37.43080 Y28.67060
X37.38000 Y28.74680
X37.22760 Y28.82300
X37.20220 Y28.92460
X37.07520 Y29.07700
X37.04980 Y29.22940
X37.04980 Y30.01680
X37.07520 Y30.16920
X37.12600 Y30.19460
X37.22760 Y30.42320
X37.27840 Y30.42320
X37.43080 Y30.57560
X37.58320 Y30.62640
X37.58320 Y31.59160
X37.65940 Y31.74400
X44.00940 Y38.06860
X44.03480 Y38.80520
X44.08560 Y38.83060
X44.18720 Y39.05920
X44.23800 Y39.05920
X44.39040 Y39.21160
X44.59360 Y39.28780
X45.22860 Y39.28780
X48.42900 Y42.51360
X48.53060 Y42.56440
X53.25500 Y42.56440
X53.53440 Y42.43740
X53.63600 Y42.31040
G04 P0 ( dwell for no time -- G64 should not smooth over this point )
G00 Z8.00000 ( retract )

G00 X53.22960 Y41.31980 ( rapid move to begin. )
F200.00000
G01 Z-0.05000
G04 P0 ( dwell for no time -- G64 should not smooth over this point )
F400.00000
G01 X53.22960 Y41.31980
X54.80440 Y39.77040
X54.95680 Y39.46560
X54.95680 Y31.71860
X58.79220 Y27.85780
X59.55420 Y27.83240
X59.65580 Y27.78160
X59.70660 Y27.70540
X59.75740 Y27.70540
X59.80820 Y27.62920
X59.85900 Y27.62920
X60.01140 Y27.32440
X61.61160 Y27.32440
X61.71320 Y27.27360
X62.83080 Y26.15600
X62.83080 Y26.10520
X70.04440 Y18.91700
X70.12060 Y18.76460
X70.12060 Y17.79940
X70.22220 Y17.69780
X70.83180 Y17.69780
X71.26360 Y17.36760
X71.26360 Y17.31680
X71.46680 Y17.06280
X71.46680 Y16.27540
X71.44140 Y16.14840
X71.33980 Y16.07220
X71.28900 Y15.94520
X70.95880 Y15.66580
X69.99360 Y15.64040
X69.79040 Y15.71660
X69.73960 Y15.79280
X69.58720 Y15.86900
X69.56180 Y15.97060
X69.43480 Y16.12300
X69.40940 Y16.85960
X69.20620 Y17.01200
X69.13000 Y17.16440
X69.13000 Y18.12960
X60.95120 Y26.33380
X60.01140 Y26.33380
X59.85900 Y26.02900
X59.80820 Y26.02900
X59.65580 Y25.87660
X59.45260 Y25.80040
X58.56360 Y25.80040
X58.36040 Y25.87660
X58.30960 Y25.95280
X58.15720 Y26.02900
X58.13180 Y26.13060
X58.00480 Y26.28300
X57.97940 Y27.01960
X57.87780 Y27.07040
X57.21740 Y27.73080
X57.21740 Y27.78160
X54.04240 Y30.93120
X53.96620 Y31.08360
X53.96620 Y39.05920
X52.44220 Y40.58320
X50.33400 Y40.58320
X50.30860 Y40.15140
X50.15620 Y40.02440
X49.92760 Y40.02440
X42.58700 Y32.65840
X42.58700 Y30.37240
X42.73940 Y30.32160
X42.89180 Y30.16920
X42.94260 Y30.16920
X42.96800 Y30.06760
X43.09500 Y29.91520
X43.12040 Y29.76280
X43.09500 Y28.82300
X43.04420 Y28.79760
X42.94260 Y28.56900
X42.89180 Y28.56900
X42.73940 Y28.41660
X42.53620 Y28.34040
X41.64720 Y28.34040
X41.44400 Y28.41660
X41.39320 Y28.49280
X41.24080 Y28.56900
X41.21540 Y28.67060
X41.08840 Y28.82300
X41.06300 Y28.97540
X41.06300 Y29.76280
X41.08840 Y29.91520
X41.13920 Y29.94060
X41.24080 Y30.16920
X41.29160 Y30.16920
X41.44400 Y30.32160
X41.59640 Y30.37240
X41.59640 Y33.29340
X41.67260 Y33.44580
X45.48260 Y37.25580
X45.55880 Y37.25580
X45.88900 Y37.53520
X45.93980 Y37.66220
X46.04140 Y37.73840
X46.04140 Y37.81460
X48.09880 Y39.84660
X48.09880 Y39.89740
X49.16560 Y40.96420
X49.34340 Y41.01500
X49.36880 Y41.29440
X49.57200 Y41.52300
X49.67360 Y41.57380
X52.84860 Y41.57380
X53.12800 Y41.44680
X53.22960 Y41.31980
G04 P0 ( dwell for no time -- G64 should not smooth over this point )
G00 Z8.00000 ( retract )

G00 X52.41680 Y40.30380 ( rapid move to begin. )
F200.00000
G01 Z-0.05000
G04 P0 ( dwell for no time -- G64 should not smooth over this point )
F400.00000
G01 X52.41680 Y40.30380
X52.41680 Y38.50040
X51.19760 Y38.50040
X46.80340 Y34.10620
X46.80340 Y30.37240
X46.95580 Y30.32160
X47.00660 Y30.24540
X47.15900 Y30.16920
X47.18440 Y30.06760
X47.31140 Y29.91520
X47.33680 Y29.76280
X47.31140 Y28.82300
X47.26060 Y28.79760
X47.15900 Y28.56900
X47.00660 Y28.49280
X46.95580 Y28.41660
X46.75260 Y28.34040
X45.86360 Y28.34040
X45.66040 Y28.41660
X45.60960 Y28.49280
X45.45720 Y28.56900
X45.43180 Y28.67060
X45.30480 Y28.82300
X45.27940 Y29.76280
X45.30480 Y29.91520
X45.35560 Y29.94060
X45.45720 Y30.16920
X45.50800 Y30.16920
X45.66040 Y30.32160
X45.81280 Y30.37240
X45.83820 Y34.81740
X50.35940 Y39.33860
X50.35940 Y40.55780
X52.41680 Y40.55780
X52.41680 Y40.30380

G04 P0 ( dwell for no time -- G64 should not smooth over this point )
G00 Z15.000 ( retract )

M5 ( Spindle off. )
M9 ( Coolant off. )
M2 ( Program end. )

