( pcb2gcode 1.3.2 )
( Software-independent Gcode )

G94 ( Millimeters per minute feed rate. )
G21 ( Units == Millimeters. )

G90 ( Absolute coordinates. )
S1200 ( RPM spindle speed. )
G64 P0.05080 ( set maximum deviation from commanded toolpath )
F200.00000 ( Feedrate. )

F200.00000 ( Feedrate. )
M3 ( Spindle on clockwise. )
G04 P0 ( dwell for no time -- G64 should not smooth over this point )
G00 Z8.00000 ( retract )

G00 X75.20060 Y45.05360 ( rapid move to begin. )
G01 Z-0.43750 F100.00000 ( plunge. )
G04 P0 ( dwell for no time -- G64 should not smooth over this point )
F200.00000
G01 X75.20060 Y45.05360
X75.18875 Y24.08730
Z0.50000
X75.18705 Y21.08730
Z-0.43750 F100.00000
F200.00000
G01 X75.17520 Y0.12100
X39.13400 Y0.13319
Z0.50000
X36.13400 Y0.13420
Z-0.43750 F100.00000
F200.00000
G01 X0.09280 Y0.14640
X0.10466 Y21.35400
Z0.50000
X0.10634 Y24.35400
Z-0.43750 F100.00000
F200.00000
G01 X0.11820 Y45.56160
X36.14670 Y45.56160
Z0.50000
X39.14670 Y45.56160
Z-0.43750 F100.00000
F200.00000
G01 X75.17520 Y45.56160
X75.20060 Y45.05360
G01 Z-0.87500 F100.00000 ( plunge. )
G04 P0 ( dwell for no time -- G64 should not smooth over this point )
F200.00000
G01 X75.20060 Y45.05360
X75.18875 Y24.08730
Z0.50000
X75.18705 Y21.08730
Z-0.87500 F100.00000
F200.00000
G01 X75.17520 Y0.12100
X39.13400 Y0.13319
Z0.50000
X36.13400 Y0.13420
Z-0.87500 F100.00000
F200.00000
G01 X0.09280 Y0.14640
X0.10466 Y21.35400
Z0.50000
X0.10634 Y24.35400
Z-0.87500 F100.00000
F200.00000
G01 X0.11820 Y45.56160
X36.14670 Y45.56160
Z0.50000
X39.14670 Y45.56160
Z-0.87500 F100.00000
F200.00000
G01 X75.17520 Y45.56160
X75.20060 Y45.05360
G01 Z-1.31250 F100.00000 ( plunge. )
G04 P0 ( dwell for no time -- G64 should not smooth over this point )
F200.00000
G01 X75.20060 Y45.05360
X75.18875 Y24.08730
Z0.50000
X75.18705 Y21.08730
Z-1.31250 F100.00000
F200.00000
G01 X75.17520 Y0.12100
X39.13400 Y0.13319
Z0.50000
X36.13400 Y0.13420
Z-1.31250 F100.00000
F200.00000
G01 X0.09280 Y0.14640
X0.10466 Y21.35400
Z0.50000
X0.10634 Y24.35400
Z-1.31250 F100.00000
F200.00000
G01 X0.11820 Y45.56160
X36.14670 Y45.56160
Z0.50000
X39.14670 Y45.56160
Z-1.31250 F100.00000
F200.00000
G01 X75.17520 Y45.56160
X75.20060 Y45.05360
G01 Z-1.75000 F100.00000 ( plunge. )
G04 P0 ( dwell for no time -- G64 should not smooth over this point )
F200.00000
G01 X75.20060 Y45.05360
X75.18875 Y24.08730
Z0.50000
X75.18705 Y21.08730
Z-1.75000 F100.00000
F200.00000
G01 X75.17520 Y0.12100
X39.13400 Y0.13319
Z0.50000
X36.13400 Y0.13420
Z-1.75000 F100.00000
F200.00000
G01 X0.09280 Y0.14640
X0.10466 Y21.35400
Z0.50000
X0.10634 Y24.35400
Z-1.75000 F100.00000
F200.00000
G01 X0.11820 Y45.56160
X36.14670 Y45.56160
Z0.50000
X39.14670 Y45.56160
Z-1.75000 F100.00000
F200.00000
G01 X75.17520 Y45.56160
X75.20060 Y45.05360

G04 P0 ( dwell for no time -- G64 should not smooth over this point )
G00 Z15.000 ( retract )

M5 ( Spindle off. )
M9 ( Coolant off. )
M2 ( Program end. )

